( Made using CamBam - http://www.cambam.co.uk )
( FenceJointsBTooth_etch_copper_top 1/24/2016 7:55:50 AM )
( T9 : 0.85 )
( T11 : 6.3 )
G21 G90 G64 G40
G0 Z3.0
( T11 : 6.3 )
T11 M6
( Engrave1 )
G17
M3 S1000
G0 X1.2926 Y50.81803
G0 Z0.1
G1 F300.0 Z-0.25
G1 F800.0 X0.80339 Y50.71897
G1 X0.40101 Y50.4444
G1 X0.12678 Y50.04232
G1 X0.02756 Y49.55286
G1 X0.12678 Y49.06366
G1 X0.40101 Y48.66157
G1 X0.80339 Y48.38852
G1 X1.2926 Y48.28794
G1 X1.7818 Y48.38852
G1 X2.18419 Y48.66157
G1 X2.45704 Y49.06366
G1 X2.55763 Y49.55286
G1 X2.45704 Y50.04232
G1 X2.18419 Y50.4444
G1 X1.7818 Y50.71897
G1 X1.2926 Y50.81803
G0 Z3.0
G0 X2.66789 Y50.04232
G0 Z0.1
G1 F300.0 Z-0.25
G1 F800.0 X2.56865 Y49.55286
G1 X2.66789 Y49.06366
G1 X2.94074 Y48.66157
G1 X3.34312 Y48.38852
G1 X3.8337 Y48.28794
G1 X4.3229 Y48.38852
G1 X4.72392 Y48.66157
G1 X4.99679 Y49.06366
G1 X5.09735 Y49.55286
G1 X4.99679 Y50.04232
G1 X4.72392 Y50.4444
G1 X4.3229 Y50.71897
G1 X3.8337 Y50.81803
G1 X3.34312 Y50.71897
G1 X2.94074 Y50.4444
G1 X2.66789 Y50.04232
G0 Z3.0
G0 X5.1084 Y49.55286
G0 Z0.1
G1 F300.0 Z-0.25
G1 F800.0 X5.20761 Y49.06366
G1 X5.48048 Y48.66157
G1 X5.88284 Y48.38852
G1 X6.37342 Y48.28794
G1 X6.86262 Y48.38852
G1 X7.26504 Y48.66157
G1 X7.53788 Y49.06366
G1 X7.63844 Y49.55286
G1 X7.53788 Y50.04232
G1 X7.26504 Y50.4444
G1 X6.86262 Y50.71897
G1 X6.37342 Y50.81803
G1 X5.88284 Y50.71897
G1 X5.48048 Y50.4444
G1 X5.20761 Y50.04232
G1 X5.1084 Y49.55286
G0 Z3.0
G0 X7.64812
G0 Z0.1
G1 F300.0 Z-0.25
G1 F800.0 X7.83415 Y48.91329
G1 X8.31096 Y48.46422
G1 X8.28891 Y31.81604
G1 X8.45287 Y31.29661
G1 X8.4708 Y31.27883
G1 X8.98896 Y31.11881
G1 X23.02563 Y31.16859
G1 X23.48865 Y30.66974
G1 X24.15286 Y30.4739
G1 X24.65448 Y30.57728
G1 X25.0679 Y30.85694
G1 X25.34765 Y31.27045
G1 X25.45105 Y31.7721
G1 X25.34765 Y32.27502
G1 X25.0679 Y32.68853
G1 X24.65448 Y32.96945
G1 X24.15286 Y33.07156
G1 X23.48451 Y32.87446
G1 X23.02012 Y32.36874
G1 X9.48916 Y32.31921
G1 X9.51121 Y48.46295
G1 X9.99076 Y48.91202
G1 X10.17821 Y49.55286
G1 X10.0776 Y50.04232
G1 X9.80476 Y50.4444
G1 X9.40234 Y50.71897
G1 X8.91314 Y50.81803
G1 X8.42394 Y50.71897
G1 X8.02157 Y50.4444
G1 X7.7473 Y50.04232
G1 X7.64812 Y49.55286
G0 Z3.0
G0 X10.18921
G0 Z0.1
G1 F300.0 Z-0.25
G1 F800.0 X10.28845 Y49.06366
G1 X10.56129 Y48.66157
G1 X10.96366 Y48.38852
G1 X11.45286 Y48.28794
G1 X11.94209 Y48.38852
G1 X12.34448 Y48.66157
G1 X12.6173 Y49.06366
G1 X12.71793 Y49.55286
G1 X12.6173 Y50.04232
G1 X12.34448 Y50.4444
G1 X11.94209 Y50.71897
G1 X11.45286 Y50.81803
G1 X10.96366 Y50.71897
G1 X10.56129 Y50.4444
G1 X10.28845 Y50.04232
G1 X10.18921 Y49.55286
G0 Z3.0
G0 X12.72893
G0 Z0.1
G1 F300.0 Z-0.25
G1 F800.0 X12.82817 Y49.06366
G1 X13.10099 Y48.66157
G1 X13.50338 Y48.38852
G1 X13.99261 Y48.28794
G1 X14.48181 Y48.38852
G1 X14.8842 Y48.66157
G1 X15.15702 Y49.06366
G1 X15.25763 Y49.55286
G1 X15.15702 Y50.04232
G1 X14.8842 Y50.4444
G1 X14.48181 Y50.71897
G1 X13.99261 Y50.81803
G1 X13.50338 Y50.71897
G1 X13.10099 Y50.4444
G1 X12.82817 Y50.04232
G1 X12.72893 Y49.55286
G0 Z3.0
G0 X15.31828
G0 Z0.1
G1 F300.0 Z-0.25
G1 F800.0 X15.41473 Y49.08296
G1 X15.67658 Y48.69561
G1 X16.06243 Y48.43399
G1 X16.5337 Y48.33772
G1 X17.0036 Y48.43399
G1 X17.38948 Y48.69561
G1 X17.6513 Y49.08296
G1 X17.74777 Y49.55286
G1 X17.6513 Y50.02276
G1 X17.38948 Y50.41011
G1 X17.0036 Y50.67198
G1 X16.5337 Y50.76673
G1 X16.06243 Y50.67198
G1 X15.67658 Y50.41011
G1 X15.41473 Y50.02276
G1 X15.31828 Y49.55286
G0 Z3.0
G0 X17.8084
G0 Z0.1
G1 F300.0 Z-0.25
G1 F800.0 X17.99443 Y48.91329
G1 X18.47261 Y48.46422
G1 Y40.56812
G1 X17.94345 Y40.08857
G1 X17.73672 Y39.39261
G1 X17.84144 Y38.87572
G1 X18.12945 Y38.45001
G1 X18.55531 Y38.16198
G1 X19.07342 Y38.0558
G1 X19.59021 Y38.16198
G1 X20.01601 Y38.45001
G1 X20.30402 Y38.87572
G1 X20.41014 Y39.39261
G1 X20.20204 Y40.08857
G1 X19.67286 Y40.56659
G1 Y48.46422
G1 X20.15106 Y48.91329
G1 X20.33844 Y49.55286
G1 X20.23788 Y50.04232
G1 X19.96504 Y50.4444
G1 X19.56262 Y50.71897
G1 X19.07342 Y50.81803
G1 X18.58284 Y50.71897
G1 X18.18048 Y50.4444
G1 X17.90761 Y50.04232
G1 X17.8084 Y49.55286
G0 Z3.0
G0 X20.34949
G0 Z0.1
G1 F300.0 Z-0.25
G1 F800.0 X20.53552 Y48.91329
G1 X21.0137 Y48.46422
G1 X21.01233 Y40.56812
G1 X20.48317 Y40.08857
G1 X20.27646 Y39.39261
G1 X20.38116 Y38.87572
G1 X20.66917 Y38.45001
G1 X21.09503 Y38.16198
G1 X21.61314 Y38.0558
G1 X22.12993 Y38.16198
G1 X22.55573 Y38.45001
G1 X22.84374 Y38.87572
G1 X22.94987 Y39.39261
G1 X22.74174 Y40.08857
G1 X22.21258 Y40.56812
G1 X22.214 Y48.46422
G1 X22.69076 Y48.91329
G1 X22.87821 Y49.55286
G1 X22.7776 Y50.04232
G1 X22.50476 Y50.4444
G1 X22.10234 Y50.71897
G1 X21.61314 Y50.81803
G1 X21.12394 Y50.71897
G1 X20.72157 Y50.4444
G1 X20.4487 Y50.04232
G1 X20.34949 Y49.55286
G0 Z3.0
G0 X22.88784
G0 Z0.1
G1 F300.0 Z-0.25
G1 F800.0 X23.07389 Y48.91329
G1 X23.55342 Y48.46295
G1 Y40.56812
G1 X23.02289 Y40.08857
G1 X22.81619 Y39.39261
G1 X22.92231 Y38.87572
G1 X23.21032 Y38.45001
G1 X23.63473 Y38.16198
G1 X24.15286 Y38.0558
G1 X24.66965 Y38.16198
G1 X25.09545 Y38.45001
G1 X25.38346 Y38.87572
G1 X25.48966 Y39.39261
G1 X25.28151 Y40.08857
G1 X24.75233 Y40.56812
G1 Y48.46295
G1 X25.23048 Y48.91329
G1 X25.41803 Y49.55286
G1 X25.3173 Y50.04232
G1 X25.04448 Y50.4444
G1 X24.64209 Y50.71897
G1 X24.15286 Y50.81803
G1 X23.66228 Y50.71897
G1 X23.2599 Y50.4444
G1 X22.98708 Y50.04232
G1 X22.88784 Y49.55286
G0 Z3.0
G0 X26.95296
G0 Z0.1
G1 F300.0 Z-0.25
G1 F800.0 X27.09367 Y48.99635
G1 X27.46299 Y48.56759
G1 X26.27376 Y40.64381
G1 X25.61641 Y40.16985
G1 X25.35591 Y39.39261
G1 X25.46198 Y38.87572
G1 X25.75001 Y38.45001
G1 X26.17445 Y38.16198
G1 X26.69261 Y38.0558
G1 X27.20924 Y38.16198
G1 X27.6352 Y38.45001
G1 X27.92324 Y38.87572
G1 X28.02941 Y39.39261
G1 X27.86939 Y39.99763
G1 X27.45867 Y40.45509
G1 X28.64815 Y48.37735
G1 X29.2448 Y48.83074
G1 X29.48178 Y49.55286
G1 X29.3812 Y50.04232
G1 X29.1084 Y50.4444
G1 X28.70581 Y50.71897
G1 X28.21661 Y50.81803
G1 X27.7274 Y50.71897
G1 X27.32507 Y50.4444
G1 X27.05227 Y50.04232
G1 X26.95296 Y49.55286
G0 Z3.0
G0 X29.95981 Y48.58283
G0 Z0.1
G1 F300.0 Z-0.25
G1 F800.0 X29.6098 Y49.00016
G1 X29.4927 Y49.55286
G1 X29.59049 Y50.04232
G1 X29.86354 Y50.4444
G1 X30.26715 Y50.71897
G1 X30.75788 Y50.81803
G1 X31.24708 Y50.71897
G1 X31.64942 Y50.4444
G1 X31.92221 Y50.04232
G1 X32.0228 Y49.55286
G1 X31.78454 Y48.79772
G1 X31.17545 Y48.3235
G1 F300.0 X31.16859 Y48.30166
G1 F800.0 X31.17266 Y48.33061
G1 X30.01772 Y40.57371
G1 F300.0 X30.03982 Y40.56228
G1 F800.0 X30.44088 Y40.06113
G1 X30.5689 Y39.39261
G1 X30.46298 Y38.87572
G1 X30.17495 Y38.45001
G1 X29.74899 Y38.16198
G1 X29.23235 Y38.0558
G1 X28.71419 Y38.16198
G1 X28.28976 Y38.45001
G1 X28.00172 Y38.87572
G1 X27.89555 Y39.39261
G1 X28.14371 Y40.21658
G1 X28.81351 Y40.70172
G1 F300.0 X28.81884 Y40.6715
G1 F800.0 X30.00121 Y48.5582
G0 Z3.0
G0 X32.14657 Y49.10555
G0 Z0.1
G1 F300.0 Z-0.25
G1 F800.0 X32.17443 Y48.99635
G1 X32.54375 Y48.56759
G1 X31.35325 Y40.64381
G1 X30.69717 Y40.16985
G1 X30.43682 Y39.39261
G1 X30.54147 Y38.87572
G1 X30.8295 Y38.45001
G1 X31.25521 Y38.16198
G1 X31.77337 Y38.0558
G1 X32.29026 Y38.16198
G1 X32.71596 Y38.45001
G1 X33.004 Y38.87572
G1 X33.11017 Y39.39261
G1 X32.95015 Y39.99763
G1 X32.53969 Y40.45509
G1 X33.72739 Y48.37608
G1 X34.32556 Y48.82947
G1 X34.56254 Y49.55286
G1 X34.46196 Y50.04232
G1 X34.18916 Y50.4444
G1 X33.78683 Y50.71897
G1 X33.29762 Y50.81803
G1 X32.80842 Y50.71897
G1 X32.40583 Y50.4444
G1 X32.13176 Y50.04232
G1 X32.03245 Y49.55286
G1 X32.14657 Y49.10555
G0 Z3.0
G0 X34.57219 Y49.55286
G0 Z0.1
G1 F300.0 Z-0.25
G1 F800.0 X34.67151 Y49.06366
G1 X34.9443 Y48.66157
G1 X35.34664 Y48.38852
G1 X35.83737 Y48.28794
G1 X36.32657 Y48.38852
G1 X36.72865 Y48.66157
G1 X37.0017 Y49.06366
G1 X37.10229 Y49.55286
G1 X37.0017 Y50.04232
G1 X36.72865 Y50.4444
G1 X36.32657 Y50.71897
G1 X35.83737 Y50.81803
G1 X35.34664 Y50.71897
G1 X34.9443 Y50.4444
G1 X34.67151 Y50.04232
G1 X34.57219 Y49.55286
G0 Z3.0
G0 X37.11194
G0 Z0.1
G1 F300.0 Z-0.25
G1 F800.0 X37.25393 Y48.99635
G1 X37.62299 Y48.56759
G1 X36.43376 Y40.64381
G1 X35.77793 Y40.16985
G1 X35.51758 Y39.39261
G1 X35.62248 Y38.87572
G1 X35.91027 Y38.45001
G1 X36.33622 Y38.16198
G1 X36.85438 Y38.0558
G1 X37.37127 Y38.16198
G1 X37.79545 Y38.45001
G1 X38.08349 Y38.87572
G1 X38.18966 Y39.39261
G1 X38.0299 Y39.99763
G1 X37.61918 Y40.45509
G1 X38.80841 Y48.37735
G1 X39.4048 Y48.83074
G1 X39.64203 Y49.55286
G1 X39.54145 Y50.04232
G1 X39.26865 Y50.4444
G1 X38.86632 Y50.71897
G1 X38.37686 Y50.81803
G1 X37.88664 Y50.71897
G1 X37.48405 Y50.4444
G1 X37.211 Y50.04232
G1 X37.11194 Y49.55286
G0 Z3.0
G0 X39.65423
G0 Z0.1
G1 F300.0 Z-0.25
G1 F800.0 X39.7952 Y48.99635
G1 X40.16451 Y48.56759
G1 X38.97478 Y40.64381
G1 X38.31768 Y40.16985
G1 X38.0558 Y39.39261
G1 X38.16198 Y38.87572
G1 X38.45001 Y38.45001
G1 X38.87572 Y38.16198
G1 X39.39388 Y38.0558
G1 X39.91077 Y38.16198
G1 X40.3352 Y38.45001
G1 X40.62298 Y38.87572
G1 X40.73068 Y39.39261
G1 X40.57091 Y39.99763
G1 X40.16019 Y40.45509
G1 X41.34942 Y48.37735
G1 X41.94607 Y48.83074
G1 X42.18305 Y49.55286
G1 X42.08247 Y50.04232
G1 X41.80992 Y50.4444
G1 X41.40733 Y50.71897
G1 X40.91788 Y50.81803
G1 X40.42766 Y50.71897
G1 X40.02659 Y50.4444
G1 X39.75379 Y50.04232
G1 X39.65423 Y49.55286
G0 Z3.0
G0 X42.19397
G0 Z0.1
G1 F300.0 Z-0.25
G1 F800.0 X42.40073 Y48.87214
G1 X42.93133 Y48.41443
G1 X43.8244 Y34.75126
G1 X30.2453 Y32.54502
G1 X29.80563 Y32.92551
G1 X29.23235 Y33.07156
G1 X28.72943 Y32.96945
G1 X28.31592 Y32.68853
G1 X28.03627 Y32.27502
G1 X27.93416 Y31.7721
G1 X28.03627 Y31.27045
G1 X28.31592 Y30.85694
G1 X28.72943 Y30.57728
G1 X29.23235 Y30.4739
G1 X29.9847 Y30.7274
G1 X30.44647 Y31.36138
G1 X44.45559 Y33.63798
G1 X44.94073 Y33.87903
G1 X44.95825 Y33.90392
G1 X45.05223 Y34.38068
G1 X44.12767 Y48.51121
G1 X44.55465 Y48.95215
G1 X44.7228 Y49.55286
G1 X44.62221 Y50.04232
G1 X44.34942 Y50.4444
G1 X43.94683 Y50.71897
G1 X43.45788 Y50.81803
G1 X42.96715 Y50.71897
G1 X42.56608 Y50.4444
G1 X42.29354 Y50.04232
G1 X42.19397 Y49.55286
G0 Z3.0
G0 X44.73397
G0 Z0.1
G1 F300.0 Z-0.25
G1 F800.0 X44.83303 Y49.06366
G1 X45.10583 Y48.66157
G1 X45.50842 Y48.38852
G1 X45.99915 Y48.28794
G1 X46.42485 Y48.37608
G1 X53.36337 Y42.25468
G1 X53.29707 Y41.9321
G1 X53.40172 Y41.41546
G1 X53.6895 Y40.9895
G1 X54.11546 Y40.70172
G1 X54.63362 Y40.59555
G1 X55.15051 Y40.70172
G1 X55.57495 Y40.9895
G1 X55.86298 Y41.41546
G1 X55.97042 Y41.9321
G1 X55.86298 Y42.45051
G1 X55.57495 Y42.87622
G1 X55.15051 Y43.16425
G1 X54.63362 Y43.2689
G1 X54.14035 Y43.16832
G1 X47.20742 Y49.28565
G1 X47.2628 Y49.55286
G1 X47.16221 Y50.04232
G1 X46.88916 Y50.4444
G1 X46.48657 Y50.71897
G1 X45.99915 Y50.81803
G1 X45.50842 Y50.71897
G1 X45.10583 Y50.4444
G1 X44.83303 Y50.04232
G1 X44.73397 Y49.55286
G0 Z3.0
G0 X53.6895 Y40.33672
G0 Z0.1
G1 F300.0 Z-0.25
G1 F800.0 X53.40172 Y39.91077
G1 X53.29707 Y39.39261
G1 X53.50358 Y38.69792
G1 X54.03418 Y38.21862
G1 Y27.85288
G1 X53.51221 Y27.37891
G1 X53.30927 Y26.69261
G1 X53.41417 Y26.1813
G1 X53.69941 Y25.75966
G1 X54.11953 Y25.47442
G1 X54.63362 Y25.36833
G1 X55.14492 Y25.47442
G1 X55.56682 Y25.75966
G1 X55.85181 Y26.1813
G1 X55.95798 Y26.69261
G1 X55.75402 Y27.37891
G1 X55.23306 Y27.85288
G1 Y38.21862
G1 X55.76214 Y38.69792
G1 X55.97042 Y39.39261
G1 X55.86298 Y39.91077
G1 X55.57495 Y40.33672
G1 X55.15051 Y40.62451
G1 X54.63362 Y40.72915
G1 X54.11546 Y40.62451
G1 X53.6895 Y40.33672
G0 Z3.0
G0 X52.03038 Y32.32607
G0 Z0.1
G1 F300.0 Z-0.25
G1 F800.0 X51.80609 Y32.27654
G1 X41.80688 Y29.77667
G1 X41.74058 Y29.75864
G1 X41.73245 Y29.7561
G1 X41.72306 Y29.75331
G1 X34.21812 Y27.25064
G1 X34.21659
G1 X34.04438 Y27.18181
G1 X34.04032 Y27.17902
G1 X33.8709 Y27.03703
G1 X29.61411 Y22.83272
G1 X29.23235 Y22.91126
G1 X28.56687 Y22.71558
G1 X28.10383 Y22.21258
G1 X25.28288
G1 X24.81849 Y22.71558
G1 X24.15286 Y22.91126
G1 X23.64991 Y22.8093
G1 X23.23648 Y22.52955
G1 X22.95672 Y22.11614
G1 X22.85477 Y21.61314
G1 X22.95672 Y21.11014
G1 X23.23648 Y20.69676
G1 X23.64991 Y20.417
G1 X24.15286 Y20.31365
G1 X24.81849 Y20.5107
G1 X25.28288 Y21.01233
G1 X28.10383
G1 X28.56687 Y20.5107
G1 X29.23235 Y20.31365
G1 X29.73527 Y20.417
G1 X30.14878 Y20.69676
G1 X30.42844 Y21.11014
G1 X30.53182 Y21.61314
G1 X30.45612 Y21.97697
G1 X34.66592 Y26.13457
G1 X42.10329 Y28.61361
G1 X51.45202 Y30.95066
G1 X51.48224 Y27.84475
G1 X50.9684 Y27.37206
G1 X50.76825 Y26.69261
G1 X50.87315 Y26.1813
G1 X51.15839 Y25.75966
G1 X51.58003 Y25.47442
G1 X52.09261 Y25.36833
G1 X52.60518 Y25.47442
G1 X53.0258 Y25.75966
G1 X53.31079 Y26.1813
G1 X53.41696 Y26.69261
G1 X53.21021 Y27.38577
G1 X52.68112 Y27.85974
G1 X52.64506 Y31.62605
G1 X52.46472 Y32.15513
G1 X52.4317 Y32.18409
G1 X52.40401 Y32.20618
G1 X52.3969 Y32.21177
G1 X52.39182 Y32.21584
G1 X52.03038 Y32.32607
G0 Z3.0
G0 X50.06543 Y27.91206
G0 Z0.1
G1 F300.0 Z-0.25
G1 F800.0 X49.55438 Y28.01696
G1 X49.04029 Y27.91206
G1 X48.61992 Y27.62682
G1 X48.33468 Y27.20518
G1 X48.23003 Y26.69261
G1 X48.33468 Y26.1813
G1 X48.61992 Y25.75966
G1 X49.04029 Y25.47442
G1 X49.55438 Y25.36833
G1 X50.06543 Y25.47442
G1 X50.48555 Y25.75966
G1 X50.77104 Y26.1813
G1 X50.87722 Y26.69261
G1 X50.77104 Y27.20518
G1 X50.48555 Y27.62682
G1 X50.06543 Y27.91206
G0 Z3.0
G0 X55.85738 Y26.73243
G0 Z0.1
G1 F300.0 Z-0.25
G1 F800.0 X55.84927 Y26.69261
G1 X56.18277 Y25.84374
G1 X51.64074 Y14.61546
G1 X35.48583 Y14.59342
G1 X35.13582 Y15.01648
G1 X34.63849 Y15.26177
G1 X35.35883 Y15.72341
G1 X35.64992 Y16.53233
G1 X35.54374 Y17.05046
G1 X35.25571 Y17.47629
G1 X34.83 Y17.7643
G1 X34.31311 Y17.869
G1 X33.79495 Y17.7643
G1 X33.36925 Y17.47629
G1 X33.08121 Y17.05046
G1 X32.97657 Y16.53233
G1 X33.26587 Y15.72341
G1 X33.98647 Y15.26177
G1 X33.26587 Y14.80287
G1 X32.97657 Y13.99261
G1 X33.25749 Y13.21537
G1 X31.3215 Y9.31415
G1 X29.03804 Y7.03075
G1 X24.31824
G1 X23.75741 Y6.81165
G1 X23.75599 Y6.81027
G1 X23.72568 Y6.76755
G1 X23.67745 Y6.17774
G1 X24.79919 Y2.19246
G1 X24.51669 Y1.78869
G1 X24.41194 Y1.2926
G1 X24.51118 Y0.80339
G1 X24.78402 Y0.40101
G1 X25.18639 Y0.12816
G1 X25.67711 Y0.02756
G1 X26.16632 Y0.12816
G1 X26.56713 Y0.40101
G1 X26.83993 Y0.80339
G1 X26.94076 Y1.2926
G1 X26.65679 Y2.06706
G1 X25.95956 Y2.49838
G1 X25.02106 Y5.83047
G1 X29.2006
G1 X29.51353 Y5.87182
G1 X29.52039 Y5.87456
G1 X29.53004 Y5.87873
G1 X29.5369 Y5.88284
G1 X29.77109 Y6.06613
G1 X32.19933 Y8.49559
G1 X32.28061 Y8.57966
G1 X32.30677 Y8.61276
G1 X32.37967 Y8.74641
G1 X34.31997 Y12.65728
G1 X35.01187 Y12.86675
G1 X35.48863 Y13.39454
G1 X51.94783 Y13.41658
G1 X52.36947 Y13.50754
G1 X52.39461 Y13.52405
G1 X52.63693 Y13.88374
G1 X57.29453 Y25.39312
G1 X57.76316 Y25.52827
G1 X58.14492 Y25.81199
G1 X58.40273 Y26.21178
G1 X58.49772 Y26.69261
G1 X58.39181 Y27.2067
G1 X58.10631 Y27.62682
G1 X57.68492 Y27.91206
G1 X57.17337 Y28.01696
G1 X56.6608 Y27.91206
G1 X56.23916 Y27.62682
G1 X55.95366 Y27.20518
G1 X55.85738 Y26.73243
G0 Z3.0
G0 X58.39028 Y26.69261
G0 Z0.1
G1 F300.0 Z-0.25
G1 F800.0 X58.49239 Y26.18689
G1 X58.77357 Y25.76932
G1 X56.95848 Y20.32744
G1 X56.18937 Y19.89747
G1 X55.87543 Y19.07205
G1 X55.97728 Y18.57042
G1 X56.25719 Y18.15704
G1 X56.6707 Y17.87731
G1 X57.17337 Y17.77393
G1 X57.67502 Y17.87731
G1 X58.08828 Y18.15704
G1 X58.36818 Y18.57042
G1 X58.47156 Y19.07205
G1 X58.10352 Y19.96641
G1 X59.9186 Y25.41092
G1 X60.71083 Y25.84653
G1 X61.03772 Y26.69261
G1 X60.9313 Y27.20518
G1 X60.64606 Y27.62682
G1 X60.22442 Y27.91206
G1 X59.71337 Y28.01696
G1 X59.2008 Y27.91206
G1 X58.78017 Y27.62682
G1 X58.49518 Y27.20518
G1 X58.39028 Y26.69261
G0 Z3.0
G0 X60.93003
G0 Z0.1
G1 F300.0 Z-0.25
G1 F800.0 X61.03468 Y26.1813
G1 X61.31992 Y25.75966
G1 X61.74029 Y25.47442
G1 X62.25438 Y25.36833
G1 X62.76543 Y25.47442
G1 X63.18555 Y25.75966
G1 X63.47104 Y26.1813
G1 X63.57722 Y26.69261
G1 X63.47104 Y27.20518
G1 X63.18555 Y27.62682
G1 X62.76543 Y27.91206
G1 X62.25438 Y28.01696
G1 X61.74029 Y27.91206
G1 X61.31992 Y27.62682
G1 X61.03468 Y27.20518
G1 X60.93003 Y26.69261
G0 Z3.0
G0 X62.25438 Y15.32791
G0 Z0.1
G1 F300.0 Z-0.25
G1 F800.0 X61.73622 Y15.22319
G1 X61.31027 Y14.93517
G1 X61.02248 Y14.51074
G1 X60.91758 Y13.99261
G1 X61.02248 Y13.47582
G1 X61.31027 Y13.05004
G1 X61.73622 Y12.76203
G1 X62.25438 Y12.65591
G1 X62.77127 Y12.76203
G1 X63.19545 Y13.05004
G1 X63.48349 Y13.47582
G1 X63.58966 Y13.99261
G1 X63.48349 Y14.51074
G1 X63.19545 Y14.93517
G1 X62.77127 Y15.22319
G1 X62.25438 Y15.32791
G0 Z3.0
G0 Y12.78819
G0 Z0.1
G1 F300.0 Z-0.25
G1 F800.0 X61.73622 Y12.68346
G1 X61.31027 Y12.39545
G1 X61.02248 Y11.96965
G1 X60.91758 Y11.45149
G1 X61.02248 Y10.93473
G1 X61.31027 Y10.51032
G1 X61.73622 Y10.22231
G1 X62.25438 Y10.11481
G1 X62.77127 Y10.22231
G1 X63.19545 Y10.51032
G1 X63.48349 Y10.93473
G1 X63.58966 Y11.45149
G1 X63.48349 Y11.96965
G1 X63.19545 Y12.39545
G1 X62.77127 Y12.68346
G1 X62.25438 Y12.78819
G0 Z3.0
G0 X50.74895 Y18.57042
G0 Z0.1
G1 F300.0 Z-0.25
G1 F800.0 X50.85232 Y19.07205
G1 X50.74895 Y19.57504
G1 X50.46955 Y19.98845
G1 X50.05603 Y20.26818
G1 X49.55438 Y20.37017
G1 X48.88713 Y20.17448
G1 X48.42434 Y19.67149
G1 X35.48863
G1 X35.13582 Y20.09592
G1 X34.63849 Y20.34123
G1 X35.35883 Y20.80288
G1 X35.64992 Y21.61177
G1 X35.54374 Y22.12993
G1 X35.25571 Y22.55573
G1 X34.83 Y22.84374
G1 X34.31311 Y22.94847
G1 Y22.94987
G1 X33.79495 Y22.84374
G1 X33.36925 Y22.55573
G1 X33.08121 Y22.1313
G1 X32.97657 Y21.61314
G1 X33.26714 Y20.80288
G1 X33.98926 Y20.34261
G1 X33.26714 Y19.88233
G1 X32.97657 Y19.07205
G1 X29.09164 Y17.11935
G1 X28.87396 Y16.98432
G1 X28.83967 Y16.94851
G1 X28.71292 Y16.73903
G1 X26.38679 Y12.08814
G1 X19.09823
G1 X18.58284 Y11.92279
G1 X18.56631 Y11.90762
G1 X18.40372 Y11.38951
G1 Y6.49054
G1 X18.40647 Y6.37068
G1 X18.41198 Y6.3307
G1 X18.44782 Y6.19567
G1 X18.44919 Y6.19427
G1 X19.69767 Y2.17041
G1 X19.33387 Y1.2926
G1 X19.43308 Y0.80339
G1 X19.70596 Y0.40101
G1 X20.10834 Y0.12816
G1 X20.59892 Y0.02756
G1 X21.08672 Y0.12816
G1 X21.48914 Y0.40101
G1 X21.76198 Y0.80339
G1 X21.86259 Y1.2926
G1 X21.56905 Y2.07946
G1 X20.84974 Y2.50527
G1 X19.60397 Y6.52089
G1 Y10.88789
G1 X26.66238
G1 X27.04668 Y10.95677
G1 X27.0825 Y10.97745
G1 X27.11831 Y11.00226
G1 X27.33751 Y11.30407
G1 X29.73527 Y16.09824
G1 X33.54273 Y18.01371
G1 X34.31311 Y17.73535
G1 X35.0078 Y17.94345
G1 X35.48863 Y18.47261
G1 X48.42434
G1 X48.88713 Y17.97098
G1 X49.55438 Y17.77393
G1 X50.05603 Y17.87731
G1 X50.46955 Y18.15704
G1 X50.74895 Y18.57042
G0 Z3.0
G0 X46.48657 Y2.45704
G0 Z0.1
G1 F300.0 Z-0.25
G1 F800.0 X45.99915 Y2.55626
G1 X45.50842 Y2.45704
G1 X45.10583 Y2.18419
G1 X44.83303 Y1.78318
G1 X44.73397 Y1.2926
G1 X44.83303 Y0.80339
G1 X45.10583 Y0.40101
G1 X45.50842 Y0.12816
G1 X45.99915 Y0.02756
G1 X46.48657 Y0.12816
G1 X46.88916 Y0.40101
G1 X47.16221 Y0.80339
G1 X47.2628 Y1.2926
G1 X47.16221 Y1.78318
G1 X46.88916 Y2.18419
G1 X46.48657 Y2.45704
G0 Z3.0
G0 X44.62221 Y1.78318
G0 Z0.1
G1 F300.0 Z-0.25
G1 F800.0 X44.34942 Y2.18419
G1 X43.94683 Y2.45704
G1 X43.45788 Y2.55626
G1 X42.96715 Y2.45704
G1 X42.56608 Y2.18419
G1 X42.29354 Y1.78318
G1 X42.19397 Y1.2926
G1 X42.29354 Y0.80339
G1 X42.56608 Y0.40101
G1 X42.96715 Y0.12816
G1 X43.45788 Y0.02756
G1 X43.94683 Y0.12816
G1 X44.34942 Y0.40101
G1 X44.62221 Y0.80339
G1 X44.7228 Y1.2926
G1 X44.62221 Y1.78318
G0 Z3.0
G0 X42.18305 Y1.2926
G0 Z0.1
G1 F300.0 Z-0.25
G1 F800.0 X42.08247 Y1.78318
G1 X41.80992 Y2.18419
G1 X41.40733 Y2.45704
G1 X40.91788 Y2.55626
G1 X40.42766 Y2.45704
G1 X40.02659 Y2.18419
G1 X39.75379 Y1.78318
G1 X39.65423 Y1.2926
G1 X39.75379 Y0.80339
G1 X40.02659 Y0.40101
G1 X40.42766 Y0.12816
G1 X40.91788 Y0.02756
G1 X41.40733 Y0.12816
G1 X41.80992 Y0.40101
G1 X42.08247 Y0.80339
G1 X42.18305 Y1.2926
G0 Z3.0
G0 X39.64203
G0 Z0.1
G1 F300.0 Z-0.25
G1 F800.0 X39.54145 Y1.78318
G1 X39.26865 Y2.18419
G1 X38.86632 Y2.45704
G1 X38.37686 Y2.55626
G1 X37.88664 Y2.45704
G1 X37.48405 Y2.18419
G1 X37.211 Y1.78318
G1 X37.11194 Y1.2926
G1 X37.211 Y0.80339
G1 X37.48405 Y0.40101
G1 X37.88664 Y0.12816
G1 X38.37686 Y0.02756
G1 X38.86632 Y0.12816
G1 X39.26865 Y0.40101
G1 X39.54145 Y0.80339
G1 X39.64203 Y1.2926
G0 Z3.0
G0 X37.10102
G0 Z0.1
G1 F300.0 Z-0.25
G1 F800.0 X37.00043 Y1.78318
G1 X36.72738 Y2.18419
G1 X36.32657 Y2.45704
G1 X35.83737 Y2.55626
G1 X35.34664 Y2.45704
G1 X34.94557 Y2.18419
G1 X34.67278 Y1.78318
G1 X34.57372 Y1.2926
G1 X34.67278 Y0.80339
G1 X34.94557 Y0.40101
G1 X35.34664 Y0.12816
G1 X35.83737 Y0.02756
G1 X36.32657 Y0.12816
G1 X36.72738 Y0.40101
G1 X37.00043 Y0.80339
G1 X37.10102 Y1.2926
G0 Z3.0
G0 X34.56254
G0 Z0.1
G1 F300.0 Z-0.25
G1 F800.0 X34.46196 Y1.78318
G1 X34.18916 Y2.18419
G1 X33.78683 Y2.45704
G1 X33.29762 Y2.55626
G1 X32.80842 Y2.45704
G1 X32.40583 Y2.18419
G1 X32.13303 Y1.78318
G1 X32.03397 Y1.2926
G1 X32.13303 Y0.80339
G1 X32.40583 Y0.40101
G1 X32.80842 Y0.12816
G1 X33.29762 Y0.02756
G1 X33.78683 Y0.12816
G1 X34.18789 Y0.40101
G1 X34.46069 Y0.80339
G1 X34.56254 Y1.2926
G0 Z3.0
G0 X29.48178
G0 Z0.1
G1 F300.0 Z-0.25
G1 F800.0 X29.3812 Y1.78318
G1 X29.1084 Y2.18419
G1 X28.70581 Y2.45704
G1 X28.21661 Y2.55626
G1 X27.7274 Y2.45704
G1 X27.32507 Y2.18419
G1 X27.05227 Y1.78318
G1 X26.95296 Y1.2926
G1 X27.05227 Y0.80339
G1 X27.32507 Y0.40101
G1 X27.7274 Y0.12816
G1 X28.21661 Y0.02756
G1 X28.70581 Y0.12816
G1 X29.1084 Y0.40101
G1 X29.3812 Y0.80339
G1 X29.48178 Y1.2926
G0 Z3.0
G0 X24.40094
G0 Z0.1
G1 F300.0 Z-0.25
G1 F800.0 X24.30033 Y1.78318
G1 X24.02749 Y2.18419
G1 X23.62647 Y2.45704
G1 X23.13724 Y2.55626
G1 X22.64667 Y2.45704
G1 X22.24568 Y2.18419
G1 X21.97283 Y1.78318
G1 X21.87359 Y1.2926
G1 X21.97283 Y0.80339
G1 X22.24568 Y0.40101
G1 X22.64667 Y0.12816
G1 X23.13724 Y0.02756
G1 X23.62647 Y0.12816
G1 X24.02749 Y0.40101
G1 X24.30033 Y0.80339
G1 X24.40094 Y1.2926
G0 Z3.0
G0 X19.32148
G0 Z0.1
G1 F300.0 Z-0.25
G1 F800.0 X19.22089 Y1.78318
G1 X18.94802 Y2.18419
G1 X18.547 Y2.45704
G1 X18.05783 Y2.55626
G1 X17.56725 Y2.45704
G1 X17.16486 Y2.18419
G1 X16.89199 Y1.78318
G1 X16.79278 Y1.2926
G1 X16.89199 Y0.80339
G1 X17.16486 Y0.40101
G1 X17.56725 Y0.12816
G1 X18.05783 Y0.02756
G1 X18.547 Y0.12816
G1 X18.94802 Y0.40101
G1 X19.22089 Y0.80339
G1 X19.32148 Y1.2926
G0 Z3.0
G0 X16.78175
G0 Z0.1
G1 F300.0 Z-0.25
G1 F800.0 X16.68117 Y1.78318
G1 X16.4083 Y2.18419
G1 X16.00591 Y2.45704
G1 X15.51671 Y2.55626
G1 X15.02753 Y2.45704
G1 X14.62512 Y2.18419
G1 X14.35227 Y1.78318
G1 X14.25303 Y1.2926
G1 X14.35227 Y0.80339
G1 X14.62512 Y0.40101
G1 X15.02753 Y0.12816
G1 X15.51671 Y0.02756
G1 X16.00591 Y0.12816
G1 X16.4083 Y0.40101
G1 X16.68117 Y0.80339
G1 X16.78175 Y1.2926
G0 Z3.0
G0 X14.24203
G0 Z0.1
G1 F300.0 Z-0.25
G1 F800.0 X14.14142 Y1.78318
G1 X13.86858 Y2.18419
G1 X13.46619 Y2.45704
G1 X12.97701 Y2.55626
G1 X12.48776 Y2.45704
G1 X12.0854 Y2.18419
G1 X11.81255 Y1.78318
G1 X11.71331 Y1.2926
G1 X11.81255 Y0.80339
G1 X12.0854 Y0.40101
G1 X12.48776 Y0.12816
G1 X12.97701 Y0.02756
G1 X13.46619 Y0.12816
G1 X13.86858 Y0.40101
G1 X14.14142 Y0.80339
G1 X14.24203 Y1.2926
G0 Z3.0
G0 X11.70094
G0 Z0.1
G1 F300.0 Z-0.25
G1 F800.0 X11.60033 Y1.78318
G1 X11.32749 Y2.18419
G1 X10.92647 Y2.45704
G1 X10.43724 Y2.55626
G1 X9.94667 Y2.45704
G1 X9.54568 Y2.18419
G1 X9.27283 Y1.78318
G1 X9.17359 Y1.2926
G1 X9.27283 Y0.80339
G1 X9.54568 Y0.40101
G1 X9.94667 Y0.12816
G1 X10.43724 Y0.02756
G1 X10.92647 Y0.12816
G1 X11.32749 Y0.40101
G1 X11.60033 Y0.80339
G1 X11.70094 Y1.2926
( Drill1 )
G0 Z3.0
( T9 : 0.85 )
T9 M6
M3 S1000
G0 X1.28295 Y49.55629
G0 Z3.0
G0 X1.2938 Y49.55629
G0 Z0.1
G1 F300.0 Z0.0
G2 F800.0 X1.27753 Y49.54689 Z-0.13333 I-0.01085 J0.0
G2 Y49.56569 Z-0.26667 I0.00543 J0.0094
G2 X1.2938 Y49.55629 Z-0.4 I0.00543 J-0.0094
G2 X1.27753 Y49.54689 Z-0.53333 I-0.01085 J0.0
G2 Y49.56569 Z-0.66667 I0.00543 J0.0094
G2 X1.2938 Y49.55629 Z-0.8 I0.00543 J-0.0094
G2 X1.27753 Y49.54689 Z-0.93333 I-0.01085 J0.0
G2 Y49.56569 Z-1.06667 I0.00543 J0.0094
G2 X1.2938 Y49.55629 Z-1.2 I0.00543 J-0.0094
G2 X1.27753 Y49.54689 Z-1.33333 I-0.01085 J0.0
G2 Y49.56569 Z-1.46667 I0.00543 J0.0094
G2 X1.2938 Y49.55629 Z-1.6 I0.00543 J-0.0094
G2 X1.27753 Y49.54689 Z-1.73333 I-0.01085 J0.0
G2 X1.2721 Y49.55629 Z-1.8 I0.00543 J0.0094
G2 X1.28838 Y49.56569 I0.01085 J0.0
G2 Y49.54689 I-0.00543 J-0.0094
G2 X1.2721 Y49.55629 I-0.00543 J0.0094
G0 Z3.0
G0 X3.84041 Y49.5535
G0 Z0.1
G1 F300.0 Z0.0
G2 F800.0 X3.82413 Y49.5441 Z-0.13333 I-0.01085 J0.0
G2 Y49.56289 Z-0.26667 I0.00543 J0.0094
G2 X3.84041 Y49.5535 Z-0.4 I0.00543 J-0.0094
G2 X3.82413 Y49.5441 Z-0.53333 I-0.01085 J0.0
G2 Y49.56289 Z-0.66667 I0.00543 J0.0094
G2 X3.84041 Y49.5535 Z-0.8 I0.00543 J-0.0094
G2 X3.82413 Y49.5441 Z-0.93333 I-0.01085 J0.0
G2 Y49.56289 Z-1.06667 I0.00543 J0.0094
G2 X3.84041 Y49.5535 Z-1.2 I0.00543 J-0.0094
G2 X3.82413 Y49.5441 Z-1.33333 I-0.01085 J0.0
G2 Y49.56289 Z-1.46667 I0.00543 J0.0094
G2 X3.84041 Y49.5535 Z-1.6 I0.00543 J-0.0094
G2 X3.82413 Y49.5441 Z-1.73333 I-0.01085 J0.0
G2 X3.81871 Y49.5535 Z-1.8 I0.00543 J0.0094
G2 X3.83498 Y49.56289 I0.01085 J0.0
G2 Y49.5441 I-0.00543 J-0.0094
G2 X3.81871 Y49.5535 I-0.00543 J0.0094
G0 Z3.0
G0 X6.39804 Y49.54537
G0 Z0.1
G1 F300.0 Z0.0
G2 F800.0 X6.38178 Y49.53597 Z-0.13333 I-0.01084 J0.0
G2 Y49.55476 Z-0.26667 I0.00542 J0.00939
G2 X6.39804 Y49.54537 Z-0.4 I0.00542 J-0.00939
G2 X6.38178 Y49.53597 Z-0.53333 I-0.01084 J0.0
G2 Y49.55476 Z-0.66667 I0.00542 J0.00939
G2 X6.39804 Y49.54537 Z-0.8 I0.00542 J-0.00939
G2 X6.38178 Y49.53597 Z-0.93333 I-0.01084 J0.0
G2 Y49.55476 Z-1.06667 I0.00542 J0.00939
G2 X6.39804 Y49.54537 Z-1.2 I0.00542 J-0.00939
G2 X6.38178 Y49.53597 Z-1.33333 I-0.01084 J0.0
G2 Y49.55476 Z-1.46667 I0.00542 J0.00939
G2 X6.39804 Y49.54537 Z-1.6 I0.00542 J-0.00939
G2 X6.38178 Y49.53597 Z-1.73333 I-0.01084 J0.0
G2 X6.37635 Y49.54537 Z-1.8 I0.00542 J0.00939
G2 X6.39262 Y49.55476 I0.01084 J0.0
G2 Y49.53597 I-0.00542 J-0.00939
G2 X6.37635 Y49.54537 I-0.00542 J0.00939
G0 Z3.0
G0 X8.93227 Y49.5535
G0 Z0.1
G1 F300.0 Z0.0
G2 F800.0 X8.91599 Y49.5441 Z-0.13333 I-0.01085 J0.0
G2 Y49.56289 Z-0.26667 I0.00543 J0.0094
G2 X8.93227 Y49.5535 Z-0.4 I0.00543 J-0.0094
G2 X8.91599 Y49.5441 Z-0.53333 I-0.01085 J0.0
G2 Y49.56289 Z-0.66667 I0.00543 J0.0094
G2 X8.93227 Y49.5535 Z-0.8 I0.00543 J-0.0094
G2 X8.91599 Y49.5441 Z-0.93333 I-0.01085 J0.0
G2 Y49.56289 Z-1.06667 I0.00543 J0.0094
G2 X8.93227 Y49.5535 Z-1.2 I0.00543 J-0.0094
G2 X8.91599 Y49.5441 Z-1.33333 I-0.01085 J0.0
G2 Y49.56289 Z-1.46667 I0.00543 J0.0094
G2 X8.93227 Y49.5535 Z-1.6 I0.00543 J-0.0094
G2 X8.91599 Y49.5441 Z-1.73333 I-0.01085 J0.0
G2 X8.91057 Y49.5535 Z-1.8 I0.00543 J0.0094
G2 X8.92685 Y49.56289 I0.01085 J0.0
G2 Y49.5441 I-0.00543 J-0.0094
G2 X8.91057 Y49.5535 I-0.00543 J0.0094
G0 Z3.0
G0 X11.45918 Y49.56861
G0 Z0.1
G1 F300.0 Z0.0
G2 F800.0 X11.44248 Y49.55896 Z-0.13333 I-0.01114 J0.0
G2 Y49.57825 Z-0.26667 I0.00557 J0.00964
G2 X11.45918 Y49.56861 Z-0.4 I0.00557 J-0.00964
G2 X11.44248 Y49.55896 Z-0.53333 I-0.01114 J0.0
G2 Y49.57825 Z-0.66667 I0.00557 J0.00964
G2 X11.45918 Y49.56861 Z-0.8 I0.00557 J-0.00964
G2 X11.44248 Y49.55896 Z-0.93333 I-0.01114 J0.0
G2 Y49.57825 Z-1.06667 I0.00557 J0.00964
G2 X11.45918 Y49.56861 Z-1.2 I0.00557 J-0.00964
G2 X11.44248 Y49.55896 Z-1.33333 I-0.01114 J0.0
G2 Y49.57825 Z-1.46667 I0.00557 J0.00964
G2 X11.45918 Y49.56861 Z-1.6 I0.00557 J-0.00964
G2 X11.44248 Y49.55896 Z-1.73333 I-0.01114 J0.0
G2 X11.43691 Y49.56861 Z-1.8 I0.00557 J0.00964
G2 X11.45362 Y49.57825 I0.01114 J0.0
G2 Y49.55896 I-0.00557 J-0.00964
G2 X11.43691 Y49.56861 I-0.00557 J0.00964
G0 Z3.0
G0 X14.01687 Y49.54537
G0 Z0.1
G1 F300.0 Z0.0
G2 F800.0 X14.00007 Y49.53567 Z-0.13333 I-0.0112 J0.0
G2 Y49.55507 Z-0.26667 I0.0056 J0.0097
G2 X14.01687 Y49.54537 Z-0.4 I0.0056 J-0.0097
G2 X14.00007 Y49.53567 Z-0.53333 I-0.0112 J0.0
G2 Y49.55507 Z-0.66667 I0.0056 J0.0097
G2 X14.01687 Y49.54537 Z-0.8 I0.0056 J-0.0097
G2 X14.00007 Y49.53567 Z-0.93333 I-0.0112 J0.0
G2 Y49.55507 Z-1.06667 I0.0056 J0.0097
G2 X14.01687 Y49.54537 Z-1.2 I0.0056 J-0.0097
G2 X14.00007 Y49.53567 Z-1.33333 I-0.0112 J0.0
G2 Y49.55507 Z-1.46667 I0.0056 J0.0097
G2 X14.01687 Y49.54537 Z-1.6 I0.0056 J-0.0097
G2 X14.00007 Y49.53567 Z-1.73333 I-0.0112 J0.0
G2 X13.99447 Y49.54537 Z-1.8 I0.0056 J0.0097
G2 X14.01127 Y49.55507 I0.0112 J0.0
G2 Y49.53567 I-0.0056 J-0.0097
G2 X13.99447 Y49.54537 I-0.0056 J0.0097
G0 Z3.0
G0 X16.52801 Y49.5535
G0 Z0.1
G1 F300.0 Z0.0
G2 F800.0 X16.51172 Y49.54409 Z-0.13333 I-0.01086 J0.0
G2 Y49.5629 Z-0.26667 I0.00543 J0.0094
G2 X16.52801 Y49.5535 Z-0.4 I0.00543 J-0.0094
G2 X16.51172 Y49.54409 Z-0.53333 I-0.01086 J0.0
G2 Y49.5629 Z-0.66667 I0.00543 J0.0094
G2 X16.52801 Y49.5535 Z-0.8 I0.00543 J-0.0094
G2 X16.51172 Y49.54409 Z-0.93333 I-0.01086 J0.0
G2 Y49.5629 Z-1.06667 I0.00543 J0.0094
G2 X16.52801 Y49.5535 Z-1.2 I0.00543 J-0.0094
G2 X16.51172 Y49.54409 Z-1.33333 I-0.01086 J0.0
G2 Y49.5629 Z-1.46667 I0.00543 J0.0094
G2 X16.52801 Y49.5535 Z-1.6 I0.00543 J-0.0094
G2 X16.51172 Y49.54409 Z-1.73333 I-0.01086 J0.0
G2 X16.50629 Y49.5535 Z-1.8 I0.00543 J0.0094
G2 X16.52258 Y49.5629 I0.01086 J0.0
G2 Y49.54409 I-0.00543 J-0.0094
G2 X16.50629 Y49.5535 I-0.00543 J0.0094
G0 Z3.0
G0 X19.09358
G0 Z0.1
G1 F300.0 Z0.0
G2 F800.0 X19.07679 Y49.5438 Z-0.13333 I-0.01119 J0.0
G2 Y49.56319 Z-0.26667 I0.0056 J0.00969
G2 X19.09358 Y49.5535 Z-0.4 I0.0056 J-0.00969
G2 X19.07679 Y49.5438 Z-0.53333 I-0.01119 J0.0
G2 Y49.56319 Z-0.66667 I0.0056 J0.00969
G2 X19.09358 Y49.5535 Z-0.8 I0.0056 J-0.00969
G2 X19.07679 Y49.5438 Z-0.93333 I-0.01119 J0.0
G2 Y49.56319 Z-1.06667 I0.0056 J0.00969
G2 X19.09358 Y49.5535 Z-1.2 I0.0056 J-0.00969
G2 X19.07679 Y49.5438 Z-1.33333 I-0.01119 J0.0
G2 Y49.56319 Z-1.46667 I0.0056 J0.00969
G2 X19.09358 Y49.5535 Z-1.6 I0.0056 J-0.00969
G2 X19.07679 Y49.5438 Z-1.73333 I-0.01119 J0.0
G2 X19.07119 Y49.5535 Z-1.8 I0.0056 J0.00969
G2 X19.08798 Y49.56319 I0.01119 J0.0
G2 Y49.5438 I-0.0056 J-0.00969
G2 X19.07119 Y49.5535 I-0.0056 J0.00969
G0 Z3.0
G0 X21.62779 Y49.54537
G0 Z0.1
G1 F300.0 Z0.0
G2 F800.0 X21.611 Y49.53567 Z-0.13333 I-0.01119 J0.0
G2 Y49.55506 Z-0.26667 I0.0056 J0.00969
G2 X21.62779 Y49.54537 Z-0.4 I0.0056 J-0.00969
G2 X21.611 Y49.53567 Z-0.53333 I-0.01119 J0.0
G2 Y49.55506 Z-0.66667 I0.0056 J0.00969
G2 X21.62779 Y49.54537 Z-0.8 I0.0056 J-0.00969
G2 X21.611 Y49.53567 Z-0.93333 I-0.01119 J0.0
G2 Y49.55506 Z-1.06667 I0.0056 J0.00969
G2 X21.62779 Y49.54537 Z-1.2 I0.0056 J-0.00969
G2 X21.611 Y49.53567 Z-1.33333 I-0.01119 J0.0
G2 Y49.55506 Z-1.46667 I0.0056 J0.00969
G2 X21.62779 Y49.54537 Z-1.6 I0.0056 J-0.00969
G2 X21.611 Y49.53567 Z-1.73333 I-0.01119 J0.0
G2 X21.6054 Y49.54537 Z-1.8 I0.0056 J0.00969
G2 X21.62219 Y49.55506 I0.01119 J0.0
G2 Y49.53567 I-0.0056 J-0.00969
G2 X21.6054 Y49.54537 I-0.0056 J0.00969
G0 Z3.0
G0 X24.162 Y49.5535
G0 Z0.1
G1 F300.0 Z0.0
G2 F800.0 X24.14522 Y49.54381 Z-0.13333 I-0.01119 J0.0
G2 Y49.56318 Z-0.26667 I0.00559 J0.00969
G2 X24.162 Y49.5535 Z-0.4 I0.00559 J-0.00969
G2 X24.14522 Y49.54381 Z-0.53333 I-0.01119 J0.0
G2 Y49.56318 Z-0.66667 I0.00559 J0.00969
G2 X24.162 Y49.5535 Z-0.8 I0.00559 J-0.00969
G2 X24.14522 Y49.54381 Z-0.93333 I-0.01119 J0.0
G2 Y49.56318 Z-1.06667 I0.00559 J0.00969
G2 X24.162 Y49.5535 Z-1.2 I0.00559 J-0.00969
G2 X24.14522 Y49.54381 Z-1.33333 I-0.01119 J0.0
G2 Y49.56318 Z-1.46667 I0.00559 J0.00969
G2 X24.162 Y49.5535 Z-1.6 I0.00559 J-0.00969
G2 X24.14522 Y49.54381 Z-1.73333 I-0.01119 J0.0
G2 X24.13963 Y49.5535 Z-1.8 I0.00559 J0.00969
G2 X24.15641 Y49.56318 I0.01119 J0.0
G2 Y49.54381 I-0.00559 J-0.00969
G2 X24.13963 Y49.5535 I-0.00559 J0.00969
G0 Z3.0
G0 X28.2328 Y49.56061
G0 Z0.1
G1 F300.0 Z0.0
G2 F800.0 X28.21594 Y49.55087 Z-0.13333 I-0.01125 J0.0
G2 Y49.57035 Z-0.26667 I0.00562 J0.00974
G2 X28.2328 Y49.56061 Z-0.4 I0.00562 J-0.00974
G2 X28.21594 Y49.55087 Z-0.53333 I-0.01125 J0.0
G2 Y49.57035 Z-0.66667 I0.00562 J0.00974
G2 X28.2328 Y49.56061 Z-0.8 I0.00562 J-0.00974
G2 X28.21594 Y49.55087 Z-0.93333 I-0.01125 J0.0
G2 Y49.57035 Z-1.06667 I0.00562 J0.00974
G2 X28.2328 Y49.56061 Z-1.2 I0.00562 J-0.00974
G2 X28.21594 Y49.55087 Z-1.33333 I-0.01125 J0.0
G2 Y49.57035 Z-1.46667 I0.00562 J0.00974
G2 X28.2328 Y49.56061 Z-1.6 I0.00562 J-0.00974
G2 X28.21594 Y49.55087 Z-1.73333 I-0.01125 J0.0
G2 X28.21031 Y49.56061 Z-1.8 I0.00562 J0.00974
G2 X28.22718 Y49.57035 I0.01125 J0.0
G2 Y49.55087 I-0.00562 J-0.00974
G2 X28.21031 Y49.56061 I-0.00562 J0.00974
G0 Z3.0
G0 X30.7742 Y49.5535
G0 Z0.1
G1 F300.0 Z0.0
G2 F800.0 X30.75791 Y49.54409 Z-0.13333 I-0.01086 J0.0
G2 Y49.5629 Z-0.26667 I0.00543 J0.00941
G2 X30.7742 Y49.5535 Z-0.4 I0.00543 J-0.00941
G2 X30.75791 Y49.54409 Z-0.53333 I-0.01086 J0.0
G2 Y49.5629 Z-0.66667 I0.00543 J0.00941
G2 X30.7742 Y49.5535 Z-0.8 I0.00543 J-0.00941
G2 X30.75791 Y49.54409 Z-0.93333 I-0.01086 J0.0
G2 Y49.5629 Z-1.06667 I0.00543 J0.00941
G2 X30.7742 Y49.5535 Z-1.2 I0.00543 J-0.00941
G2 X30.75791 Y49.54409 Z-1.33333 I-0.01086 J0.0
G2 Y49.5629 Z-1.46667 I0.00543 J0.00941
G2 X30.7742 Y49.5535 Z-1.6 I0.00543 J-0.00941
G2 X30.75791 Y49.54409 Z-1.73333 I-0.01086 J0.0
G2 X30.75247 Y49.5535 Z-1.8 I0.00543 J0.00941
G2 X30.76877 Y49.5629 I0.01086 J0.0
G2 Y49.54409 I-0.00543 J-0.00941
G2 X30.75247 Y49.5535 I-0.00543 J0.00941
G0 Z3.0
G0 X33.3095
G0 Z0.1
G1 F300.0 Z0.0
G2 F800.0 X33.29263 Y49.54376 Z-0.13333 I-0.01125 J0.0
G2 Y49.56323 Z-0.26667 I0.00562 J0.00974
G2 X33.3095 Y49.5535 Z-0.4 I0.00562 J-0.00974
G2 X33.29263 Y49.54376 Z-0.53333 I-0.01125 J0.0
G2 Y49.56323 Z-0.66667 I0.00562 J0.00974
G2 X33.3095 Y49.5535 Z-0.8 I0.00562 J-0.00974
G2 X33.29263 Y49.54376 Z-0.93333 I-0.01125 J0.0
G2 Y49.56323 Z-1.06667 I0.00562 J0.00974
G2 X33.3095 Y49.5535 Z-1.2 I0.00562 J-0.00974
G2 X33.29263 Y49.54376 Z-1.33333 I-0.01125 J0.0
G2 Y49.56323 Z-1.46667 I0.00562 J0.00974
G2 X33.3095 Y49.5535 Z-1.6 I0.00562 J-0.00974
G2 X33.29263 Y49.54376 Z-1.73333 I-0.01125 J0.0
G2 X33.28701 Y49.5535 Z-1.8 I0.00562 J0.00974
G2 X33.30388 Y49.56323 I0.01125 J0.0
G2 Y49.54376 I-0.00562 J-0.00974
G2 X33.28701 Y49.5535 I-0.00562 J0.00974
G0 Z3.0
G0 X35.84372
G0 Z0.1
G1 F300.0 Z0.0
G2 F800.0 X35.82695 Y49.54381 Z-0.13333 I-0.01118 J0.0
G2 Y49.56318 Z-0.26667 I0.00559 J0.00968
G2 X35.84372 Y49.5535 Z-0.4 I0.00559 J-0.00968
G2 X35.82695 Y49.54381 Z-0.53333 I-0.01118 J0.0
G2 Y49.56318 Z-0.66667 I0.00559 J0.00968
G2 X35.84372 Y49.5535 Z-0.8 I0.00559 J-0.00968
G2 X35.82695 Y49.54381 Z-0.93333 I-0.01118 J0.0
G2 Y49.56318 Z-1.06667 I0.00559 J0.00968
G2 X35.84372 Y49.5535 Z-1.2 I0.00559 J-0.00968
G2 X35.82695 Y49.54381 Z-1.33333 I-0.01118 J0.0
G2 Y49.56318 Z-1.46667 I0.00559 J0.00968
G2 X35.84372 Y49.5535 Z-1.6 I0.00559 J-0.00968
G2 X35.82695 Y49.54381 Z-1.73333 I-0.01118 J0.0
G2 X35.82136 Y49.5535 Z-1.8 I0.00559 J0.00968
G2 X35.83813 Y49.56318 I0.01118 J0.0
G2 Y49.54381 I-0.00559 J-0.00968
G2 X35.82136 Y49.5535 I-0.00559 J0.00968
G0 Z3.0
G0 X38.39293
G0 Z0.1
G1 F300.0 Z0.0
G2 F800.0 X38.37625 Y49.54387 Z-0.13333 I-0.01112 J0.0
G2 Y49.56312 Z-0.26667 I0.00556 J0.00963
G2 X38.39293 Y49.5535 Z-0.4 I0.00556 J-0.00963
G2 X38.37625 Y49.54387 Z-0.53333 I-0.01112 J0.0
G2 Y49.56312 Z-0.66667 I0.00556 J0.00963
G2 X38.39293 Y49.5535 Z-0.8 I0.00556 J-0.00963
G2 X38.37625 Y49.54387 Z-0.93333 I-0.01112 J0.0
G2 Y49.56312 Z-1.06667 I0.00556 J0.00963
G2 X38.39293 Y49.5535 Z-1.2 I0.00556 J-0.00963
G2 X38.37625 Y49.54387 Z-1.33333 I-0.01112 J0.0
G2 Y49.56312 Z-1.46667 I0.00556 J0.00963
G2 X38.39293 Y49.5535 Z-1.6 I0.00556 J-0.00963
G2 X38.37625 Y49.54387 Z-1.73333 I-0.01112 J0.0
G2 X38.3707 Y49.5535 Z-1.8 I0.00556 J0.00963
G2 X38.38737 Y49.56312 I0.01112 J0.0
G2 Y49.54387 I-0.00556 J-0.00963
G2 X38.3707 Y49.5535 I-0.00556 J0.00963
G0 Z3.0
G0 X40.92753 Y49.56861
G0 Z0.1
G1 F300.0 Z0.0
G2 F800.0 X40.91133 Y49.55925 Z-0.13333 I-0.0108 J0.0
G2 Y49.57796 Z-0.26667 I0.0054 J0.00935
G2 X40.92753 Y49.56861 Z-0.4 I0.0054 J-0.00935
G2 X40.91133 Y49.55925 Z-0.53333 I-0.0108 J0.0
G2 Y49.57796 Z-0.66667 I0.0054 J0.00935
G2 X40.92753 Y49.56861 Z-0.8 I0.0054 J-0.00935
G2 X40.91133 Y49.55925 Z-0.93333 I-0.0108 J0.0
G2 Y49.57796 Z-1.06667 I0.0054 J0.00935
G2 X40.92753 Y49.56861 Z-1.2 I0.0054 J-0.00935
G2 X40.91133 Y49.55925 Z-1.33333 I-0.0108 J0.0
G2 Y49.57796 Z-1.46667 I0.0054 J0.00935
G2 X40.92753 Y49.56861 Z-1.6 I0.0054 J-0.00935
G2 X40.91133 Y49.55925 Z-1.73333 I-0.0108 J0.0
G2 X40.90593 Y49.56861 Z-1.8 I0.0054 J0.00935
G2 X40.92213 Y49.57796 I0.0108 J0.0
G2 Y49.55925 I-0.0054 J-0.00935
G2 X40.90593 Y49.56861 I-0.0054 J0.00935
G0 Z3.0
G0 X43.46969
G0 Z0.1
G1 F300.0 Z0.0
G2 F800.0 X43.45292 Y49.55892 Z-0.13333 I-0.01118 J0.0
G2 Y49.57829 Z-0.26667 I0.00559 J0.00968
G2 X43.46969 Y49.56861 Z-0.4 I0.00559 J-0.00968
G2 X43.45292 Y49.55892 Z-0.53333 I-0.01118 J0.0
G2 Y49.57829 Z-0.66667 I0.00559 J0.00968
G2 X43.46969 Y49.56861 Z-0.8 I0.00559 J-0.00968
G2 X43.45292 Y49.55892 Z-0.93333 I-0.01118 J0.0
G2 Y49.57829 Z-1.06667 I0.00559 J0.00968
G2 X43.46969 Y49.56861 Z-1.2 I0.00559 J-0.00968
G2 X43.45292 Y49.55892 Z-1.33333 I-0.01118 J0.0
G2 Y49.57829 Z-1.46667 I0.00559 J0.00968
G2 X43.46969 Y49.56861 Z-1.6 I0.00559 J-0.00968
G2 X43.45292 Y49.55892 Z-1.73333 I-0.01118 J0.0
G2 X43.44733 Y49.56861 Z-1.8 I0.00559 J0.00968
G2 X43.4641 Y49.57829 I0.01118 J0.0
G2 Y49.55892 I-0.00559 J-0.00968
G2 X43.44733 Y49.56861 I-0.00559 J0.00968
G0 Z3.0
G0 X46.0123 Y49.5535
G0 Z0.1
G1 F300.0 Z0.0
G2 F800.0 X45.99543 Y49.54376 Z-0.13333 I-0.01125 J0.0
G2 Y49.56323 Z-0.26667 I0.00562 J0.00974
G2 X46.0123 Y49.5535 Z-0.4 I0.00562 J-0.00974
G2 X45.99543 Y49.54376 Z-0.53333 I-0.01125 J0.0
G2 Y49.56323 Z-0.66667 I0.00562 J0.00974
G2 X46.0123 Y49.5535 Z-0.8 I0.00562 J-0.00974
G2 X45.99543 Y49.54376 Z-0.93333 I-0.01125 J0.0
G2 Y49.56323 Z-1.06667 I0.00562 J0.00974
G2 X46.0123 Y49.5535 Z-1.2 I0.00562 J-0.00974
G2 X45.99543 Y49.54376 Z-1.33333 I-0.01125 J0.0
G2 Y49.56323 Z-1.46667 I0.00562 J0.00974
G2 X46.0123 Y49.5535 Z-1.6 I0.00562 J-0.00974
G2 X45.99543 Y49.54376 Z-1.73333 I-0.01125 J0.0
G2 X45.98981 Y49.5535 Z-1.8 I0.00562 J0.00974
G2 X46.00667 Y49.56323 I0.01125 J0.0
G2 Y49.54376 I-0.00562 J-0.00974
G2 X45.98981 Y49.5535 I-0.00562 J0.00974
G0 Z3.0
G0 X54.62912 Y41.9495
G0 Z0.1
G1 F300.0 Z0.0
G2 F800.0 X54.61244 Y41.93987 Z-0.13333 I-0.01112 J0.0
G2 Y41.95913 Z-0.26667 I0.00556 J0.00963
G2 X54.62912 Y41.9495 Z-0.4 I0.00556 J-0.00963
G2 X54.61244 Y41.93987 Z-0.53333 I-0.01112 J0.0
G2 Y41.95913 Z-0.66667 I0.00556 J0.00963
G2 X54.62912 Y41.9495 Z-0.8 I0.00556 J-0.00963
G2 X54.61244 Y41.93987 Z-0.93333 I-0.01112 J0.0
G2 Y41.95913 Z-1.06667 I0.00556 J0.00963
G2 X54.62912 Y41.9495 Z-1.2 I0.00556 J-0.00963
G2 X54.61244 Y41.93987 Z-1.33333 I-0.01112 J0.0
G2 Y41.95913 Z-1.46667 I0.00556 J0.00963
G2 X54.62912 Y41.9495 Z-1.6 I0.00556 J-0.00963
G2 X54.61244 Y41.93987 Z-1.73333 I-0.01112 J0.0
G2 X54.60688 Y41.9495 Z-1.8 I0.00556 J0.00963
G2 X54.62356 Y41.95913 I0.01112 J0.0
G2 Y41.93987 I-0.00556 J-0.00963
G2 X54.60688 Y41.9495 I-0.00556 J0.00963
G0 Z3.0
G0 X54.63623 Y39.4001
G0 Z0.1
G1 F300.0 Z0.0
G2 F800.0 X54.61994 Y39.39069 Z-0.13333 I-0.01086 J0.0
G2 Y39.40951 Z-0.26667 I0.00543 J0.00941
G2 X54.63623 Y39.4001 Z-0.4 I0.00543 J-0.00941
G2 X54.61994 Y39.39069 Z-0.53333 I-0.01086 J0.0
G2 Y39.40951 Z-0.66667 I0.00543 J0.00941
G2 X54.63623 Y39.4001 Z-0.8 I0.00543 J-0.00941
G2 X54.61994 Y39.39069 Z-0.93333 I-0.01086 J0.0
G2 Y39.40951 Z-1.06667 I0.00543 J0.00941
G2 X54.63623 Y39.4001 Z-1.2 I0.00543 J-0.00941
G2 X54.61994 Y39.39069 Z-1.33333 I-0.01086 J0.0
G2 Y39.40951 Z-1.46667 I0.00543 J0.00941
G2 X54.63623 Y39.4001 Z-1.6 I0.00543 J-0.00941
G2 X54.61994 Y39.39069 Z-1.73333 I-0.01086 J0.0
G2 X54.6145 Y39.4001 Z-1.8 I0.00543 J0.00941
G2 X54.6308 Y39.40951 I0.01086 J0.0
G2 Y39.39069 I-0.00543 J-0.00941
G2 X54.6145 Y39.4001 I-0.00543 J0.00941
G0 Z3.0
G0 X54.63585 Y26.70493
G0 Z0.1
G1 F300.0 Z0.0
G2 F800.0 X54.62013 Y26.69585 Z-0.13333 I-0.01048 J0.0
G2 Y26.714 Z-0.26667 I0.00524 J0.00908
G2 X54.63585 Y26.70493 Z-0.4 I0.00524 J-0.00908
G2 X54.62013 Y26.69585 Z-0.53333 I-0.01048 J0.0
G2 Y26.714 Z-0.66667 I0.00524 J0.00908
G2 X54.63585 Y26.70493 Z-0.8 I0.00524 J-0.00908
G2 X54.62013 Y26.69585 Z-0.93333 I-0.01048 J0.0
G2 Y26.714 Z-1.06667 I0.00524 J0.00908
G2 X54.63585 Y26.70493 Z-1.2 I0.00524 J-0.00908
G2 X54.62013 Y26.69585 Z-1.33333 I-0.01048 J0.0
G2 Y26.714 Z-1.46667 I0.00524 J0.00908
G2 X54.63585 Y26.70493 Z-1.6 I0.00524 J-0.00908
G2 X54.62013 Y26.69585 Z-1.73333 I-0.01048 J0.0
G2 X54.61488 Y26.70493 Z-1.8 I0.00524 J0.00908
G2 X54.63061 Y26.714 I0.01048 J0.0
G2 Y26.69585 I-0.00524 J-0.00908
G2 X54.61488 Y26.70493 I-0.00524 J0.00908
G0 Z3.0
G0 X52.09445 Y26.68994
G0 Z0.1
G1 F300.0 Z0.0
G2 F800.0 X52.07816 Y26.68053 Z-0.13333 I-0.01086 J0.0
G2 Y26.69935 Z-0.26667 I0.00543 J0.00941
G2 X52.09445 Y26.68994 Z-0.4 I0.00543 J-0.00941
G2 X52.07816 Y26.68053 Z-0.53333 I-0.01086 J0.0
G2 Y26.69935 Z-0.66667 I0.00543 J0.00941
G2 X52.09445 Y26.68994 Z-0.8 I0.00543 J-0.00941
G2 X52.07816 Y26.68053 Z-0.93333 I-0.01086 J0.0
G2 Y26.69935 Z-1.06667 I0.00543 J0.00941
G2 X52.09445 Y26.68994 Z-1.2 I0.00543 J-0.00941
G2 X52.07816 Y26.68053 Z-1.33333 I-0.01086 J0.0
G2 Y26.69935 Z-1.46667 I0.00543 J0.00941
G2 X52.09445 Y26.68994 Z-1.6 I0.00543 J-0.00941
G2 X52.07816 Y26.68053 Z-1.73333 I-0.01086 J0.0
G2 X52.07273 Y26.68994 Z-1.8 I0.00543 J0.00941
G2 X52.08902 Y26.69935 I0.01086 J0.0
G2 Y26.68053 I-0.00543 J-0.00941
G2 X52.07273 Y26.68994 I-0.00543 J0.00941
G0 Z3.0
G0 X49.55191 Y26.70493
G0 Z0.1
G1 F300.0 Z0.0
G2 F800.0 X49.53562 Y26.69552 Z-0.13333 I-0.01086 J0.0
G2 Y26.71433 Z-0.26667 I0.00543 J0.00941
G2 X49.55191 Y26.70493 Z-0.4 I0.00543 J-0.00941
G2 X49.53562 Y26.69552 Z-0.53333 I-0.01086 J0.0
G2 Y26.71433 Z-0.66667 I0.00543 J0.00941
G2 X49.55191 Y26.70493 Z-0.8 I0.00543 J-0.00941
G2 X49.53562 Y26.69552 Z-0.93333 I-0.01086 J0.0
G2 Y26.71433 Z-1.06667 I0.00543 J0.00941
G2 X49.55191 Y26.70493 Z-1.2 I0.00543 J-0.00941
G2 X49.53562 Y26.69552 Z-1.33333 I-0.01086 J0.0
G2 Y26.71433 Z-1.46667 I0.00543 J0.00941
G2 X49.55191 Y26.70493 Z-1.6 I0.00543 J-0.00941
G2 X49.53562 Y26.69552 Z-1.73333 I-0.01086 J0.0
G2 X49.53019 Y26.70493 Z-1.8 I0.00543 J0.00941
G2 X49.54648 Y26.71433 I0.01086 J0.0
G2 Y26.69552 I-0.00543 J-0.00941
G2 X49.53019 Y26.70493 I-0.00543 J0.00941
G0 Z3.0
G0 X57.17839 Y26.69743
G0 Z0.1
G1 F300.0 Z0.0
G2 F800.0 X57.16171 Y26.6878 Z-0.13333 I-0.01112 J0.0
G2 Y26.70706 Z-0.26667 I0.00556 J0.00963
G2 X57.17839 Y26.69743 Z-0.4 I0.00556 J-0.00963
G2 X57.16171 Y26.6878 Z-0.53333 I-0.01112 J0.0
G2 Y26.70706 Z-0.66667 I0.00556 J0.00963
G2 X57.17839 Y26.69743 Z-0.8 I0.00556 J-0.00963
G2 X57.16171 Y26.6878 Z-0.93333 I-0.01112 J0.0
G2 Y26.70706 Z-1.06667 I0.00556 J0.00963
G2 X57.17839 Y26.69743 Z-1.2 I0.00556 J-0.00963
G2 X57.16171 Y26.6878 Z-1.33333 I-0.01112 J0.0
G2 Y26.70706 Z-1.46667 I0.00556 J0.00963
G2 X57.17839 Y26.69743 Z-1.6 I0.00556 J-0.00963
G2 X57.16171 Y26.6878 Z-1.73333 I-0.01112 J0.0
G2 X57.15615 Y26.69743 Z-1.8 I0.00556 J0.00963
G2 X57.17283 Y26.70706 I0.01112 J0.0
G2 Y26.6878 I-0.00556 J-0.00963
G2 X57.15615 Y26.69743 I-0.00556 J0.00963
G0 Z3.0
G0 X59.71255 Y26.70493
G0 Z0.1
G1 F300.0 Z0.0
G2 F800.0 X59.69682 Y26.69585 Z-0.13333 I-0.01048 J0.0
G2 Y26.714 Z-0.26667 I0.00524 J0.00908
G2 X59.71255 Y26.70493 Z-0.4 I0.00524 J-0.00908
G2 X59.69682 Y26.69585 Z-0.53333 I-0.01048 J0.0
G2 Y26.714 Z-0.66667 I0.00524 J0.00908
G2 X59.71255 Y26.70493 Z-0.8 I0.00524 J-0.00908
G2 X59.69682 Y26.69585 Z-0.93333 I-0.01048 J0.0
G2 Y26.714 Z-1.06667 I0.00524 J0.00908
G2 X59.71255 Y26.70493 Z-1.2 I0.00524 J-0.00908
G2 X59.69682 Y26.69585 Z-1.33333 I-0.01048 J0.0
G2 Y26.714 Z-1.46667 I0.00524 J0.00908
G2 X59.71255 Y26.70493 Z-1.6 I0.00524 J-0.00908
G2 X59.69682 Y26.69585 Z-1.73333 I-0.01048 J0.0
G2 X59.69158 Y26.70493 Z-1.8 I0.00524 J0.00908
G2 X59.70731 Y26.714 I0.01048 J0.0
G2 Y26.69585 I-0.00524 J-0.00908
G2 X59.69158 Y26.70493 I-0.00524 J0.00908
G0 Z3.0
G0 X62.26328 Y26.69743
G0 Z0.1
G1 F300.0 Z0.0
G2 F800.0 X62.2467 Y26.68786 Z-0.13333 I-0.01105 J0.0
G2 Y26.70701 Z-0.26667 I0.00553 J0.00957
G2 X62.26328 Y26.69743 Z-0.4 I0.00553 J-0.00957
G2 X62.2467 Y26.68786 Z-0.53333 I-0.01105 J0.0
G2 Y26.70701 Z-0.66667 I0.00553 J0.00957
G2 X62.26328 Y26.69743 Z-0.8 I0.00553 J-0.00957
G2 X62.2467 Y26.68786 Z-0.93333 I-0.01105 J0.0
G2 Y26.70701 Z-1.06667 I0.00553 J0.00957
G2 X62.26328 Y26.69743 Z-1.2 I0.00553 J-0.00957
G2 X62.2467 Y26.68786 Z-1.33333 I-0.01105 J0.0
G2 Y26.70701 Z-1.46667 I0.00553 J0.00957
G2 X62.26328 Y26.69743 Z-1.6 I0.00553 J-0.00957
G2 X62.2467 Y26.68786 Z-1.73333 I-0.01105 J0.0
G2 X62.24117 Y26.69743 Z-1.8 I0.00553 J0.00957
G2 X62.25775 Y26.70701 I0.01105 J0.0
G2 Y26.68786 I-0.00553 J-0.00957
G2 X62.24117 Y26.69743 I-0.00553 J0.00957
G0 Z3.0
G0 X57.18671 Y19.08651
G0 Z0.1
G1 F300.0 Z0.0
G2 F800.0 X57.16993 Y19.07682 Z-0.13333 I-0.01119 J0.0
G2 Y19.0962 Z-0.26667 I0.00559 J0.00969
G2 X57.18671 Y19.08651 Z-0.4 I0.00559 J-0.00969
G2 X57.16993 Y19.07682 Z-0.53333 I-0.01119 J0.0
G2 Y19.0962 Z-0.66667 I0.00559 J0.00969
G2 X57.18671 Y19.08651 Z-0.8 I0.00559 J-0.00969
G2 X57.16993 Y19.07682 Z-0.93333 I-0.01119 J0.0
G2 Y19.0962 Z-1.06667 I0.00559 J0.00969
G2 X57.18671 Y19.08651 Z-1.2 I0.00559 J-0.00969
G2 X57.16993 Y19.07682 Z-1.33333 I-0.01119 J0.0
G2 Y19.0962 Z-1.46667 I0.00559 J0.00969
G2 X57.18671 Y19.08651 Z-1.6 I0.00559 J-0.00969
G2 X57.16993 Y19.07682 Z-1.73333 I-0.01119 J0.0
G2 X57.16434 Y19.08651 Z-1.8 I0.00559 J0.00969
G2 X57.18112 Y19.0962 I0.01119 J0.0
G2 Y19.07682 I-0.00559 J-0.00969
G2 X57.16434 Y19.08651 I-0.00559 J0.00969
G0 Z3.0
G0 X62.25511 Y13.99468
G0 Z0.1
G1 F300.0 Z0.0
G2 F800.0 X62.2384 Y13.98503 Z-0.13333 I-0.01114 J0.0
G2 Y14.00432 Z-0.26667 I0.00557 J0.00964
G2 X62.25511 Y13.99468 Z-0.4 I0.00557 J-0.00964
G2 X62.2384 Y13.98503 Z-0.53333 I-0.01114 J0.0
G2 Y14.00432 Z-0.66667 I0.00557 J0.00964
G2 X62.25511 Y13.99468 Z-0.8 I0.00557 J-0.00964
G2 X62.2384 Y13.98503 Z-0.93333 I-0.01114 J0.0
G2 Y14.00432 Z-1.06667 I0.00557 J0.00964
G2 X62.25511 Y13.99468 Z-1.2 I0.00557 J-0.00964
G2 X62.2384 Y13.98503 Z-1.33333 I-0.01114 J0.0
G2 Y14.00432 Z-1.46667 I0.00557 J0.00964
G2 X62.25511 Y13.99468 Z-1.6 I0.00557 J-0.00964
G2 X62.2384 Y13.98503 Z-1.73333 I-0.01114 J0.0
G2 X62.23283 Y13.99468 Z-1.8 I0.00557 J0.00964
G2 X62.24954 Y14.00432 I0.01114 J0.0
G2 Y13.98503 I-0.00557 J-0.00964
G2 X62.23283 Y13.99468 I-0.00557 J0.00964
G0 Z3.0
G0 X62.25511 Y11.46735
G0 Z0.1
G1 F300.0 Z0.0
G2 F800.0 X62.2384 Y11.45771 Z-0.13333 I-0.01114 J0.0
G2 Y11.477 Z-0.26667 I0.00557 J0.00964
G2 X62.25511 Y11.46735 Z-0.4 I0.00557 J-0.00964
G2 X62.2384 Y11.45771 Z-0.53333 I-0.01114 J0.0
G2 Y11.477 Z-0.66667 I0.00557 J0.00964
G2 X62.25511 Y11.46735 Z-0.8 I0.00557 J-0.00964
G2 X62.2384 Y11.45771 Z-0.93333 I-0.01114 J0.0
G2 Y11.477 Z-1.06667 I0.00557 J0.00964
G2 X62.25511 Y11.46735 Z-1.2 I0.00557 J-0.00964
G2 X62.2384 Y11.45771 Z-1.33333 I-0.01114 J0.0
G2 Y11.477 Z-1.46667 I0.00557 J0.00964
G2 X62.25511 Y11.46735 Z-1.6 I0.00557 J-0.00964
G2 X62.2384 Y11.45771 Z-1.73333 I-0.01114 J0.0
G2 X62.23283 Y11.46735 Z-1.8 I0.00557 J0.00964
G2 X62.24954 Y11.477 I0.01114 J0.0
G2 Y11.45771 I-0.00557 J-0.00964
G2 X62.23283 Y11.46735 I-0.00557 J0.00964
G0 Z3.0
G0 X49.56748 Y19.06308
G0 Z0.1
G1 F300.0 Z0.0
G2 F800.0 X49.55069 Y19.05339 Z-0.13333 I-0.01119 J0.0
G2 Y19.07278 Z-0.26667 I0.0056 J0.00969
G2 X49.56748 Y19.06308 Z-0.4 I0.0056 J-0.00969
G2 X49.55069 Y19.05339 Z-0.53333 I-0.01119 J0.0
G2 Y19.07278 Z-0.66667 I0.0056 J0.00969
G2 X49.56748 Y19.06308 Z-0.8 I0.0056 J-0.00969
G2 X49.55069 Y19.05339 Z-0.93333 I-0.01119 J0.0
G2 Y19.07278 Z-1.06667 I0.0056 J0.00969
G2 X49.56748 Y19.06308 Z-1.2 I0.0056 J-0.00969
G2 X49.55069 Y19.05339 Z-1.33333 I-0.01119 J0.0
G2 Y19.07278 Z-1.46667 I0.0056 J0.00969
G2 X49.56748 Y19.06308 Z-1.6 I0.0056 J-0.00969
G2 X49.55069 Y19.05339 Z-1.73333 I-0.01119 J0.0
G2 X49.54509 Y19.06308 Z-1.8 I0.0056 J0.00969
G2 X49.56189 Y19.07278 I0.01119 J0.0
G2 Y19.05339 I-0.0056 J-0.00969
G2 X49.54509 Y19.06308 I-0.0056 J0.00969
G0 Z3.0
G0 X34.3194 Y19.08997
G0 Z0.1
G1 F300.0 Z0.0
G2 F800.0 X34.30368 Y19.08089 Z-0.13333 I-0.01048 J0.0
G2 Y19.09904 Z-0.26667 I0.00524 J0.00907
G2 X34.3194 Y19.08997 Z-0.4 I0.00524 J-0.00907
G2 X34.30368 Y19.08089 Z-0.53333 I-0.01048 J0.0
G2 Y19.09904 Z-0.66667 I0.00524 J0.00907
G2 X34.3194 Y19.08997 Z-0.8 I0.00524 J-0.00907
G2 X34.30368 Y19.08089 Z-0.93333 I-0.01048 J0.0
G2 Y19.09904 Z-1.06667 I0.00524 J0.00907
G2 X34.3194 Y19.08997 Z-1.2 I0.00524 J-0.00907
G2 X34.30368 Y19.08089 Z-1.33333 I-0.01048 J0.0
G2 Y19.09904 Z-1.46667 I0.00524 J0.00907
G2 X34.3194 Y19.08997 Z-1.6 I0.00524 J-0.00907
G2 X34.30368 Y19.08089 Z-1.73333 I-0.01048 J0.0
G2 X34.29845 Y19.08997 Z-1.8 I0.00524 J0.00907
G2 X34.31416 Y19.09904 I0.01048 J0.0
G2 Y19.08089 I-0.00524 J-0.00907
G2 X34.29845 Y19.08997 I-0.00524 J0.00907
G0 Z3.0
G0 X34.31974 Y21.6097
G0 Z0.1
G1 F300.0 Z0.0
G2 F800.0 X34.30351 Y21.60033 Z-0.13333 I-0.01082 J0.0
G2 Y21.61907 Z-0.26667 I0.00541 J0.00937
G2 X34.31974 Y21.6097 Z-0.4 I0.00541 J-0.00937
G2 X34.30351 Y21.60033 Z-0.53333 I-0.01082 J0.0
G2 Y21.61907 Z-0.66667 I0.00541 J0.00937
G2 X34.31974 Y21.6097 Z-0.8 I0.00541 J-0.00937
G2 X34.30351 Y21.60033 Z-0.93333 I-0.01082 J0.0
G2 Y21.61907 Z-1.06667 I0.00541 J0.00937
G2 X34.31974 Y21.6097 Z-1.2 I0.00541 J-0.00937
G2 X34.30351 Y21.60033 Z-1.33333 I-0.01082 J0.0
G2 Y21.61907 Z-1.46667 I0.00541 J0.00937
G2 X34.31974 Y21.6097 Z-1.6 I0.00541 J-0.00937
G2 X34.30351 Y21.60033 Z-1.73333 I-0.01082 J0.0
G2 X34.2981 Y21.6097 Z-1.8 I0.00541 J0.00937
G2 X34.31433 Y21.61907 I0.01082 J0.0
G2 Y21.60033 I-0.00541 J-0.00937
G2 X34.2981 Y21.6097 I-0.00541 J0.00937
G0 Z3.0
G0 X29.24736 Y21.62073
G0 Z0.1
G1 F300.0 Z0.0
G2 F800.0 X29.23114 Y21.61137 Z-0.13333 I-0.01081 J0.0
G2 Y21.6301 Z-0.26667 I0.00541 J0.00936
G2 X29.24736 Y21.62073 Z-0.4 I0.00541 J-0.00936
G2 X29.23114 Y21.61137 Z-0.53333 I-0.01081 J0.0
G2 Y21.6301 Z-0.66667 I0.00541 J0.00936
G2 X29.24736 Y21.62073 Z-0.8 I0.00541 J-0.00936
G2 X29.23114 Y21.61137 Z-0.93333 I-0.01081 J0.0
G2 Y21.6301 Z-1.06667 I0.00541 J0.00936
G2 X29.24736 Y21.62073 Z-1.2 I0.00541 J-0.00936
G2 X29.23114 Y21.61137 Z-1.33333 I-0.01081 J0.0
G2 Y21.6301 Z-1.46667 I0.00541 J0.00936
G2 X29.24736 Y21.62073 Z-1.6 I0.00541 J-0.00936
G2 X29.23114 Y21.61137 Z-1.73333 I-0.01081 J0.0
G2 X29.22573 Y21.62073 Z-1.8 I0.00541 J0.00936
G2 X29.24195 Y21.6301 I0.01081 J0.0
G2 Y21.61137 I-0.00541 J-0.00936
G2 X29.22573 Y21.62073 I-0.00541 J0.00936
G0 Z3.0
G0 X24.16472 Y21.6097
G0 Z0.1
G1 F300.0 Z0.0
G2 F800.0 X24.148 Y21.60004 Z-0.13333 I-0.01115 J0.0
G2 Y21.61935 Z-0.26667 I0.00557 J0.00966
G2 X24.16472 Y21.6097 Z-0.4 I0.00557 J-0.00966
G2 X24.148 Y21.60004 Z-0.53333 I-0.01115 J0.0
G2 Y21.61935 Z-0.66667 I0.00557 J0.00966
G2 X24.16472 Y21.6097 Z-0.8 I0.00557 J-0.00966
G2 X24.148 Y21.60004 Z-0.93333 I-0.01115 J0.0
G2 Y21.61935 Z-1.06667 I0.00557 J0.00966
G2 X24.16472 Y21.6097 Z-1.2 I0.00557 J-0.00966
G2 X24.148 Y21.60004 Z-1.33333 I-0.01115 J0.0
G2 Y21.61935 Z-1.46667 I0.00557 J0.00966
G2 X24.16472 Y21.6097 Z-1.6 I0.00557 J-0.00966
G2 X24.148 Y21.60004 Z-1.73333 I-0.01115 J0.0
G2 X24.14242 Y21.6097 Z-1.8 I0.00557 J0.00966
G2 X24.15915 Y21.61935 I0.01115 J0.0
G2 Y21.60004 I-0.00557 J-0.00966
G2 X24.14242 Y21.6097 I-0.00557 J0.00966
G0 Z3.0
G0 X24.16194 Y31.77413
G0 Z0.1
G1 F300.0 Z0.0
G2 F800.0 X24.14525 Y31.7645 Z-0.13333 I-0.01112 J0.0
G2 Y31.78376 Z-0.26667 I0.00556 J0.00963
G2 X24.16194 Y31.77413 Z-0.4 I0.00556 J-0.00963
G2 X24.14525 Y31.7645 Z-0.53333 I-0.01112 J0.0
G2 Y31.78376 Z-0.66667 I0.00556 J0.00963
G2 X24.16194 Y31.77413 Z-0.8 I0.00556 J-0.00963
G2 X24.14525 Y31.7645 Z-0.93333 I-0.01112 J0.0
G2 Y31.78376 Z-1.06667 I0.00556 J0.00963
G2 X24.16194 Y31.77413 Z-1.2 I0.00556 J-0.00963
G2 X24.14525 Y31.7645 Z-1.33333 I-0.01112 J0.0
G2 Y31.78376 Z-1.46667 I0.00556 J0.00963
G2 X24.16194 Y31.77413 Z-1.6 I0.00556 J-0.00963
G2 X24.14525 Y31.7645 Z-1.73333 I-0.01112 J0.0
G2 X24.13969 Y31.77413 Z-1.8 I0.00556 J0.00963
G2 X24.15638 Y31.78376 I0.01112 J0.0
G2 Y31.7645 I-0.00556 J-0.00963
G2 X24.13969 Y31.77413 I-0.00556 J0.00963
G0 Z3.0
G0 X29.2455 Y31.78162
G0 Z0.1
G1 F300.0 Z0.0
G2 F800.0 X29.22978 Y31.77254 Z-0.13333 I-0.01048 J0.0
G2 Y31.7907 Z-0.26667 I0.00524 J0.00908
G2 X29.2455 Y31.78162 Z-0.4 I0.00524 J-0.00908
G2 X29.22978 Y31.77254 Z-0.53333 I-0.01048 J0.0
G2 Y31.7907 Z-0.66667 I0.00524 J0.00908
G2 X29.2455 Y31.78162 Z-0.8 I0.00524 J-0.00908
G2 X29.22978 Y31.77254 Z-0.93333 I-0.01048 J0.0
G2 Y31.7907 Z-1.06667 I0.00524 J0.00908
G2 X29.2455 Y31.78162 Z-1.2 I0.00524 J-0.00908
G2 X29.22978 Y31.77254 Z-1.33333 I-0.01048 J0.0
G2 Y31.7907 Z-1.46667 I0.00524 J0.00908
G2 X29.2455 Y31.78162 Z-1.6 I0.00524 J-0.00908
G2 X29.22978 Y31.77254 Z-1.73333 I-0.01048 J0.0
G2 X29.22454 Y31.78162 Z-1.8 I0.00524 J0.00908
G2 X29.24026 Y31.7907 I0.01048 J0.0
G2 Y31.77254 I-0.00524 J-0.00908
G2 X29.22454 Y31.78162 I-0.00524 J0.00908
G0 Z3.0
G0 X29.23737 Y39.4001
G0 Z0.1
G1 F300.0 Z0.0
G2 F800.0 X29.22051 Y39.39036 Z-0.13333 I-0.01124 J0.0
G2 Y39.40984 Z-0.26667 I0.00562 J0.00974
G2 X29.23737 Y39.4001 Z-0.4 I0.00562 J-0.00974
G2 X29.22051 Y39.39036 Z-0.53333 I-0.01124 J0.0
G2 Y39.40984 Z-0.66667 I0.00562 J0.00974
G2 X29.23737 Y39.4001 Z-0.8 I0.00562 J-0.00974
G2 X29.22051 Y39.39036 Z-0.93333 I-0.01124 J0.0
G2 Y39.40984 Z-1.06667 I0.00562 J0.00974
G2 X29.23737 Y39.4001 Z-1.2 I0.00562 J-0.00974
G2 X29.22051 Y39.39036 Z-1.33333 I-0.01124 J0.0
G2 Y39.40984 Z-1.46667 I0.00562 J0.00974
G2 X29.23737 Y39.4001 Z-1.6 I0.00562 J-0.00974
G2 X29.22051 Y39.39036 Z-1.73333 I-0.01124 J0.0
G2 X29.21488 Y39.4001 Z-1.8 I0.00562 J0.00974
G2 X29.23175 Y39.40984 I0.01124 J0.0
G2 Y39.39036 I-0.00562 J-0.00974
G2 X29.21488 Y39.4001 I-0.00562 J0.00974
G0 Z3.0
G0 X26.70074 Y39.40581
G0 Z0.1
G1 F300.0 Z0.0
G2 F800.0 X26.68454 Y39.39646 Z-0.13333 I-0.0108 J0.0
G2 Y39.41517 Z-0.26667 I0.0054 J0.00935
G2 X26.70074 Y39.40581 Z-0.4 I0.0054 J-0.00935
G2 X26.68454 Y39.39646 Z-0.53333 I-0.0108 J0.0
G2 Y39.41517 Z-0.66667 I0.0054 J0.00935
G2 X26.70074 Y39.40581 Z-0.8 I0.0054 J-0.00935
G2 X26.68454 Y39.39646 Z-0.93333 I-0.0108 J0.0
G2 Y39.41517 Z-1.06667 I0.0054 J0.00935
G2 X26.70074 Y39.40581 Z-1.2 I0.0054 J-0.00935
G2 X26.68454 Y39.39646 Z-1.33333 I-0.0108 J0.0
G2 Y39.41517 Z-1.46667 I0.0054 J0.00935
G2 X26.70074 Y39.40581 Z-1.6 I0.0054 J-0.00935
G2 X26.68454 Y39.39646 Z-1.73333 I-0.0108 J0.0
G2 X26.67914 Y39.40581 Z-1.8 I0.0054 J0.00935
G2 X26.69534 Y39.41517 I0.0108 J0.0
G2 Y39.39646 I-0.0054 J-0.00935
G2 X26.67914 Y39.40581 I-0.0054 J0.00935
G0 Z3.0
G0 X24.15361 Y39.39477
G0 Z0.1
G1 F300.0 Z0.0
G2 F800.0 X24.137 Y39.38518 Z-0.13333 I-0.01107 J0.0
G2 Y39.40435 Z-0.26667 I0.00554 J0.00959
G2 X24.15361 Y39.39477 Z-0.4 I0.00554 J-0.00959
G2 X24.137 Y39.38518 Z-0.53333 I-0.01107 J0.0
G2 Y39.40435 Z-0.66667 I0.00554 J0.00959
G2 X24.15361 Y39.39477 Z-0.8 I0.00554 J-0.00959
G2 X24.137 Y39.38518 Z-0.93333 I-0.01107 J0.0
G2 Y39.40435 Z-1.06667 I0.00554 J0.00959
G2 X24.15361 Y39.39477 Z-1.2 I0.00554 J-0.00959
G2 X24.137 Y39.38518 Z-1.33333 I-0.01107 J0.0
G2 Y39.40435 Z-1.46667 I0.00554 J0.00959
G2 X24.15361 Y39.39477 Z-1.6 I0.00554 J-0.00959
G2 X24.137 Y39.38518 Z-1.73333 I-0.01107 J0.0
G2 X24.13146 Y39.39477 Z-1.8 I0.00554 J0.00959
G2 X24.14807 Y39.40435 I0.01107 J0.0
G2 Y39.38518 I-0.00554 J-0.00959
G2 X24.13146 Y39.39477 I-0.00554 J0.00959
G0 Z3.0
G0 X21.61809 Y39.40581
G0 Z0.1
G1 F300.0 Z0.0
G2 F800.0 X21.60139 Y39.39617 Z-0.13333 I-0.01114 J0.0
G2 Y39.41546 Z-0.26667 I0.00557 J0.00964
G2 X21.61809 Y39.40581 Z-0.4 I0.00557 J-0.00964
G2 X21.60139 Y39.39617 Z-0.53333 I-0.01114 J0.0
G2 Y39.41546 Z-0.66667 I0.00557 J0.00964
G2 X21.61809 Y39.40581 Z-0.8 I0.00557 J-0.00964
G2 X21.60139 Y39.39617 Z-0.93333 I-0.01114 J0.0
G2 Y39.41546 Z-1.06667 I0.00557 J0.00964
G2 X21.61809 Y39.40581 Z-1.2 I0.00557 J-0.00964
G2 X21.60139 Y39.39617 Z-1.33333 I-0.01114 J0.0
G2 Y39.41546 Z-1.46667 I0.00557 J0.00964
G2 X21.61809 Y39.40581 Z-1.6 I0.00557 J-0.00964
G2 X21.60139 Y39.39617 Z-1.73333 I-0.01114 J0.0
G2 X21.59582 Y39.40581 Z-1.8 I0.00557 J0.00964
G2 X21.61252 Y39.41546 I0.01114 J0.0
G2 Y39.39617 I-0.00557 J-0.00964
G2 X21.59582 Y39.40581 I-0.00557 J0.00964
G0 Z3.0
G0 X19.08152 Y39.38918
G0 Z0.1
G1 F300.0 Z0.0
G2 F800.0 X19.06523 Y39.37977 Z-0.13333 I-0.01086 J0.0
G2 Y39.39858 Z-0.26667 I0.00543 J0.0094
G2 X19.08152 Y39.38918 Z-0.4 I0.00543 J-0.0094
G2 X19.06523 Y39.37977 Z-0.53333 I-0.01086 J0.0
G2 Y39.39858 Z-0.66667 I0.00543 J0.0094
G2 X19.08152 Y39.38918 Z-0.8 I0.00543 J-0.0094
G2 X19.06523 Y39.37977 Z-0.93333 I-0.01086 J0.0
G2 Y39.39858 Z-1.06667 I0.00543 J0.0094
G2 X19.08152 Y39.38918 Z-1.2 I0.00543 J-0.0094
G2 X19.06523 Y39.37977 Z-1.33333 I-0.01086 J0.0
G2 Y39.39858 Z-1.46667 I0.00543 J0.0094
G2 X19.08152 Y39.38918 Z-1.6 I0.00543 J-0.0094
G2 X19.06523 Y39.37977 Z-1.73333 I-0.01086 J0.0
G2 X19.05981 Y39.38918 Z-1.8 I0.00543 J0.0094
G2 X19.07609 Y39.39858 I0.01086 J0.0
G2 Y39.37977 I-0.00543 J-0.0094
G2 X19.05981 Y39.38918 I-0.00543 J0.0094
G0 Z3.0
G0 X31.77845 Y39.4001
G0 Z0.1
G1 F300.0 Z0.0
G2 F800.0 X31.76168 Y39.39042 Z-0.13333 I-0.01118 J0.0
G2 Y39.40978 Z-0.26667 I0.00559 J0.00968
G2 X31.77845 Y39.4001 Z-0.4 I0.00559 J-0.00968
G2 X31.76168 Y39.39042 Z-0.53333 I-0.01118 J0.0
G2 Y39.40978 Z-0.66667 I0.00559 J0.00968
G2 X31.77845 Y39.4001 Z-0.8 I0.00559 J-0.00968
G2 X31.76168 Y39.39042 Z-0.93333 I-0.01118 J0.0
G2 Y39.40978 Z-1.06667 I0.00559 J0.00968
G2 X31.77845 Y39.4001 Z-1.2 I0.00559 J-0.00968
G2 X31.76168 Y39.39042 Z-1.33333 I-0.01118 J0.0
G2 Y39.40978 Z-1.46667 I0.00559 J0.00968
G2 X31.77845 Y39.4001 Z-1.6 I0.00559 J-0.00968
G2 X31.76168 Y39.39042 Z-1.73333 I-0.01118 J0.0
G2 X31.75609 Y39.4001 Z-1.8 I0.00559 J0.00968
G2 X31.77286 Y39.40978 I0.01118 J0.0
G2 Y39.39042 I-0.00559 J-0.00968
G2 X31.75609 Y39.4001 I-0.00559 J0.00968
G0 Z3.0
G0 X36.85661
G0 Z0.1
G1 F300.0 Z0.0
G2 F800.0 X36.83974 Y39.39036 Z-0.13333 I-0.01125 J0.0
G2 Y39.40984 Z-0.26667 I0.00562 J0.00974
G2 X36.85661 Y39.4001 Z-0.4 I0.00562 J-0.00974
G2 X36.83974 Y39.39036 Z-0.53333 I-0.01125 J0.0
G2 Y39.40984 Z-0.66667 I0.00562 J0.00974
G2 X36.85661 Y39.4001 Z-0.8 I0.00562 J-0.00974
G2 X36.83974 Y39.39036 Z-0.93333 I-0.01125 J0.0
G2 Y39.40984 Z-1.06667 I0.00562 J0.00974
G2 X36.85661 Y39.4001 Z-1.2 I0.00562 J-0.00974
G2 X36.83974 Y39.39036 Z-1.33333 I-0.01125 J0.0
G2 Y39.40984 Z-1.46667 I0.00562 J0.00974
G2 X36.85661 Y39.4001 Z-1.6 I0.00562 J-0.00974
G2 X36.83974 Y39.39036 Z-1.73333 I-0.01125 J0.0
G2 X36.83412 Y39.4001 Z-1.8 I0.00562 J0.00974
G2 X36.85099 Y39.40984 I0.01125 J0.0
G2 Y39.39036 I-0.00562 J-0.00974
G2 X36.83412 Y39.4001 I-0.00562 J0.00974
G0 Z3.0
G0 X39.3975 Y39.39477
G0 Z0.1
G1 F300.0 Z0.0
G2 F800.0 X39.38082 Y39.38514 Z-0.13333 I-0.01112 J0.0
G2 Y39.40439 Z-0.26667 I0.00556 J0.00963
G2 X39.3975 Y39.39477 Z-0.4 I0.00556 J-0.00963
G2 X39.38082 Y39.38514 Z-0.53333 I-0.01112 J0.0
G2 Y39.40439 Z-0.66667 I0.00556 J0.00963
G2 X39.3975 Y39.39477 Z-0.8 I0.00556 J-0.00963
G2 X39.38082 Y39.38514 Z-0.93333 I-0.01112 J0.0
G2 Y39.40439 Z-1.06667 I0.00556 J0.00963
G2 X39.3975 Y39.39477 Z-1.2 I0.00556 J-0.00963
G2 X39.38082 Y39.38514 Z-1.33333 I-0.01112 J0.0
G2 Y39.40439 Z-1.46667 I0.00556 J0.00963
G2 X39.3975 Y39.39477 Z-1.6 I0.00556 J-0.00963
G2 X39.38082 Y39.38514 Z-1.73333 I-0.01112 J0.0
G2 X39.37527 Y39.39477 Z-1.8 I0.00556 J0.00963
G2 X39.39194 Y39.40439 I0.01112 J0.0
G2 Y39.38514 I-0.00556 J-0.00963
G2 X39.37527 Y39.39477 I-0.00556 J0.00963
G0 Z3.0
G0 X34.30847 Y16.52681
G0 Z0.1
G1 F300.0 Z0.0
G2 F800.0 X34.29277 Y16.51775 Z-0.13333 I-0.01047 J0.0
G2 Y16.53588 Z-0.26667 I0.00524 J0.00907
G2 X34.30847 Y16.52681 Z-0.4 I0.00524 J-0.00907
G2 X34.29277 Y16.51775 Z-0.53333 I-0.01047 J0.0
G2 Y16.53588 Z-0.66667 I0.00524 J0.00907
G2 X34.30847 Y16.52681 Z-0.8 I0.00524 J-0.00907
G2 X34.29277 Y16.51775 Z-0.93333 I-0.01047 J0.0
G2 Y16.53588 Z-1.06667 I0.00524 J0.00907
G2 X34.30847 Y16.52681 Z-1.2 I0.00524 J-0.00907
G2 X34.29277 Y16.51775 Z-1.33333 I-0.01047 J0.0
G2 Y16.53588 Z-1.46667 I0.00524 J0.00907
G2 X34.30847 Y16.52681 Z-1.6 I0.00524 J-0.00907
G2 X34.29277 Y16.51775 Z-1.73333 I-0.01047 J0.0
G2 X34.28753 Y16.52681 Z-1.8 I0.00524 J0.00907
G2 X34.30324 Y16.53588 I0.01047 J0.0
G2 Y16.51775 I-0.00524 J-0.00907
G2 X34.28753 Y16.52681 I-0.00524 J0.00907
G0 Z3.0
G0 X34.31974 Y13.99605
G0 Z0.1
G1 F300.0 Z0.0
G2 F800.0 X34.30351 Y13.98668 Z-0.13333 I-0.01082 J0.0
G2 Y14.00542 Z-0.26667 I0.00541 J0.00937
G2 X34.31974 Y13.99605 Z-0.4 I0.00541 J-0.00937
G2 X34.30351 Y13.98668 Z-0.53333 I-0.01082 J0.0
G2 Y14.00542 Z-0.66667 I0.00541 J0.00937
G2 X34.31974 Y13.99605 Z-0.8 I0.00541 J-0.00937
G2 X34.30351 Y13.98668 Z-0.93333 I-0.01082 J0.0
G2 Y14.00542 Z-1.06667 I0.00541 J0.00937
G2 X34.31974 Y13.99605 Z-1.2 I0.00541 J-0.00937
G2 X34.30351 Y13.98668 Z-1.33333 I-0.01082 J0.0
G2 Y14.00542 Z-1.46667 I0.00541 J0.00937
G2 X34.31974 Y13.99605 Z-1.6 I0.00541 J-0.00937
G2 X34.30351 Y13.98668 Z-1.73333 I-0.01082 J0.0
G2 X34.2981 Y13.99605 Z-1.8 I0.00541 J0.00937
G2 X34.31433 Y14.00542 I0.01082 J0.0
G2 Y13.98668 I-0.00541 J-0.00937
G2 X34.2981 Y13.99605 I-0.00541 J0.00937
G0 Z3.0
G0 X33.3052 Y1.29191
G0 Z0.1
G1 F300.0 Z0.0
G2 F800.0 X33.2885 Y1.28227 Z-0.13333 I-0.01113 J0.0
G2 Y1.30155 Z-0.26667 I0.00557 J0.00964
G2 X33.3052 Y1.29191 Z-0.4 I0.00557 J-0.00964
G2 X33.2885 Y1.28227 Z-0.53333 I-0.01113 J0.0
G2 Y1.30155 Z-0.66667 I0.00557 J0.00964
G2 X33.3052 Y1.29191 Z-0.8 I0.00557 J-0.00964
G2 X33.2885 Y1.28227 Z-0.93333 I-0.01113 J0.0
G2 Y1.30155 Z-1.06667 I0.00557 J0.00964
G2 X33.3052 Y1.29191 Z-1.2 I0.00557 J-0.00964
G2 X33.2885 Y1.28227 Z-1.33333 I-0.01113 J0.0
G2 Y1.30155 Z-1.46667 I0.00557 J0.00964
G2 X33.3052 Y1.29191 Z-1.6 I0.00557 J-0.00964
G2 X33.2885 Y1.28227 Z-1.73333 I-0.01113 J0.0
G2 X33.28293 Y1.29191 Z-1.8 I0.00557 J0.00964
G2 X33.29963 Y1.30155 I0.01113 J0.0
G2 Y1.28227 I-0.00557 J-0.00964
G2 X33.28293 Y1.29191 I-0.00557 J0.00964
G0 Z3.0
G0 X35.84368
G0 Z0.1
G1 F300.0 Z0.0
G2 F800.0 X35.82698 Y1.28227 Z-0.13333 I-0.01113 J0.0
G2 Y1.30155 Z-0.26667 I0.00557 J0.00964
G2 X35.84368 Y1.29191 Z-0.4 I0.00557 J-0.00964
G2 X35.82698 Y1.28227 Z-0.53333 I-0.01113 J0.0
G2 Y1.30155 Z-0.66667 I0.00557 J0.00964
G2 X35.84368 Y1.29191 Z-0.8 I0.00557 J-0.00964
G2 X35.82698 Y1.28227 Z-0.93333 I-0.01113 J0.0
G2 Y1.30155 Z-1.06667 I0.00557 J0.00964
G2 X35.84368 Y1.29191 Z-1.2 I0.00557 J-0.00964
G2 X35.82698 Y1.28227 Z-1.33333 I-0.01113 J0.0
G2 Y1.30155 Z-1.46667 I0.00557 J0.00964
G2 X35.84368 Y1.29191 Z-1.6 I0.00557 J-0.00964
G2 X35.82698 Y1.28227 Z-1.73333 I-0.01113 J0.0
G2 X35.82141 Y1.29191 Z-1.8 I0.00557 J0.00964
G2 X35.83811 Y1.30155 I0.01113 J0.0
G2 Y1.28227 I-0.00557 J-0.00964
G2 X35.82141 Y1.29191 I-0.00557 J0.00964
G0 Z3.0
G0 X38.38466 Y1.29536
G0 Z0.1
G1 F300.0 Z0.0
G2 F800.0 X38.36896 Y1.28629 Z-0.13333 I-0.01047 J0.0
G2 Y1.30443 Z-0.26667 I0.00524 J0.00907
G2 X38.38466 Y1.29536 Z-0.4 I0.00524 J-0.00907
G2 X38.36896 Y1.28629 Z-0.53333 I-0.01047 J0.0
G2 Y1.30443 Z-0.66667 I0.00524 J0.00907
G2 X38.38466 Y1.29536 Z-0.8 I0.00524 J-0.00907
G2 X38.36896 Y1.28629 Z-0.93333 I-0.01047 J0.0
G2 Y1.30443 Z-1.06667 I0.00524 J0.00907
G2 X38.38466 Y1.29536 Z-1.2 I0.00524 J-0.00907
G2 X38.36896 Y1.28629 Z-1.33333 I-0.01047 J0.0
G2 Y1.30443 Z-1.46667 I0.00524 J0.00907
G2 X38.38466 Y1.29536 Z-1.6 I0.00524 J-0.00907
G2 X38.36896 Y1.28629 Z-1.73333 I-0.01047 J0.0
G2 X38.36372 Y1.29536 Z-1.8 I0.00524 J0.00907
G2 X38.37943 Y1.30443 I0.01047 J0.0
G2 Y1.28629 I-0.00524 J-0.00907
G2 X38.36372 Y1.29536 I-0.00524 J0.00907
G0 Z3.0
G0 X40.92755 Y1.29191
G0 Z0.1
G1 F300.0 Z0.0
G2 F800.0 X40.91132 Y1.28254 Z-0.13333 I-0.01082 J0.0
G2 Y1.30128 Z-0.26667 I0.00541 J0.00937
G2 X40.92755 Y1.29191 Z-0.4 I0.00541 J-0.00937
G2 X40.91132 Y1.28254 Z-0.53333 I-0.01082 J0.0
G2 Y1.30128 Z-0.66667 I0.00541 J0.00937
G2 X40.92755 Y1.29191 Z-0.8 I0.00541 J-0.00937
G2 X40.91132 Y1.28254 Z-0.93333 I-0.01082 J0.0
G2 Y1.30128 Z-1.06667 I0.00541 J0.00937
G2 X40.92755 Y1.29191 Z-1.2 I0.00541 J-0.00937
G2 X40.91132 Y1.28254 Z-1.33333 I-0.01082 J0.0
G2 Y1.30128 Z-1.46667 I0.00541 J0.00937
G2 X40.92755 Y1.29191 Z-1.6 I0.00541 J-0.00937
G2 X40.91132 Y1.28254 Z-1.73333 I-0.01082 J0.0
G2 X40.90592 Y1.29191 Z-1.8 I0.00541 J0.00937
G2 X40.92214 Y1.30128 I0.01082 J0.0
G2 Y1.28254 I-0.00541 J-0.00937
G2 X40.90592 Y1.29191 I-0.00541 J0.00937
G0 Z3.0
G0 X43.46577
G0 Z0.1
G1 F300.0 Z0.0
G2 F800.0 X43.44955 Y1.28254 Z-0.13333 I-0.01082 J0.0
G2 Y1.30128 Z-0.26667 I0.00541 J0.00937
G2 X43.46577 Y1.29191 Z-0.4 I0.00541 J-0.00937
G2 X43.44955 Y1.28254 Z-0.53333 I-0.01082 J0.0
G2 Y1.30128 Z-0.66667 I0.00541 J0.00937
G2 X43.46577 Y1.29191 Z-0.8 I0.00541 J-0.00937
G2 X43.44955 Y1.28254 Z-0.93333 I-0.01082 J0.0
G2 Y1.30128 Z-1.06667 I0.00541 J0.00937
G2 X43.46577 Y1.29191 Z-1.2 I0.00541 J-0.00937
G2 X43.44955 Y1.28254 Z-1.33333 I-0.01082 J0.0
G2 Y1.30128 Z-1.46667 I0.00541 J0.00937
G2 X43.46577 Y1.29191 Z-1.6 I0.00541 J-0.00937
G2 X43.44955 Y1.28254 Z-1.73333 I-0.01082 J0.0
G2 X43.44414 Y1.29191 Z-1.8 I0.00541 J0.00937
G2 X43.46036 Y1.30128 I0.01082 J0.0
G2 Y1.28254 I-0.00541 J-0.00937
G2 X43.44414 Y1.29191 I-0.00541 J0.00937
G0 Z3.0
G0 X46.00374
G0 Z0.1
G1 F300.0 Z0.0
G2 F800.0 X45.98713 Y1.28232 Z-0.13333 I-0.01107 J0.0
G2 Y1.3015 Z-0.26667 I0.00554 J0.00959
G2 X46.00374 Y1.29191 Z-0.4 I0.00554 J-0.00959
G2 X45.98713 Y1.28232 Z-0.53333 I-0.01107 J0.0
G2 Y1.3015 Z-0.66667 I0.00554 J0.00959
G2 X46.00374 Y1.29191 Z-0.8 I0.00554 J-0.00959
G2 X45.98713 Y1.28232 Z-0.93333 I-0.01107 J0.0
G2 Y1.3015 Z-1.06667 I0.00554 J0.00959
G2 X46.00374 Y1.29191 Z-1.2 I0.00554 J-0.00959
G2 X45.98713 Y1.28232 Z-1.33333 I-0.01107 J0.0
G2 Y1.3015 Z-1.46667 I0.00554 J0.00959
G2 X46.00374 Y1.29191 Z-1.6 I0.00554 J-0.00959
G2 X45.98713 Y1.28232 Z-1.73333 I-0.01107 J0.0
G2 X45.9816 Y1.29191 Z-1.8 I0.00554 J0.00959
G2 X45.9982 Y1.3015 I0.01107 J0.0
G2 Y1.28232 I-0.00554 J-0.00959
G2 X45.9816 Y1.29191 I-0.00554 J0.00959
G0 Z3.0
G0 X28.22441 Y1.29536
G0 Z0.1
G1 F300.0 Z0.0
G2 F800.0 X28.2087 Y1.28629 Z-0.13333 I-0.01047 J0.0
G2 Y1.30443 Z-0.26667 I0.00524 J0.00907
G2 X28.22441 Y1.29536 Z-0.4 I0.00524 J-0.00907
G2 X28.2087 Y1.28629 Z-0.53333 I-0.01047 J0.0
G2 Y1.30443 Z-0.66667 I0.00524 J0.00907
G2 X28.22441 Y1.29536 Z-0.8 I0.00524 J-0.00907
G2 X28.2087 Y1.28629 Z-0.93333 I-0.01047 J0.0
G2 Y1.30443 Z-1.06667 I0.00524 J0.00907
G2 X28.22441 Y1.29536 Z-1.2 I0.00524 J-0.00907
G2 X28.2087 Y1.28629 Z-1.33333 I-0.01047 J0.0
G2 Y1.30443 Z-1.46667 I0.00524 J0.00907
G2 X28.22441 Y1.29536 Z-1.6 I0.00524 J-0.00907
G2 X28.2087 Y1.28629 Z-1.73333 I-0.01047 J0.0
G2 X28.20347 Y1.29536 Z-1.8 I0.00524 J0.00907
G2 X28.21917 Y1.30443 I0.01047 J0.0
G2 Y1.28629 I-0.00524 J-0.00907
G2 X28.20347 Y1.29536 I-0.00524 J0.00907
G0 Z3.0
G0 X25.68598
G0 Z0.1
G1 F300.0 Z0.0
G2 F800.0 X25.67034 Y1.28633 Z-0.13333 I-0.01043 J0.0
G2 Y1.30439 Z-0.26667 I0.00521 J0.00903
G2 X25.68598 Y1.29536 Z-0.4 I0.00521 J-0.00903
G2 X25.67034 Y1.28633 Z-0.53333 I-0.01043 J0.0
G2 Y1.30439 Z-0.66667 I0.00521 J0.00903
G2 X25.68598 Y1.29536 Z-0.8 I0.00521 J-0.00903
G2 X25.67034 Y1.28633 Z-0.93333 I-0.01043 J0.0
G2 Y1.30439 Z-1.06667 I0.00521 J0.00903
G2 X25.68598 Y1.29536 Z-1.2 I0.00521 J-0.00903
G2 X25.67034 Y1.28633 Z-1.33333 I-0.01043 J0.0
G2 Y1.30439 Z-1.46667 I0.00521 J0.00903
G2 X25.68598 Y1.29536 Z-1.6 I0.00521 J-0.00903
G2 X25.67034 Y1.28633 Z-1.73333 I-0.01043 J0.0
G2 X25.66512 Y1.29536 Z-1.8 I0.00521 J0.00903
G2 X25.68077 Y1.30439 I0.01043 J0.0
G2 Y1.28633 I-0.00521 J-0.00903
G2 X25.66512 Y1.29536 I-0.00521 J0.00903
G0 Z3.0
G0 X23.14773
G0 Z0.1
G1 F300.0 Z0.0
G2 F800.0 X23.13204 Y1.2863 Z-0.13333 I-0.01046 J0.0
G2 Y1.30441 Z-0.26667 I0.00523 J0.00906
G2 X23.14773 Y1.29536 Z-0.4 I0.00523 J-0.00906
G2 X23.13204 Y1.2863 Z-0.53333 I-0.01046 J0.0
G2 Y1.30441 Z-0.66667 I0.00523 J0.00906
G2 X23.14773 Y1.29536 Z-0.8 I0.00523 J-0.00906
G2 X23.13204 Y1.2863 Z-0.93333 I-0.01046 J0.0
G2 Y1.30441 Z-1.06667 I0.00523 J0.00906
G2 X23.14773 Y1.29536 Z-1.2 I0.00523 J-0.00906
G2 X23.13204 Y1.2863 Z-1.33333 I-0.01046 J0.0
G2 Y1.30441 Z-1.46667 I0.00523 J0.00906
G2 X23.14773 Y1.29536 Z-1.6 I0.00523 J-0.00906
G2 X23.13204 Y1.2863 Z-1.73333 I-0.01046 J0.0
G2 X23.12681 Y1.29536 Z-1.8 I0.00523 J0.00906
G2 X23.1425 Y1.30441 I0.01046 J0.0
G2 Y1.2863 I-0.00523 J-0.00906
G2 X23.12681 Y1.29536 I-0.00523 J0.00906
G0 Z3.0
G0 X20.58066
G0 Z0.1
G1 F300.0 Z0.0
G2 F800.0 X20.56497 Y1.2863 Z-0.13333 I-0.01046 J0.0
G2 Y1.30441 Z-0.26667 I0.00523 J0.00906
G2 X20.58066 Y1.29536 Z-0.4 I0.00523 J-0.00906
G2 X20.56497 Y1.2863 Z-0.53333 I-0.01046 J0.0
G2 Y1.30441 Z-0.66667 I0.00523 J0.00906
G2 X20.58066 Y1.29536 Z-0.8 I0.00523 J-0.00906
G2 X20.56497 Y1.2863 Z-0.93333 I-0.01046 J0.0
G2 Y1.30441 Z-1.06667 I0.00523 J0.00906
G2 X20.58066 Y1.29536 Z-1.2 I0.00523 J-0.00906
G2 X20.56497 Y1.2863 Z-1.33333 I-0.01046 J0.0
G2 Y1.30441 Z-1.46667 I0.00523 J0.00906
G2 X20.58066 Y1.29536 Z-1.6 I0.00523 J-0.00906
G2 X20.56497 Y1.2863 Z-1.73333 I-0.01046 J0.0
G2 X20.55974 Y1.29536 Z-1.8 I0.00523 J0.00906
G2 X20.57543 Y1.30441 I0.01046 J0.0
G2 Y1.2863 I-0.00523 J-0.00906
G2 X20.55974 Y1.29536 I-0.00523 J0.00906
G0 Z3.0
G0 X18.06379
G0 Z0.1
G1 F300.0 Z0.0
G2 F800.0 X18.04758 Y1.286 Z-0.13333 I-0.01081 J0.0
G2 Y1.30472 Z-0.26667 I0.0054 J0.00936
G2 X18.06379 Y1.29536 Z-0.4 I0.0054 J-0.00936
G2 X18.04758 Y1.286 Z-0.53333 I-0.01081 J0.0
G2 Y1.30472 Z-0.66667 I0.0054 J0.00936
G2 X18.06379 Y1.29536 Z-0.8 I0.0054 J-0.00936
G2 X18.04758 Y1.286 Z-0.93333 I-0.01081 J0.0
G2 Y1.30472 Z-1.06667 I0.0054 J0.00936
G2 X18.06379 Y1.29536 Z-1.2 I0.0054 J-0.00936
G2 X18.04758 Y1.286 Z-1.33333 I-0.01081 J0.0
G2 Y1.30472 Z-1.46667 I0.0054 J0.00936
G2 X18.06379 Y1.29536 Z-1.6 I0.0054 J-0.00936
G2 X18.04758 Y1.286 Z-1.73333 I-0.01081 J0.0
G2 X18.04218 Y1.29536 Z-1.8 I0.0054 J0.00936
G2 X18.05839 Y1.30472 I0.01081 J0.0
G2 Y1.286 I-0.0054 J-0.00936
G2 X18.04218 Y1.29536 I-0.0054 J0.00936
G0 Z3.0
G0 X15.52543 Y1.29949
G0 Z0.1
G1 F300.0 Z0.0
G2 F800.0 X15.50924 Y1.29014 Z-0.13333 I-0.0108 J0.0
G2 Y1.30884 Z-0.26667 I0.0054 J0.00935
G2 X15.52543 Y1.29949 Z-0.4 I0.0054 J-0.00935
G2 X15.50924 Y1.29014 Z-0.53333 I-0.0108 J0.0
G2 Y1.30884 Z-0.66667 I0.0054 J0.00935
G2 X15.52543 Y1.29949 Z-0.8 I0.0054 J-0.00935
G2 X15.50924 Y1.29014 Z-0.93333 I-0.0108 J0.0
G2 Y1.30884 Z-1.06667 I0.0054 J0.00935
G2 X15.52543 Y1.29949 Z-1.2 I0.0054 J-0.00935
G2 X15.50924 Y1.29014 Z-1.33333 I-0.0108 J0.0
G2 Y1.30884 Z-1.46667 I0.0054 J0.00935
G2 X15.52543 Y1.29949 Z-1.6 I0.0054 J-0.00935
G2 X15.50924 Y1.29014 Z-1.73333 I-0.0108 J0.0
G2 X15.50384 Y1.29949 Z-1.8 I0.0054 J0.00935
G2 X15.52004 Y1.30884 I0.0108 J0.0
G2 Y1.29014 I-0.0054 J-0.00935
G2 X15.50384 Y1.29949 I-0.0054 J0.00935
G0 Z3.0
G0 X12.98366 Y1.29191
G0 Z0.1
G1 F300.0 Z0.0
G2 F800.0 X12.96746 Y1.28256 Z-0.13333 I-0.0108 J0.0
G2 Y1.30126 Z-0.26667 I0.0054 J0.00935
G2 X12.98366 Y1.29191 Z-0.4 I0.0054 J-0.00935
G2 X12.96746 Y1.28256 Z-0.53333 I-0.0108 J0.0
G2 Y1.30126 Z-0.66667 I0.0054 J0.00935
G2 X12.98366 Y1.29191 Z-0.8 I0.0054 J-0.00935
G2 X12.96746 Y1.28256 Z-0.93333 I-0.0108 J0.0
G2 Y1.30126 Z-1.06667 I0.0054 J0.00935
G2 X12.98366 Y1.29191 Z-1.2 I0.0054 J-0.00935
G2 X12.96746 Y1.28256 Z-1.33333 I-0.0108 J0.0
G2 Y1.30126 Z-1.46667 I0.0054 J0.00935
G2 X12.98366 Y1.29191 Z-1.6 I0.0054 J-0.00935
G2 X12.96746 Y1.28256 Z-1.73333 I-0.0108 J0.0
G2 X12.96206 Y1.29191 Z-1.8 I0.0054 J0.00935
G2 X12.97826 Y1.30126 I0.0108 J0.0
G2 Y1.28256 I-0.0054 J-0.00935
G2 X12.96206 Y1.29191 I-0.0054 J0.00935
G0 Z3.0
G0 X10.44875 Y1.29949
G0 Z0.1
G1 F300.0 Z0.0
G2 F800.0 X10.43255 Y1.29013 Z-0.13333 I-0.0108 J0.0
G2 Y1.30884 Z-0.26667 I0.0054 J0.00935
G2 X10.44875 Y1.29949 Z-0.4 I0.0054 J-0.00935
G2 X10.43255 Y1.29013 Z-0.53333 I-0.0108 J0.0
G2 Y1.30884 Z-0.66667 I0.0054 J0.00935
G2 X10.44875 Y1.29949 Z-0.8 I0.0054 J-0.00935
G2 X10.43255 Y1.29013 Z-0.93333 I-0.0108 J0.0
G2 Y1.30884 Z-1.06667 I0.0054 J0.00935
G2 X10.44875 Y1.29949 Z-1.2 I0.0054 J-0.00935
G2 X10.43255 Y1.29013 Z-1.33333 I-0.0108 J0.0
G2 Y1.30884 Z-1.46667 I0.0054 J0.00935
G2 X10.44875 Y1.29949 Z-1.6 I0.0054 J-0.00935
G2 X10.43255 Y1.29013 Z-1.73333 I-0.0108 J0.0
G2 X10.42715 Y1.29949 Z-1.8 I0.0054 J0.00935
G2 X10.44335 Y1.30884 I0.0108 J0.0
G2 Y1.29013 I-0.0054 J-0.00935
G2 X10.42715 Y1.29949 I-0.0054 J0.00935
G0 Z3.0
M5
M30
