( Made using CamBam - http://www.cambam.co.uk )
( eighttooth 1/3/2018 12:12:58 PM )
( T2 : 2.0 )
G21 G90 G64 G40
G0 Z3.0
( T2 : 2.0 )
T2 M6
( Profile1 )
G17
M3 S15000
G0 X2.5 Y-0.2
G0 Z0.1
G1 F100.0 Z-0.7
G2 F600.0 X-1.25 Y-2.36506 I-2.5 J0.0
G2 Y1.96506 I1.25 J2.16506
G2 X2.5 Y-0.2 I1.25 J-2.16506
G1 F100.0 Z-1.4
G2 F600.0 X-1.25 Y-2.36506 I-2.5 J0.0
G2 Y1.96506 I1.25 J2.16506
G2 X2.5 Y-0.2 I1.25 J-2.16506
G1 F100.0 Z-2.1
G2 F600.0 X-1.25 Y-2.36506 I-2.5 J0.0
G2 Y1.96506 I1.25 J2.16506
G2 X2.5 Y-0.2 I1.25 J-2.16506
G1 F100.0 Z-2.8
G2 F600.0 X-1.25 Y-2.36506 I-2.5 J0.0
G2 Y1.96506 I1.25 J2.16506
G2 X2.5 Y-0.2 I1.25 J-2.16506
G1 F100.0 Z-3.5
G2 F600.0 X-1.25 Y-2.36506 I-2.5 J0.0
G2 Y1.96506 I1.25 J2.16506
G2 X2.5 Y-0.2 I1.25 J-2.16506
G1 F100.0 Z-4.2
G2 F600.0 X-1.25 Y-2.36506 I-2.5 J0.0
G2 Y1.96506 I1.25 J2.16506
G2 X2.5 Y-0.2 I1.25 J-2.16506
G1 F100.0 Z-4.9
G2 F600.0 X-1.25 Y-2.36506 I-2.5 J0.0
G2 Y1.96506 I1.25 J2.16506
G2 X2.5 Y-0.2 I1.25 J-2.16506
G1 F100.0 Z-5.3
G2 F600.0 X-1.25 Y-2.36506 I-2.5 J0.0
G2 Y1.96506 I1.25 J2.16506
G2 X2.5 Y-0.2 I1.25 J-2.16506
G1 F100.0 Z-6.0
G2 F600.0 X-1.25 Y-2.36506 I-2.5 J0.0
G2 Y1.96506 I1.25 J2.16506
G2 X2.5 Y-0.2 I1.25 J-2.16506
( Profile2 )
S15000
G0 Z3.0
G0 X11.29336 Y3.33615
G0 Z0.1
G1 F100.0 Z-0.7
G1 F600.0 X10.41439 Y5.45817
G1 X12.04694 Y6.51415
G3 X12.23282 Y6.66929 I-0.54312 J0.83966
G1 X12.85438 Y7.33124
G3 X13.06795 Y7.68175 I-0.72899 J0.68452
G1 X14.51661 Y11.76988
G3 X14.28115 Y12.811 I-0.94257 J0.33401
G1 X12.88084 Y14.21131
G3 X11.83972 Y14.44677 I-0.70711 J-0.70711
G1 X7.75159 Y12.99811
G3 X7.40107 Y12.78454 I0.33401 J-0.94257
G1 X6.73913 Y12.16298
G3 X6.58399 Y11.9771 I0.68452 J-0.72899
G1 X5.52801 Y10.34455
G1 X3.40599 Y11.22352
G1 X3.81368 Y13.1246
G3 X3.83542 Y13.36573 I-0.97777 J0.20969
G1 X3.80686 Y14.27331
G3 X3.71003 Y14.67218 I-0.99951 J-0.03145
G1 X1.84364 Y18.58729
G3 X0.94096 Y19.15697 I-0.90268 J-0.43032
G1 X-1.03938
G3 X-1.94205 Y18.58729 I0.0 J-1.0
G1 X-3.80845 Y14.67218
G3 X-3.90527 Y14.27331 I0.90268 J-0.43032
G1 X-3.93383 Y13.36573
G3 X-3.91209 Y13.1246 I0.99951 J-0.03145
G1 X-3.5044 Y11.22352
G1 X-5.62643 Y10.34455
G1 X-6.68241 Y11.9771
G3 X-6.83754 Y12.16298 I-0.83966 J-0.54312
G1 X-7.49949 Y12.78454
G3 X-7.85 Y12.99811 I-0.68452 J-0.72899
G1 X-11.93814 Y14.44677
G3 X-12.97925 Y14.21131 I-0.33401 J-0.94257
G1 X-14.37956 Y12.811
G3 X-14.61503 Y11.76988 I0.70711 J-0.70711
G1 X-13.16637 Y7.68175
G3 X-12.95279 Y7.33123 I0.94257 J0.33401
G1 X-12.33123 Y6.66929
G3 X-12.14535 Y6.51415 I0.72899 J0.68452
G1 X-10.51281 Y5.45817
G1 X-11.39178 Y3.33615
G1 X-13.29285 Y3.74384
G3 X-13.53399 Y3.76558 I-0.20969 J-0.97777
G1 X-14.44156 Y3.73702
G3 X-14.84044 Y3.64019 I0.03145 J-0.99951
G1 X-18.75554 Y1.7738
G3 X-19.32522 Y0.87112 I0.43032 J-0.90268
G1 Y-1.10922
G3 X-18.75554 Y-2.01189 I1.0 J0.0
G1 X-14.84044 Y-3.87829
G3 X-14.44156 Y-3.97512 I0.43032 J0.90268
G1 X-13.53399 Y-4.00367
G3 X-13.29285 Y-3.98193 I0.03145 J0.99951
G1 X-11.39178 Y-3.57424
G1 X-10.51281 Y-5.69627
G1 X-12.14535 Y-6.75225
G3 X-12.33123 Y-6.90738 I0.54312 J-0.83966
G1 X-12.95279 Y-7.56933
G3 X-13.16637 Y-7.91984 I0.72899 J-0.68452
G1 X-14.61503 Y-12.00798
G3 X-14.37956 Y-13.04909 I0.94257 J-0.33401
G1 X-12.97925 Y-14.4494
G3 X-11.93814 Y-14.68487 I0.70711 J0.70711
G1 X-7.85 Y-13.23621
G3 X-7.49949 Y-13.02263 I-0.33401 J0.94257
G1 X-6.83754 Y-12.40107
G3 X-6.68241 Y-12.21519 I-0.68452 J0.72899
G1 X-5.62643 Y-10.58265
G1 X-3.5044 Y-11.46162
G1 X-3.91209 Y-13.36269
G3 X-3.93383 Y-13.60383 I0.97777 J-0.20969
G1 X-3.90527 Y-14.5114
G3 X-3.80845 Y-14.91028 I0.99951 J0.03145
G1 X-1.94205 Y-18.82538
G3 X-1.03938 Y-19.39506 I0.90268 J0.43032
G1 X0.94096
G3 X1.84364 Y-18.82538 I0.0 J1.0
G1 X3.71003 Y-14.91028
G3 X3.80686 Y-14.5114 I-0.90268 J0.43032
G1 X3.83542 Y-13.60383
G3 X3.81368 Y-13.36269 I-0.99951 J0.03145
G1 X3.40599 Y-11.46162
G1 X5.52801 Y-10.58265
G1 X6.58399 Y-12.21519
G3 X6.73913 Y-12.40107 I0.83966 J0.54312
G1 X7.40108 Y-13.02263
G3 X7.75159 Y-13.23621 I0.68452 J0.72899
G1 X11.83972 Y-14.68487
G3 X12.88084 Y-14.4494 I0.33401 J0.94257
G1 X14.28115 Y-13.04909
G3 X14.51661 Y-12.00798 I-0.70711 J0.70711
G1 X13.06795 Y-7.91984
G3 X12.85438 Y-7.56933 I-0.94257 J-0.33401
G1 X12.23282 Y-6.90738
G3 X12.04694 Y-6.75225 I-0.72899 J-0.68452
G1 X10.41439 Y-5.69627
G1 X11.29336 Y-3.57424
G1 X13.19444 Y-3.98193
G3 X13.43557 Y-4.00367 I0.20969 J0.97777
G1 X14.34315 Y-3.97512
G3 X14.74202 Y-3.87829 I-0.03145 J0.99951
G1 X18.65713 Y-2.01189
G3 X19.22681 Y-1.10922 I-0.43032 J0.90268
G1 Y0.87112
G3 X18.65713 Y1.7738 I-1.0 J0.0
G1 X14.74202 Y3.64019
G3 X14.34315 Y3.73702 I-0.43032 J-0.90268
G1 X13.43558 Y3.76558
G3 X13.19444 Y3.74384 I-0.03145 J-0.99951
G1 X11.29336 Y3.33615
G1 F100.0 Z-1.4
G1 F600.0 X10.41439 Y5.45817
G1 X12.04694 Y6.51415
G3 X12.23282 Y6.66929 I-0.54312 J0.83966
G1 X12.85438 Y7.33124
G3 X13.06795 Y7.68175 I-0.72899 J0.68452
G1 X14.51661 Y11.76988
G3 X14.28115 Y12.811 I-0.94257 J0.33401
G1 X12.88084 Y14.21131
G3 X11.83972 Y14.44677 I-0.70711 J-0.70711
G1 X7.75159 Y12.99811
G3 X7.40107 Y12.78454 I0.33401 J-0.94257
G1 X6.73913 Y12.16298
G3 X6.58399 Y11.9771 I0.68452 J-0.72899
G1 X5.52801 Y10.34455
G1 X3.40599 Y11.22352
G1 X3.81368 Y13.1246
G3 X3.83542 Y13.36573 I-0.97777 J0.20969
G1 X3.80686 Y14.27331
G3 X3.71003 Y14.67218 I-0.99951 J-0.03145
G1 X1.84364 Y18.58729
G3 X0.94096 Y19.15697 I-0.90268 J-0.43032
G1 X-1.03938
G3 X-1.94205 Y18.58729 I0.0 J-1.0
G1 X-3.80845 Y14.67218
G3 X-3.90527 Y14.27331 I0.90268 J-0.43032
G1 X-3.93383 Y13.36573
G3 X-3.91209 Y13.1246 I0.99951 J-0.03145
G1 X-3.5044 Y11.22352
G1 X-5.62643 Y10.34455
G1 X-6.68241 Y11.9771
G3 X-6.83754 Y12.16298 I-0.83966 J-0.54312
G1 X-7.49949 Y12.78454
G3 X-7.85 Y12.99811 I-0.68452 J-0.72899
G1 X-11.93814 Y14.44677
G3 X-12.97925 Y14.21131 I-0.33401 J-0.94257
G1 X-14.37956 Y12.811
G3 X-14.61503 Y11.76988 I0.70711 J-0.70711
G1 X-13.16637 Y7.68175
G3 X-12.95279 Y7.33123 I0.94257 J0.33401
G1 X-12.33123 Y6.66929
G3 X-12.14535 Y6.51415 I0.72899 J0.68452
G1 X-10.51281 Y5.45817
G1 X-11.39178 Y3.33615
G1 X-13.29285 Y3.74384
G3 X-13.53399 Y3.76558 I-0.20969 J-0.97777
G1 X-14.44156 Y3.73702
G3 X-14.84044 Y3.64019 I0.03145 J-0.99951
G1 X-18.75554 Y1.7738
G3 X-19.32522 Y0.87112 I0.43032 J-0.90268
G1 Y-1.10922
G3 X-18.75554 Y-2.01189 I1.0 J0.0
G1 X-14.84044 Y-3.87829
G3 X-14.44156 Y-3.97512 I0.43032 J0.90268
G1 X-13.53399 Y-4.00367
G3 X-13.29285 Y-3.98193 I0.03145 J0.99951
G1 X-11.39178 Y-3.57424
G1 X-10.51281 Y-5.69627
G1 X-12.14535 Y-6.75225
G3 X-12.33123 Y-6.90738 I0.54312 J-0.83966
G1 X-12.95279 Y-7.56933
G3 X-13.16637 Y-7.91984 I0.72899 J-0.68452
G1 X-14.61503 Y-12.00798
G3 X-14.37956 Y-13.04909 I0.94257 J-0.33401
G1 X-12.97925 Y-14.4494
G3 X-11.93814 Y-14.68487 I0.70711 J0.70711
G1 X-7.85 Y-13.23621
G3 X-7.49949 Y-13.02263 I-0.33401 J0.94257
G1 X-6.83754 Y-12.40107
G3 X-6.68241 Y-12.21519 I-0.68452 J0.72899
G1 X-5.62643 Y-10.58265
G1 X-3.5044 Y-11.46162
G1 X-3.91209 Y-13.36269
G3 X-3.93383 Y-13.60383 I0.97777 J-0.20969
G1 X-3.90527 Y-14.5114
G3 X-3.80845 Y-14.91028 I0.99951 J0.03145
G1 X-1.94205 Y-18.82538
G3 X-1.03938 Y-19.39506 I0.90268 J0.43032
G1 X0.94096
G3 X1.84364 Y-18.82538 I0.0 J1.0
G1 X3.71003 Y-14.91028
G3 X3.80686 Y-14.5114 I-0.90268 J0.43032
G1 X3.83542 Y-13.60383
G3 X3.81368 Y-13.36269 I-0.99951 J0.03145
G1 X3.40599 Y-11.46162
G1 X5.52801 Y-10.58265
G1 X6.58399 Y-12.21519
G3 X6.73913 Y-12.40107 I0.83966 J0.54312
G1 X7.40108 Y-13.02263
G3 X7.75159 Y-13.23621 I0.68452 J0.72899
G1 X11.83972 Y-14.68487
G3 X12.88084 Y-14.4494 I0.33401 J0.94257
G1 X14.28115 Y-13.04909
G3 X14.51661 Y-12.00798 I-0.70711 J0.70711
G1 X13.06795 Y-7.91984
G3 X12.85438 Y-7.56933 I-0.94257 J-0.33401
G1 X12.23282 Y-6.90738
G3 X12.04694 Y-6.75225 I-0.72899 J-0.68452
G1 X10.41439 Y-5.69627
G1 X11.29336 Y-3.57424
G1 X13.19444 Y-3.98193
G3 X13.43557 Y-4.00367 I0.20969 J0.97777
G1 X14.34315 Y-3.97512
G3 X14.74202 Y-3.87829 I-0.03145 J0.99951
G1 X18.65713 Y-2.01189
G3 X19.22681 Y-1.10922 I-0.43032 J0.90268
G1 Y0.87112
G3 X18.65713 Y1.7738 I-1.0 J0.0
G1 X14.74202 Y3.64019
G3 X14.34315 Y3.73702 I-0.43032 J-0.90268
G1 X13.43558 Y3.76558
G3 X13.19444 Y3.74384 I-0.03145 J-0.99951
G1 X11.29336 Y3.33615
G1 F100.0 Z-2.1
G1 F600.0 X10.41439 Y5.45817
G1 X12.04694 Y6.51415
G3 X12.23282 Y6.66929 I-0.54312 J0.83966
G1 X12.85438 Y7.33124
G3 X13.06795 Y7.68175 I-0.72899 J0.68452
G1 X14.51661 Y11.76988
G3 X14.28115 Y12.811 I-0.94257 J0.33401
G1 X12.88084 Y14.21131
G3 X11.83972 Y14.44677 I-0.70711 J-0.70711
G1 X7.75159 Y12.99811
G3 X7.40107 Y12.78454 I0.33401 J-0.94257
G1 X6.73913 Y12.16298
G3 X6.58399 Y11.9771 I0.68452 J-0.72899
G1 X5.52801 Y10.34455
G1 X3.40599 Y11.22352
G1 X3.81368 Y13.1246
G3 X3.83542 Y13.36573 I-0.97777 J0.20969
G1 X3.80686 Y14.27331
G3 X3.71003 Y14.67218 I-0.99951 J-0.03145
G1 X1.84364 Y18.58729
G3 X0.94096 Y19.15697 I-0.90268 J-0.43032
G1 X-1.03938
G3 X-1.94205 Y18.58729 I0.0 J-1.0
G1 X-3.80845 Y14.67218
G3 X-3.90527 Y14.27331 I0.90268 J-0.43032
G1 X-3.93383 Y13.36573
G3 X-3.91209 Y13.1246 I0.99951 J-0.03145
G1 X-3.5044 Y11.22352
G1 X-5.62643 Y10.34455
G1 X-6.68241 Y11.9771
G3 X-6.83754 Y12.16298 I-0.83966 J-0.54312
G1 X-7.49949 Y12.78454
G3 X-7.85 Y12.99811 I-0.68452 J-0.72899
G1 X-11.93814 Y14.44677
G3 X-12.97925 Y14.21131 I-0.33401 J-0.94257
G1 X-14.37956 Y12.811
G3 X-14.61503 Y11.76988 I0.70711 J-0.70711
G1 X-13.16637 Y7.68175
G3 X-12.95279 Y7.33123 I0.94257 J0.33401
G1 X-12.33123 Y6.66929
G3 X-12.14535 Y6.51415 I0.72899 J0.68452
G1 X-10.51281 Y5.45817
G1 X-11.39178 Y3.33615
G1 X-13.29285 Y3.74384
G3 X-13.53399 Y3.76558 I-0.20969 J-0.97777
G1 X-14.44156 Y3.73702
G3 X-14.84044 Y3.64019 I0.03145 J-0.99951
G1 X-18.75554 Y1.7738
G3 X-19.32522 Y0.87112 I0.43032 J-0.90268
G1 Y-1.10922
G3 X-18.75554 Y-2.01189 I1.0 J0.0
G1 X-14.84044 Y-3.87829
G3 X-14.44156 Y-3.97512 I0.43032 J0.90268
G1 X-13.53399 Y-4.00367
G3 X-13.29285 Y-3.98193 I0.03145 J0.99951
G1 X-11.39178 Y-3.57424
G1 X-10.51281 Y-5.69627
G1 X-12.14535 Y-6.75225
G3 X-12.33123 Y-6.90738 I0.54312 J-0.83966
G1 X-12.95279 Y-7.56933
G3 X-13.16637 Y-7.91984 I0.72899 J-0.68452
G1 X-14.61503 Y-12.00798
G3 X-14.37956 Y-13.04909 I0.94257 J-0.33401
G1 X-12.97925 Y-14.4494
G3 X-11.93814 Y-14.68487 I0.70711 J0.70711
G1 X-7.85 Y-13.23621
G3 X-7.49949 Y-13.02263 I-0.33401 J0.94257
G1 X-6.83754 Y-12.40107
G3 X-6.68241 Y-12.21519 I-0.68452 J0.72899
G1 X-5.62643 Y-10.58265
G1 X-3.5044 Y-11.46162
G1 X-3.91209 Y-13.36269
G3 X-3.93383 Y-13.60383 I0.97777 J-0.20969
G1 X-3.90527 Y-14.5114
G3 X-3.80845 Y-14.91028 I0.99951 J0.03145
G1 X-1.94205 Y-18.82538
G3 X-1.03938 Y-19.39506 I0.90268 J0.43032
G1 X0.94096
G3 X1.84364 Y-18.82538 I0.0 J1.0
G1 X3.71003 Y-14.91028
G3 X3.80686 Y-14.5114 I-0.90268 J0.43032
G1 X3.83542 Y-13.60383
G3 X3.81368 Y-13.36269 I-0.99951 J0.03145
G1 X3.40599 Y-11.46162
G1 X5.52801 Y-10.58265
G1 X6.58399 Y-12.21519
G3 X6.73913 Y-12.40107 I0.83966 J0.54312
G1 X7.40108 Y-13.02263
G3 X7.75159 Y-13.23621 I0.68452 J0.72899
G1 X11.83972 Y-14.68487
G3 X12.88084 Y-14.4494 I0.33401 J0.94257
G1 X14.28115 Y-13.04909
G3 X14.51661 Y-12.00798 I-0.70711 J0.70711
G1 X13.06795 Y-7.91984
G3 X12.85438 Y-7.56933 I-0.94257 J-0.33401
G1 X12.23282 Y-6.90738
G3 X12.04694 Y-6.75225 I-0.72899 J-0.68452
G1 X10.41439 Y-5.69627
G1 X11.29336 Y-3.57424
G1 X13.19444 Y-3.98193
G3 X13.43557 Y-4.00367 I0.20969 J0.97777
G1 X14.34315 Y-3.97512
G3 X14.74202 Y-3.87829 I-0.03145 J0.99951
G1 X18.65713 Y-2.01189
G3 X19.22681 Y-1.10922 I-0.43032 J0.90268
G1 Y0.87112
G3 X18.65713 Y1.7738 I-1.0 J0.0
G1 X14.74202 Y3.64019
G3 X14.34315 Y3.73702 I-0.43032 J-0.90268
G1 X13.43558 Y3.76558
G3 X13.19444 Y3.74384 I-0.03145 J-0.99951
G1 X11.29336 Y3.33615
G1 F100.0 Z-2.8
G1 F600.0 X10.41439 Y5.45817
G1 X12.04694 Y6.51415
G3 X12.23282 Y6.66929 I-0.54312 J0.83966
G1 X12.85438 Y7.33124
G3 X13.06795 Y7.68175 I-0.72899 J0.68452
G1 X14.51661 Y11.76988
G3 X14.28115 Y12.811 I-0.94257 J0.33401
G1 X12.88084 Y14.21131
G3 X11.83972 Y14.44677 I-0.70711 J-0.70711
G1 X7.75159 Y12.99811
G3 X7.40107 Y12.78454 I0.33401 J-0.94257
G1 X6.73913 Y12.16298
G3 X6.58399 Y11.9771 I0.68452 J-0.72899
G1 X5.52801 Y10.34455
G1 X3.40599 Y11.22352
G1 X3.81368 Y13.1246
G3 X3.83542 Y13.36573 I-0.97777 J0.20969
G1 X3.80686 Y14.27331
G3 X3.71003 Y14.67218 I-0.99951 J-0.03145
G1 X1.84364 Y18.58729
G3 X0.94096 Y19.15697 I-0.90268 J-0.43032
G1 X-1.03938
G3 X-1.94205 Y18.58729 I0.0 J-1.0
G1 X-3.80845 Y14.67218
G3 X-3.90527 Y14.27331 I0.90268 J-0.43032
G1 X-3.93383 Y13.36573
G3 X-3.91209 Y13.1246 I0.99951 J-0.03145
G1 X-3.5044 Y11.22352
G1 X-5.62643 Y10.34455
G1 X-6.68241 Y11.9771
G3 X-6.83754 Y12.16298 I-0.83966 J-0.54312
G1 X-7.49949 Y12.78454
G3 X-7.85 Y12.99811 I-0.68452 J-0.72899
G1 X-11.93814 Y14.44677
G3 X-12.97925 Y14.21131 I-0.33401 J-0.94257
G1 X-14.37956 Y12.811
G3 X-14.61503 Y11.76988 I0.70711 J-0.70711
G1 X-13.16637 Y7.68175
G3 X-12.95279 Y7.33123 I0.94257 J0.33401
G1 X-12.33123 Y6.66929
G3 X-12.14535 Y6.51415 I0.72899 J0.68452
G1 X-10.51281 Y5.45817
G1 X-11.39178 Y3.33615
G1 X-13.29285 Y3.74384
G3 X-13.53399 Y3.76558 I-0.20969 J-0.97777
G1 X-14.44156 Y3.73702
G3 X-14.84044 Y3.64019 I0.03145 J-0.99951
G1 X-18.75554 Y1.7738
G3 X-19.32522 Y0.87112 I0.43032 J-0.90268
G1 Y-1.10922
G3 X-18.75554 Y-2.01189 I1.0 J0.0
G1 X-14.84044 Y-3.87829
G3 X-14.44156 Y-3.97512 I0.43032 J0.90268
G1 X-13.53399 Y-4.00367
G3 X-13.29285 Y-3.98193 I0.03145 J0.99951
G1 X-11.39178 Y-3.57424
G1 X-10.51281 Y-5.69627
G1 X-12.14535 Y-6.75225
G3 X-12.33123 Y-6.90738 I0.54312 J-0.83966
G1 X-12.95279 Y-7.56933
G3 X-13.16637 Y-7.91984 I0.72899 J-0.68452
G1 X-14.61503 Y-12.00798
G3 X-14.37956 Y-13.04909 I0.94257 J-0.33401
G1 X-12.97925 Y-14.4494
G3 X-11.93814 Y-14.68487 I0.70711 J0.70711
G1 X-7.85 Y-13.23621
G3 X-7.49949 Y-13.02263 I-0.33401 J0.94257
G1 X-6.83754 Y-12.40107
G3 X-6.68241 Y-12.21519 I-0.68452 J0.72899
G1 X-5.62643 Y-10.58265
G1 X-3.5044 Y-11.46162
G1 X-3.91209 Y-13.36269
G3 X-3.93383 Y-13.60383 I0.97777 J-0.20969
G1 X-3.90527 Y-14.5114
G3 X-3.80845 Y-14.91028 I0.99951 J0.03145
G1 X-1.94205 Y-18.82538
G3 X-1.03938 Y-19.39506 I0.90268 J0.43032
G1 X0.94096
G3 X1.84364 Y-18.82538 I0.0 J1.0
G1 X3.71003 Y-14.91028
G3 X3.80686 Y-14.5114 I-0.90268 J0.43032
G1 X3.83542 Y-13.60383
G3 X3.81368 Y-13.36269 I-0.99951 J0.03145
G1 X3.40599 Y-11.46162
G1 X5.52801 Y-10.58265
G1 X6.58399 Y-12.21519
G3 X6.73913 Y-12.40107 I0.83966 J0.54312
G1 X7.40108 Y-13.02263
G3 X7.75159 Y-13.23621 I0.68452 J0.72899
G1 X11.83972 Y-14.68487
G3 X12.88084 Y-14.4494 I0.33401 J0.94257
G1 X14.28115 Y-13.04909
G3 X14.51661 Y-12.00798 I-0.70711 J0.70711
G1 X13.06795 Y-7.91984
G3 X12.85438 Y-7.56933 I-0.94257 J-0.33401
G1 X12.23282 Y-6.90738
G3 X12.04694 Y-6.75225 I-0.72899 J-0.68452
G1 X10.41439 Y-5.69627
G1 X11.29336 Y-3.57424
G1 X13.19444 Y-3.98193
G3 X13.43557 Y-4.00367 I0.20969 J0.97777
G1 X14.34315 Y-3.97512
G3 X14.74202 Y-3.87829 I-0.03145 J0.99951
G1 X18.65713 Y-2.01189
G3 X19.22681 Y-1.10922 I-0.43032 J0.90268
G1 Y0.87112
G3 X18.65713 Y1.7738 I-1.0 J0.0
G1 X14.74202 Y3.64019
G3 X14.34315 Y3.73702 I-0.43032 J-0.90268
G1 X13.43558 Y3.76558
G3 X13.19444 Y3.74384 I-0.03145 J-0.99951
G1 X11.29336 Y3.33615
G1 F100.0 Z-3.5
G1 F600.0 X10.41439 Y5.45817
G1 X12.04694 Y6.51415
G3 X12.23282 Y6.66929 I-0.54312 J0.83966
G1 X12.85438 Y7.33124
G3 X13.06795 Y7.68175 I-0.72899 J0.68452
G1 X14.51661 Y11.76988
G3 X14.28115 Y12.811 I-0.94257 J0.33401
G1 X12.88084 Y14.21131
G3 X11.83972 Y14.44677 I-0.70711 J-0.70711
G1 X7.75159 Y12.99811
G3 X7.40107 Y12.78454 I0.33401 J-0.94257
G1 X6.73913 Y12.16298
G3 X6.58399 Y11.9771 I0.68452 J-0.72899
G1 X5.52801 Y10.34455
G1 X3.40599 Y11.22352
G1 X3.81368 Y13.1246
G3 X3.83542 Y13.36573 I-0.97777 J0.20969
G1 X3.80686 Y14.27331
G3 X3.71003 Y14.67218 I-0.99951 J-0.03145
G1 X1.84364 Y18.58729
G3 X0.94096 Y19.15697 I-0.90268 J-0.43032
G1 X-1.03938
G3 X-1.94205 Y18.58729 I0.0 J-1.0
G1 X-3.80845 Y14.67218
G3 X-3.90527 Y14.27331 I0.90268 J-0.43032
G1 X-3.93383 Y13.36573
G3 X-3.91209 Y13.1246 I0.99951 J-0.03145
G1 X-3.5044 Y11.22352
G1 X-5.62643 Y10.34455
G1 X-6.68241 Y11.9771
G3 X-6.83754 Y12.16298 I-0.83966 J-0.54312
G1 X-7.49949 Y12.78454
G3 X-7.85 Y12.99811 I-0.68452 J-0.72899
G1 X-11.93814 Y14.44677
G3 X-12.97925 Y14.21131 I-0.33401 J-0.94257
G1 X-14.37956 Y12.811
G3 X-14.61503 Y11.76988 I0.70711 J-0.70711
G1 X-13.16637 Y7.68175
G3 X-12.95279 Y7.33123 I0.94257 J0.33401
G1 X-12.33123 Y6.66929
G3 X-12.14535 Y6.51415 I0.72899 J0.68452
G1 X-10.51281 Y5.45817
G1 X-11.39178 Y3.33615
G1 X-13.29285 Y3.74384
G3 X-13.53399 Y3.76558 I-0.20969 J-0.97777
G1 X-14.44156 Y3.73702
G3 X-14.64838 Y3.70872 I0.03145 J-0.99951
G3 X-14.84044 Y3.64019 Z-3.43203 I0.23826 J-0.9712
G1 X-16.01134 Y3.082 Z-3.0
G1 X-17.81669 Y2.22136
G1 X-18.75554 Y1.7738 Z-3.34669
G3 X-19.12249 Y1.47474 Z-3.5 I0.43032 J-0.90268
G3 X-19.32522 Y0.87112 I0.79727 J-0.60362
G1 Y-1.10922
G3 X-18.75554 Y-2.01189 I1.0 J0.0
G1 X-14.84044 Y-3.87829
G3 X-14.44156 Y-3.97512 I0.43032 J0.90268
G1 X-13.53399 Y-4.00367
G3 X-13.29285 Y-3.98193 I0.03145 J0.99951
G1 X-11.39178 Y-3.57424
G1 X-10.51281 Y-5.69627
G1 X-12.14535 Y-6.75225
G3 X-12.33123 Y-6.90738 I0.54312 J-0.83966
G1 X-12.95279 Y-7.56933
G3 X-13.16637 Y-7.91984 I0.72899 J-0.68452
G1 X-14.61503 Y-12.00798
G3 X-14.37956 Y-13.04909 I0.94257 J-0.33401
G1 X-12.97925 Y-14.4494
G3 X-11.93814 Y-14.68487 I0.70711 J0.70711
G1 X-7.85 Y-13.23621
G3 X-7.49949 Y-13.02263 I-0.33401 J0.94257
G1 X-6.83754 Y-12.40107
G3 X-6.68241 Y-12.21519 I-0.68452 J0.72899
G1 X-5.62643 Y-10.58265
G1 X-3.5044 Y-11.46162
G1 X-3.91209 Y-13.36269
G3 X-3.93383 Y-13.60383 I0.97777 J-0.20969
G1 X-3.90527 Y-14.5114
G3 X-3.80845 Y-14.91028 I0.99951 J0.03145
G1 X-1.94205 Y-18.82538
G3 X-1.03938 Y-19.39506 I0.90268 J0.43032
G1 X0.94096
G3 X1.84364 Y-18.82538 I0.0 J1.0
G1 X3.71003 Y-14.91028
G3 X3.80686 Y-14.5114 I-0.90268 J0.43032
G1 X3.83542 Y-13.60383
G3 X3.81368 Y-13.36269 I-0.99951 J0.03145
G1 X3.40599 Y-11.46162
G1 X5.52801 Y-10.58265
G1 X6.58399 Y-12.21519
G3 X6.73913 Y-12.40107 I0.83966 J0.54312
G1 X7.40108 Y-13.02263
G3 X7.75159 Y-13.23621 I0.68452 J0.72899
G1 X11.83972 Y-14.68487
G3 X12.88084 Y-14.4494 I0.33401 J0.94257
G1 X14.28115 Y-13.04909
G3 X14.51661 Y-12.00798 I-0.70711 J0.70711
G1 X13.06795 Y-7.91984
G3 X12.85438 Y-7.56933 I-0.94257 J-0.33401
G1 X12.23282 Y-6.90738
G3 X12.04694 Y-6.75225 I-0.72899 J-0.68452
G1 X10.41439 Y-5.69627
G1 X11.29336 Y-3.57424
G1 X13.19444 Y-3.98193
G3 X13.43557 Y-4.00367 I0.20969 J0.97777
G1 X14.34315 Y-3.97512
G3 X14.74202 Y-3.87829 I-0.03145 J0.99951
G1 X18.65713 Y-2.01189
G3 X19.22681 Y-1.10922 I-0.43032 J0.90268
G1 Y0.87112
G3 X18.65713 Y1.7738 I-1.0 J0.0
G1 X14.74202 Y3.64019
G3 X14.34315 Y3.73702 I-0.43032 J-0.90268
G1 X13.43558 Y3.76558
G3 X13.19444 Y3.74384 I-0.03145 J-0.99951
G1 X11.29336 Y3.33615
G1 F100.0 Z-4.2
G1 F600.0 X10.41439 Y5.45817
G1 X12.04694 Y6.51415
G3 X12.23282 Y6.66929 I-0.54312 J0.83966
G1 X12.85438 Y7.33124
G3 X13.06795 Y7.68175 I-0.72899 J0.68452
G1 X14.51661 Y11.76988
G3 X14.28115 Y12.811 I-0.94257 J0.33401
G1 X12.88084 Y14.21131
G3 X11.83972 Y14.44677 I-0.70711 J-0.70711
G1 X7.75159 Y12.99811
G3 X7.40107 Y12.78454 I0.33401 J-0.94257
G1 X6.73913 Y12.16298
G3 X6.58399 Y11.9771 I0.68452 J-0.72899
G1 X5.52801 Y10.34455
G1 X3.40599 Y11.22352
G1 X3.81368 Y13.1246
G3 X3.83542 Y13.36573 I-0.97777 J0.20969
G1 X3.80686 Y14.27331
G3 X3.71003 Y14.67218 I-0.99951 J-0.03145
G1 X1.84364 Y18.58729
G3 X0.94096 Y19.15697 I-0.90268 J-0.43032
G1 X-1.03938
G3 X-1.94205 Y18.58729 I0.0 J-1.0
G1 X-3.80845 Y14.67218
G3 X-3.90527 Y14.27331 I0.90268 J-0.43032
G1 X-3.93383 Y13.36573
G3 X-3.91209 Y13.1246 I0.99951 J-0.03145
G1 X-3.5044 Y11.22352
G1 X-5.62643 Y10.34455
G1 X-6.68241 Y11.9771
G3 X-6.83754 Y12.16298 I-0.83966 J-0.54312
G1 X-7.49949 Y12.78454
G3 X-7.85 Y12.99811 I-0.68452 J-0.72899
G1 X-11.93814 Y14.44677
G3 X-12.97925 Y14.21131 I-0.33401 J-0.94257
G1 X-14.37956 Y12.811
G3 X-14.61503 Y11.76988 I0.70711 J-0.70711
G1 X-13.16637 Y7.68175
G3 X-12.95279 Y7.33123 I0.94257 J0.33401
G1 X-12.33123 Y6.66929
G3 X-12.14535 Y6.51415 I0.72899 J0.68452
G1 X-10.51281 Y5.45817
G1 X-11.39178 Y3.33615
G1 X-13.29285 Y3.74384
G3 X-13.53399 Y3.76558 I-0.20969 J-0.97777
G1 X-14.44156 Y3.73702
G3 X-14.64838 Y3.70872 I0.03145 J-0.99951
G3 X-14.84044 Y3.64019 Z-4.03687 I0.23826 J-0.9712
G1 X-16.01134 Y3.082 Z-3.0
G1 X-17.81669 Y2.22136
G1 X-18.75554 Y1.7738 Z-3.83206
G3 X-19.12249 Y1.47474 Z-4.2 I0.43032 J-0.90268
G3 X-19.32522 Y0.87112 I0.79727 J-0.60362
G1 Y-1.10922
G3 X-18.75554 Y-2.01189 I1.0 J0.0
G1 X-14.84044 Y-3.87829
G3 X-14.44156 Y-3.97512 I0.43032 J0.90268
G1 X-13.53399 Y-4.00367
G3 X-13.29285 Y-3.98193 I0.03145 J0.99951
G1 X-11.39178 Y-3.57424
G1 X-10.51281 Y-5.69627
G1 X-12.14535 Y-6.75225
G3 X-12.33123 Y-6.90738 I0.54312 J-0.83966
G1 X-12.95279 Y-7.56933
G3 X-13.16637 Y-7.91984 I0.72899 J-0.68452
G1 X-14.61503 Y-12.00798
G3 X-14.37956 Y-13.04909 I0.94257 J-0.33401
G1 X-12.97925 Y-14.4494
G3 X-11.93814 Y-14.68487 I0.70711 J0.70711
G1 X-7.85 Y-13.23621
G3 X-7.49949 Y-13.02263 I-0.33401 J0.94257
G1 X-6.83754 Y-12.40107
G3 X-6.68241 Y-12.21519 I-0.68452 J0.72899
G1 X-5.62643 Y-10.58265
G1 X-3.5044 Y-11.46162
G1 X-3.91209 Y-13.36269
G3 X-3.93383 Y-13.60383 I0.97777 J-0.20969
G1 X-3.90527 Y-14.5114
G3 X-3.80845 Y-14.91028 I0.99951 J0.03145
G1 X-1.94205 Y-18.82538
G3 X-1.03938 Y-19.39506 I0.90268 J0.43032
G1 X0.94096
G3 X1.84364 Y-18.82538 I0.0 J1.0
G1 X3.71003 Y-14.91028
G3 X3.80686 Y-14.5114 I-0.90268 J0.43032
G1 X3.83542 Y-13.60383
G3 X3.81368 Y-13.36269 I-0.99951 J0.03145
G1 X3.40599 Y-11.46162
G1 X5.52801 Y-10.58265
G1 X6.58399 Y-12.21519
G3 X6.73913 Y-12.40107 I0.83966 J0.54312
G1 X7.40108 Y-13.02263
G3 X7.75159 Y-13.23621 I0.68452 J0.72899
G1 X11.83972 Y-14.68487
G3 X12.88084 Y-14.4494 I0.33401 J0.94257
G1 X14.28115 Y-13.04909
G3 X14.51661 Y-12.00798 I-0.70711 J0.70711
G1 X13.06795 Y-7.91984
G3 X12.85438 Y-7.56933 I-0.94257 J-0.33401
G1 X12.23282 Y-6.90738
G3 X12.04694 Y-6.75225 I-0.72899 J-0.68452
G1 X10.41439 Y-5.69627
G1 X11.29336 Y-3.57424
G1 X13.19444 Y-3.98193
G3 X13.43557 Y-4.00367 I0.20969 J0.97777
G1 X14.34315 Y-3.97512
G3 X14.74202 Y-3.87829 I-0.03145 J0.99951
G1 X18.65713 Y-2.01189
G3 X19.22681 Y-1.10922 I-0.43032 J0.90268
G1 Y0.87112
G3 X18.65713 Y1.7738 I-1.0 J0.0
G1 X14.74202 Y3.64019
G3 X14.34315 Y3.73702 I-0.43032 J-0.90268
G1 X13.43558 Y3.76558
G3 X13.19444 Y3.74384 I-0.03145 J-0.99951
G1 X11.29336 Y3.33615
G1 F100.0 Z-4.9
G1 F600.0 X10.41439 Y5.45817
G1 X12.04694 Y6.51415
G3 X12.23282 Y6.66929 I-0.54312 J0.83966
G1 X12.85438 Y7.33124
G3 X13.06795 Y7.68175 I-0.72899 J0.68452
G1 X14.51661 Y11.76988
G3 X14.28115 Y12.811 I-0.94257 J0.33401
G1 X12.88084 Y14.21131
G3 X11.83972 Y14.44677 I-0.70711 J-0.70711
G1 X7.75159 Y12.99811
G3 X7.40107 Y12.78454 I0.33401 J-0.94257
G1 X6.73913 Y12.16298
G3 X6.58399 Y11.9771 I0.68452 J-0.72899
G1 X5.52801 Y10.34455
G1 X3.40599 Y11.22352
G1 X3.81368 Y13.1246
G3 X3.83542 Y13.36573 I-0.97777 J0.20969
G1 X3.80686 Y14.27331
G3 X3.71003 Y14.67218 I-0.99951 J-0.03145
G1 X1.84364 Y18.58729
G3 X0.94096 Y19.15697 I-0.90268 J-0.43032
G1 X-1.03938
G3 X-1.94205 Y18.58729 I0.0 J-1.0
G1 X-3.80845 Y14.67218
G3 X-3.90527 Y14.27331 I0.90268 J-0.43032
G1 X-3.93383 Y13.36573
G3 X-3.91209 Y13.1246 I0.99951 J-0.03145
G1 X-3.5044 Y11.22352
G1 X-5.62643 Y10.34455
G1 X-6.68241 Y11.9771
G3 X-6.83754 Y12.16298 I-0.83966 J-0.54312
G1 X-7.49949 Y12.78454
G3 X-7.85 Y12.99811 I-0.68452 J-0.72899
G1 X-11.93814 Y14.44677
G3 X-12.97925 Y14.21131 I-0.33401 J-0.94257
G1 X-14.37956 Y12.811
G3 X-14.61503 Y11.76988 I0.70711 J-0.70711
G1 X-13.16637 Y7.68175
G3 X-12.95279 Y7.33123 I0.94257 J0.33401
G1 X-12.33123 Y6.66929
G3 X-12.14535 Y6.51415 I0.72899 J0.68452
G1 X-10.51281 Y5.45817
G1 X-11.39178 Y3.33615
G1 X-13.29285 Y3.74384
G3 X-13.53399 Y3.76558 I-0.20969 J-0.97777
G1 X-14.44156 Y3.73702
G3 X-14.64838 Y3.70872 I0.03145 J-0.99951
G3 X-14.84044 Y3.64019 Z-4.64171 I0.23826 J-0.9712
G1 X-16.01134 Y3.082 Z-3.0
G1 X-17.81669 Y2.22136
G1 X-18.75554 Y1.7738 Z-4.31742
G3 X-19.12249 Y1.47474 Z-4.9 I0.43032 J-0.90268
G3 X-19.32522 Y0.87112 I0.79727 J-0.60362
G1 Y-1.10922
G3 X-18.75554 Y-2.01189 I1.0 J0.0
G1 X-14.84044 Y-3.87829
G3 X-14.44156 Y-3.97512 I0.43032 J0.90268
G1 X-13.53399 Y-4.00367
G3 X-13.29285 Y-3.98193 I0.03145 J0.99951
G1 X-11.39178 Y-3.57424
G1 X-10.51281 Y-5.69627
G1 X-12.14535 Y-6.75225
G3 X-12.33123 Y-6.90738 I0.54312 J-0.83966
G1 X-12.95279 Y-7.56933
G3 X-13.16637 Y-7.91984 I0.72899 J-0.68452
G1 X-14.61503 Y-12.00798
G3 X-14.37956 Y-13.04909 I0.94257 J-0.33401
G1 X-12.97925 Y-14.4494
G3 X-11.93814 Y-14.68487 I0.70711 J0.70711
G1 X-7.85 Y-13.23621
G3 X-7.49949 Y-13.02263 I-0.33401 J0.94257
G1 X-6.83754 Y-12.40107
G3 X-6.68241 Y-12.21519 I-0.68452 J0.72899
G1 X-5.62643 Y-10.58265
G1 X-3.5044 Y-11.46162
G1 X-3.91209 Y-13.36269
G3 X-3.93383 Y-13.60383 I0.97777 J-0.20969
G1 X-3.90527 Y-14.5114
G3 X-3.80845 Y-14.91028 I0.99951 J0.03145
G1 X-1.94205 Y-18.82538
G3 X-1.03938 Y-19.39506 I0.90268 J0.43032
G1 X0.94096
G3 X1.84364 Y-18.82538 I0.0 J1.0
G1 X3.71003 Y-14.91028
G3 X3.80686 Y-14.5114 I-0.90268 J0.43032
G1 X3.83542 Y-13.60383
G3 X3.81368 Y-13.36269 I-0.99951 J0.03145
G1 X3.40599 Y-11.46162
G1 X5.52801 Y-10.58265
G1 X6.58399 Y-12.21519
G3 X6.73913 Y-12.40107 I0.83966 J0.54312
G1 X7.40108 Y-13.02263
G3 X7.75159 Y-13.23621 I0.68452 J0.72899
G1 X11.83972 Y-14.68487
G3 X12.88084 Y-14.4494 I0.33401 J0.94257
G1 X14.28115 Y-13.04909
G3 X14.51661 Y-12.00798 I-0.70711 J0.70711
G1 X13.06795 Y-7.91984
G3 X12.85438 Y-7.56933 I-0.94257 J-0.33401
G1 X12.23282 Y-6.90738
G3 X12.04694 Y-6.75225 I-0.72899 J-0.68452
G1 X10.41439 Y-5.69627
G1 X11.29336 Y-3.57424
G1 X13.19444 Y-3.98193
G3 X13.43557 Y-4.00367 I0.20969 J0.97777
G1 X14.34315 Y-3.97512
G3 X14.74202 Y-3.87829 I-0.03145 J0.99951
G1 X18.65713 Y-2.01189
G3 X19.22681 Y-1.10922 I-0.43032 J0.90268
G1 Y0.87112
G3 X18.65713 Y1.7738 I-1.0 J0.0
G1 X14.74202 Y3.64019
G3 X14.34315 Y3.73702 I-0.43032 J-0.90268
G1 X13.43558 Y3.76558
G3 X13.19444 Y3.74384 I-0.03145 J-0.99951
G1 X11.29336 Y3.33615
G1 F100.0 Z-5.3
G1 F600.0 X10.41439 Y5.45817
G1 X12.04694 Y6.51415
G3 X12.23282 Y6.66929 I-0.54312 J0.83966
G1 X12.85438 Y7.33124
G3 X13.06795 Y7.68175 I-0.72899 J0.68452
G1 X14.51661 Y11.76988
G3 X14.28115 Y12.811 I-0.94257 J0.33401
G1 X12.88084 Y14.21131
G3 X11.83972 Y14.44677 I-0.70711 J-0.70711
G1 X7.75159 Y12.99811
G3 X7.40107 Y12.78454 I0.33401 J-0.94257
G1 X6.73913 Y12.16298
G3 X6.58399 Y11.9771 I0.68452 J-0.72899
G1 X5.52801 Y10.34455
G1 X3.40599 Y11.22352
G1 X3.81368 Y13.1246
G3 X3.83542 Y13.36573 I-0.97777 J0.20969
G1 X3.80686 Y14.27331
G3 X3.71003 Y14.67218 I-0.99951 J-0.03145
G1 X1.84364 Y18.58729
G3 X0.94096 Y19.15697 I-0.90268 J-0.43032
G1 X-1.03938
G3 X-1.94205 Y18.58729 I0.0 J-1.0
G1 X-3.80845 Y14.67218
G3 X-3.90527 Y14.27331 I0.90268 J-0.43032
G1 X-3.93383 Y13.36573
G3 X-3.91209 Y13.1246 I0.99951 J-0.03145
G1 X-3.5044 Y11.22352
G1 X-5.62643 Y10.34455
G1 X-6.68241 Y11.9771
G3 X-6.83754 Y12.16298 I-0.83966 J-0.54312
G1 X-7.49949 Y12.78454
G3 X-7.85 Y12.99811 I-0.68452 J-0.72899
G1 X-11.93814 Y14.44677
G3 X-12.97925 Y14.21131 I-0.33401 J-0.94257
G1 X-14.37956 Y12.811
G3 X-14.61503 Y11.76988 I0.70711 J-0.70711
G1 X-13.16637 Y7.68175
G3 X-12.95279 Y7.33123 I0.94257 J0.33401
G1 X-12.33123 Y6.66929
G3 X-12.14535 Y6.51415 I0.72899 J0.68452
G1 X-10.51281 Y5.45817
G1 X-11.39178 Y3.33615
G1 X-13.29285 Y3.74384
G3 X-13.53399 Y3.76558 I-0.20969 J-0.97777
G1 X-14.44156 Y3.73702
G3 X-14.64838 Y3.70872 I0.03145 J-0.99951
G3 X-14.84044 Y3.64019 Z-4.98733 I0.23826 J-0.9712
G1 X-16.01134 Y3.082 Z-3.0
G1 X-17.81669 Y2.22136
G1 X-18.75554 Y1.7738 Z-4.59477
G3 X-19.12249 Y1.47474 Z-5.3 I0.43032 J-0.90268
G3 X-19.32522 Y0.87112 I0.79727 J-0.60362
G1 Y-1.10922
G3 X-18.75554 Y-2.01189 I1.0 J0.0
G1 X-14.84044 Y-3.87829
G3 X-14.44156 Y-3.97512 I0.43032 J0.90268
G1 X-13.53399 Y-4.00367
G3 X-13.29285 Y-3.98193 I0.03145 J0.99951
G1 X-11.39178 Y-3.57424
G1 X-10.51281 Y-5.69627
G1 X-12.14535 Y-6.75225
G3 X-12.33123 Y-6.90738 I0.54312 J-0.83966
G1 X-12.95279 Y-7.56933
G3 X-13.16637 Y-7.91984 I0.72899 J-0.68452
G1 X-14.61503 Y-12.00798
G3 X-14.37956 Y-13.04909 I0.94257 J-0.33401
G1 X-12.97925 Y-14.4494
G3 X-11.93814 Y-14.68487 I0.70711 J0.70711
G1 X-7.85 Y-13.23621
G3 X-7.49949 Y-13.02263 I-0.33401 J0.94257
G1 X-6.83754 Y-12.40107
G3 X-6.68241 Y-12.21519 I-0.68452 J0.72899
G1 X-5.62643 Y-10.58265
G1 X-3.5044 Y-11.46162
G1 X-3.91209 Y-13.36269
G3 X-3.93383 Y-13.60383 I0.97777 J-0.20969
G1 X-3.90527 Y-14.5114
G3 X-3.80845 Y-14.91028 I0.99951 J0.03145
G1 X-1.94205 Y-18.82538
G3 X-1.03938 Y-19.39506 I0.90268 J0.43032
G1 X0.94096
G3 X1.84364 Y-18.82538 I0.0 J1.0
G1 X3.71003 Y-14.91028
G3 X3.80686 Y-14.5114 I-0.90268 J0.43032
G1 X3.83542 Y-13.60383
G3 X3.81368 Y-13.36269 I-0.99951 J0.03145
G1 X3.40599 Y-11.46162
G1 X5.52801 Y-10.58265
G1 X6.58399 Y-12.21519
G3 X6.73913 Y-12.40107 I0.83966 J0.54312
G1 X7.40108 Y-13.02263
G3 X7.75159 Y-13.23621 I0.68452 J0.72899
G1 X11.83972 Y-14.68487
G3 X12.88084 Y-14.4494 I0.33401 J0.94257
G1 X14.28115 Y-13.04909
G3 X14.51661 Y-12.00798 I-0.70711 J0.70711
G1 X13.06795 Y-7.91984
G3 X12.85438 Y-7.56933 I-0.94257 J-0.33401
G1 X12.23282 Y-6.90738
G3 X12.04694 Y-6.75225 I-0.72899 J-0.68452
G1 X10.41439 Y-5.69627
G1 X11.29336 Y-3.57424
G1 X13.19444 Y-3.98193
G3 X13.43557 Y-4.00367 I0.20969 J0.97777
G1 X14.34315 Y-3.97512
G3 X14.74202 Y-3.87829 I-0.03145 J0.99951
G1 X18.65713 Y-2.01189
G3 X19.22681 Y-1.10922 I-0.43032 J0.90268
G1 Y0.87112
G3 X18.65713 Y1.7738 I-1.0 J0.0
G1 X14.74202 Y3.64019
G3 X14.34315 Y3.73702 I-0.43032 J-0.90268
G1 X13.43558 Y3.76558
G3 X13.19444 Y3.74384 I-0.03145 J-0.99951
G1 X11.29336 Y3.33615
G1 F100.0 Z-6.0
G1 F600.0 X10.41439 Y5.45817
G1 X12.04694 Y6.51415
G3 X12.23282 Y6.66929 I-0.54312 J0.83966
G1 X12.85438 Y7.33124
G3 X13.06795 Y7.68175 I-0.72899 J0.68452
G1 X14.51661 Y11.76988
G3 X14.28115 Y12.811 I-0.94257 J0.33401
G1 X12.88084 Y14.21131
G3 X11.83972 Y14.44677 I-0.70711 J-0.70711
G1 X7.75159 Y12.99811
G3 X7.40107 Y12.78454 I0.33401 J-0.94257
G1 X6.73913 Y12.16298
G3 X6.58399 Y11.9771 I0.68452 J-0.72899
G1 X5.52801 Y10.34455
G1 X3.40599 Y11.22352
G1 X3.81368 Y13.1246
G3 X3.83542 Y13.36573 I-0.97777 J0.20969
G1 X3.80686 Y14.27331
G3 X3.71003 Y14.67218 I-0.99951 J-0.03145
G1 X1.84364 Y18.58729
G3 X0.94096 Y19.15697 I-0.90268 J-0.43032
G1 X-1.03938
G3 X-1.94205 Y18.58729 I0.0 J-1.0
G1 X-3.80845 Y14.67218
G3 X-3.90527 Y14.27331 I0.90268 J-0.43032
G1 X-3.93383 Y13.36573
G3 X-3.91209 Y13.1246 I0.99951 J-0.03145
G1 X-3.5044 Y11.22352
G1 X-5.62643 Y10.34455
G1 X-6.68241 Y11.9771
G3 X-6.83754 Y12.16298 I-0.83966 J-0.54312
G1 X-7.49949 Y12.78454
G3 X-7.85 Y12.99811 I-0.68452 J-0.72899
G1 X-11.93814 Y14.44677
G3 X-12.97925 Y14.21131 I-0.33401 J-0.94257
G1 X-14.37956 Y12.811
G3 X-14.61503 Y11.76988 I0.70711 J-0.70711
G1 X-13.16637 Y7.68175
G3 X-12.95279 Y7.33123 I0.94257 J0.33401
G1 X-12.33123 Y6.66929
G3 X-12.14535 Y6.51415 I0.72899 J0.68452
G1 X-10.51281 Y5.45817
G1 X-11.39178 Y3.33615
G1 X-13.29285 Y3.74384
G3 X-13.53399 Y3.76558 I-0.20969 J-0.97777
G1 X-14.44156 Y3.73702
G3 X-14.64838 Y3.70872 I0.03145 J-0.99951
G3 X-14.84044 Y3.64019 Z-5.59217 I0.23826 J-0.9712
G1 X-16.01134 Y3.082 Z-3.0
G1 X-17.81669 Y2.22136
G1 X-18.75554 Y1.7738 Z-5.08014
G3 X-19.12249 Y1.47474 Z-6.0 I0.43032 J-0.90268
G3 X-19.32522 Y0.87112 I0.79727 J-0.60362
G1 Y-1.10922
G3 X-18.75554 Y-2.01189 I1.0 J0.0
G1 X-14.84044 Y-3.87829
G3 X-14.44156 Y-3.97512 I0.43032 J0.90268
G1 X-13.53399 Y-4.00367
G3 X-13.29285 Y-3.98193 I0.03145 J0.99951
G1 X-11.39178 Y-3.57424
G1 X-10.51281 Y-5.69627
G1 X-12.14535 Y-6.75225
G3 X-12.33123 Y-6.90738 I0.54312 J-0.83966
G1 X-12.95279 Y-7.56933
G3 X-13.16637 Y-7.91984 I0.72899 J-0.68452
G1 X-14.61503 Y-12.00798
G3 X-14.37956 Y-13.04909 I0.94257 J-0.33401
G1 X-12.97925 Y-14.4494
G3 X-11.93814 Y-14.68487 I0.70711 J0.70711
G1 X-7.85 Y-13.23621
G3 X-7.49949 Y-13.02263 I-0.33401 J0.94257
G1 X-6.83754 Y-12.40107
G3 X-6.68241 Y-12.21519 I-0.68452 J0.72899
G1 X-5.62643 Y-10.58265
G1 X-3.5044 Y-11.46162
G1 X-3.91209 Y-13.36269
G3 X-3.93383 Y-13.60383 I0.97777 J-0.20969
G1 X-3.90527 Y-14.5114
G3 X-3.80845 Y-14.91028 I0.99951 J0.03145
G1 X-1.94205 Y-18.82538
G3 X-1.03938 Y-19.39506 I0.90268 J0.43032
G1 X0.94096
G3 X1.84364 Y-18.82538 I0.0 J1.0
G1 X3.71003 Y-14.91028
G3 X3.80686 Y-14.5114 I-0.90268 J0.43032
G1 X3.83542 Y-13.60383
G3 X3.81368 Y-13.36269 I-0.99951 J0.03145
G1 X3.40599 Y-11.46162
G1 X5.52801 Y-10.58265
G1 X6.58399 Y-12.21519
G3 X6.73913 Y-12.40107 I0.83966 J0.54312
G1 X7.40108 Y-13.02263
G3 X7.75159 Y-13.23621 I0.68452 J0.72899
G1 X11.83972 Y-14.68487
G3 X12.88084 Y-14.4494 I0.33401 J0.94257
G1 X14.28115 Y-13.04909
G3 X14.51661 Y-12.00798 I-0.70711 J0.70711
G1 X13.06795 Y-7.91984
G3 X12.85438 Y-7.56933 I-0.94257 J-0.33401
G1 X12.23282 Y-6.90738
G3 X12.04694 Y-6.75225 I-0.72899 J-0.68452
G1 X10.41439 Y-5.69627
G1 X11.29336 Y-3.57424
G1 X13.19444 Y-3.98193
G3 X13.43557 Y-4.00367 I0.20969 J0.97777
G1 X14.34315 Y-3.97512
G3 X14.74202 Y-3.87829 I-0.03145 J0.99951
G1 X18.65713 Y-2.01189
G3 X19.22681 Y-1.10922 I-0.43032 J0.90268
G1 Y0.87112
G3 X18.65713 Y1.7738 I-1.0 J0.0
G1 X14.74202 Y3.64019
G3 X14.34315 Y3.73702 I-0.43032 J-0.90268
G1 X13.43558 Y3.76558
G3 X13.19444 Y3.74384 I-0.03145 J-0.99951
G1 X11.29336 Y3.33615
G0 Z3.0
M5
M30
