( Made using CamBam - http://www.cambam.co.uk )
( thirtytwotooth 1/3/2018 12:17:16 PM )
( T2 : 2.0 )
G21 G90 G64 G40
G0 Z3.0
( T2 : 2.0 )
T2 M6
( Profile2 )
G17
M3 S15000
G0 X2.2 Y-0.1
G0 Z0.1
G1 F100.0 Z-0.7
G2 F600.0 X-0.8 Y-1.83205 I-2.0 J0.0
G2 Y1.63205 I1.0 J1.73205
G2 X2.2 Y-0.1 I1.0 J-1.73205
G1 F100.0 Z-1.4
G2 F600.0 X-0.8 Y-1.83205 I-2.0 J0.0
G2 Y1.63205 I1.0 J1.73205
G2 X2.2 Y-0.1 I1.0 J-1.73205
G1 F100.0 Z-2.1
G2 F600.0 X-0.8 Y-1.83205 I-2.0 J0.0
G2 Y1.63205 I1.0 J1.73205
G2 X2.2 Y-0.1 I1.0 J-1.73205
G1 F100.0 Z-2.8
G2 F600.0 X-0.8 Y-1.83205 I-2.0 J0.0
G2 Y1.63205 I1.0 J1.73205
G2 X2.2 Y-0.1 I1.0 J-1.73205
G1 F100.0 Z-3.5
G2 F600.0 X-0.8 Y-1.83205 I-2.0 J0.0
G2 Y1.63205 I1.0 J1.73205
G2 X2.2 Y-0.1 I1.0 J-1.73205
G1 F100.0 Z-4.2
G2 F600.0 X-0.8 Y-1.83205 I-2.0 J0.0
G2 Y1.63205 I1.0 J1.73205
G2 X2.2 Y-0.1 I1.0 J-1.73205
G1 F100.0 Z-4.9
G2 F600.0 X-0.8 Y-1.83205 I-2.0 J0.0
G2 Y1.63205 I1.0 J1.73205
G2 X2.2 Y-0.1 I1.0 J-1.73205
G1 F100.0 Z-5.3
G2 F600.0 X-0.8 Y-1.83205 I-2.0 J0.0
G2 Y1.63205 I1.0 J1.73205
G2 X2.2 Y-0.1 I1.0 J-1.73205
G1 F100.0 Z-6.0
G2 F600.0 X-0.8 Y-1.83205 I-2.0 J0.0
G2 Y1.63205 I1.0 J1.73205
G2 X2.2 Y-0.1 I1.0 J-1.73205
( Profile1 )
S15000
G0 Z3.0
G0 X55.87121 Y4.38983
G0 Z0.1
G1 F100.0 Z-0.7
G1 F600.0 X55.65771 Y6.5575
G1 X58.45857 Y7.6602
G3 X58.64294 Y7.75598 I-0.36633 J0.93048
G1 X61.99243 Y9.96582
G3 X62.42252 Y10.99561 I-0.5507 J0.8347
G1 X61.8919 Y13.6632
G3 X61.10047 Y14.45002 I-0.98079 J-0.19509
G1 X57.16027 Y15.20985
G3 X56.95329 Y15.22778 I-0.18935 J-0.98191
G1 X53.94364 Y15.1747
G1 X53.31136 Y17.25906
G1 X55.84328 Y18.88699
G3 X56.00542 Y19.0169 I-0.54082 J0.84114
G1 X58.85943 Y21.83773
G3 X59.08035 Y22.93165 I-0.70296 J0.71123
G1 X58.03951 Y25.44446
G3 X57.10978 Y26.06176 I-0.92388 J-0.38268
G1 X53.09706 Y26.03829
G3 X52.89055 Y26.0155 I0.00585 J-0.99998
G1 X49.94909 Y25.37629
G1 X48.92232 Y27.29725
G1 X51.08799 Y29.38785
G3 X51.22167 Y29.54689 I-0.69453 J0.71947
G1 X53.47053 Y32.87031
G3 X53.47379 Y33.98631 I-0.82821 J0.56042
G1 X51.96273 Y36.24778
G3 X50.93044 Y36.67183 I-0.83147 J-0.55557
G1 X46.9994 Y35.86598
G3 X46.8013 Y35.80334 I0.20082 J-0.97963
G1 X44.04107 Y34.60256
G1 X42.65926 Y36.28629
G1 X44.37547 Y38.75923
G3 X44.47555 Y38.94129 I-0.82154 J0.57015
G1 X46.03283 Y42.63958
G3 X45.81831 Y43.73477 I-0.92163 J0.38808
G1 X43.89509 Y45.65799
G3 X42.7999 Y45.87251 I-0.70711 J-0.70711
G1 X39.10161 Y44.31523
G3 X38.91954 Y44.21515 I0.38808 J-0.92163
G1 X36.44661 Y42.49895
G1 X34.76287 Y43.88075
G1 X35.96365 Y46.64099
G3 X36.02629 Y46.83908 I-0.91699 J0.39892
G1 X36.83215 Y50.77012
G3 X36.40809 Y51.80241 I-0.97963 J0.20082
G1 X34.14662 Y53.31348
G3 X33.03063 Y53.31021 I-0.55557 J-0.83147
G1 X29.70721 Y51.06135
G3 X29.54817 Y50.92768 I0.56042 J-0.82821
G1 X27.45756 Y48.762
G1 X25.5366 Y49.78878
G1 X26.17582 Y52.73024
G3 X26.19861 Y52.93674 I-0.97719 J0.21236
G1 X26.22207 Y56.94946
G3 X25.60477 Y57.87919 I-0.99998 J0.00585
G1 X23.09196 Y58.92003
G3 X21.99805 Y58.69911 I-0.38268 J-0.92388
G1 X19.17722 Y55.8451
G3 X19.04731 Y55.68296 I0.71123 J-0.70296
G1 X17.41938 Y53.15104
G1 X15.33502 Y53.78333
G1 X15.3881 Y56.79297
G3 X15.37016 Y56.99996 I-0.99984 J0.01763
G1 X14.61033 Y60.94015
G3 X13.82352 Y61.73158 I-0.98191 J-0.18935
G1 X11.15593 Y62.2622
G3 X10.12613 Y61.83212 I-0.19509 J-0.98079
G1 X7.9163 Y58.48262
G3 X7.82052 Y58.29825 I0.8347 J-0.5507
G1 X6.71782 Y55.49739
G1 X4.55015 Y55.71089
G1 X4.01506 Y58.67306
G3 X3.95709 Y58.87257 I-0.98407 J-0.17776
G1 X2.44317 Y62.58882
G3 X1.51707 Y63.21155 I-0.9261 J-0.37727
G1 X-1.20278
G3 X-2.12888 Y62.58882 I0.0 J-1.0
G1 X-3.64281 Y58.87257
G3 X-3.70078 Y58.67306 I0.9261 J-0.37727
G1 X-4.23587 Y55.71089
G1 X-6.40353 Y55.49739
G1 X-7.50623 Y58.29825
G3 X-7.60201 Y58.48262 I-0.93048 J-0.36633
G1 X-9.81185 Y61.83212
G3 X-10.84165 Y62.2622 I-0.8347 J-0.5507
G1 X-13.50923 Y61.73158
G3 X-14.29605 Y60.94015 I0.19509 J-0.98079
G1 X-15.05588 Y56.99996
G3 X-15.07382 Y56.79297 I0.98191 J-0.18935
G1 X-15.02073 Y53.78333
G1 X-17.1051 Y53.15104
G1 X-18.73303 Y55.68296
G3 X-18.86294 Y55.8451 I-0.84114 J-0.54082
G1 X-21.68377 Y58.69911
G3 X-22.77768 Y58.92003 I-0.71123 J-0.70296
G1 X-25.29049 Y57.87919
G3 X-25.90779 Y56.94946 I0.38268 J-0.92388
G1 X-25.88432 Y52.93674
G3 X-25.86153 Y52.73024 I0.99998 J0.00585
G1 X-25.22232 Y49.78878
G1 X-27.14328 Y48.762
G1 X-29.23388 Y50.92768
G3 X-29.39293 Y51.06135 I-0.71947 J-0.69453
G1 X-32.71635 Y53.31021
G3 X-33.83234 Y53.31348 I-0.56042 J-0.82821
G1 X-36.09381 Y51.80241
G3 X-36.51787 Y50.77012 I0.55557 J-0.83147
G1 X-35.71201 Y46.83908
G3 X-35.64937 Y46.64099 I0.97963 J0.20082
G1 X-34.44859 Y43.88075
G1 X-36.13233 Y42.49895
G1 X-38.60526 Y44.21515
G3 X-38.78733 Y44.31523 I-0.57015 J-0.82154
G1 X-42.48562 Y45.87251
G3 X-43.58081 Y45.65799 I-0.38808 J-0.92163
G1 X-45.50403 Y43.73477
G3 X-45.71855 Y42.63958 I0.70711 J-0.70711
G1 X-44.16126 Y38.94129
G3 X-44.06118 Y38.75923 I0.92163 J0.38808
G1 X-42.34498 Y36.28629
G1 X-43.72679 Y34.60256
G1 X-46.48702 Y35.80334
G3 X-46.68511 Y35.86598 I-0.39892 J-0.91699
G1 X-50.61615 Y36.67183
G3 X-51.64845 Y36.24778 I-0.20082 J-0.97963
G1 X-53.15951 Y33.98631
G3 X-53.15625 Y32.87031 I0.83147 J-0.55557
G1 X-50.90739 Y29.54689
G3 X-50.77371 Y29.38785 I0.82821 J0.56042
G1 X-48.60804 Y27.29725
G1 X-49.63481 Y25.37629
G1 X-52.57627 Y26.0155
G3 X-52.78278 Y26.03829 I-0.21236 J-0.97719
G1 X-56.7955 Y26.06176
G3 X-57.72523 Y25.44446 I-0.00585 J-0.99998
G1 X-58.76607 Y22.93165
G3 X-58.54515 Y21.83773 I0.92388 J-0.38268
G1 X-55.69113 Y19.0169
G3 X-55.52899 Y18.88699 I0.70296 J0.71123
G1 X-52.99708 Y17.25906
G1 X-53.62936 Y15.1747
G1 X-56.639 Y15.22778
G3 X-56.84599 Y15.20985 I-0.01763 J-0.99984
G1 X-60.78619 Y14.45002
G3 X-61.57762 Y13.6632 I0.18935 J-0.98191
G1 X-62.10824 Y10.99561
G3 X-61.67815 Y9.96582 I0.98079 J-0.19509
G1 X-58.32865 Y7.75598
G3 X-58.14429 Y7.6602 I0.5507 J0.8347
G1 X-55.34343 Y6.5575
G1 X-55.55693 Y4.38983
G1 X-58.51909 Y3.85474
G3 X-58.7186 Y3.79677 I0.17776 J-0.98407
G1 X-62.43485 Y2.28285
G3 X-63.05758 Y1.35675 I0.37727 J-0.9261
G1 Y-1.3631
G3 X-62.43485 Y-2.2892 I1.0 J0.0
G1 X-58.7186 Y-3.80312
G3 X-58.51909 Y-3.8611 I0.37727 J0.9261
G1 X-55.55693 Y-4.39619
G1 X-55.34343 Y-6.56385
G1 X-58.14429 Y-7.66655
G3 X-58.32865 Y-7.76233 I0.36633 J-0.93048
G1 X-61.67815 Y-9.97217
G3 X-62.10824 Y-11.00196 I0.5507 J-0.8347
G1 X-61.57762 Y-13.66955
G3 X-60.78619 Y-14.45637 I0.98079 J0.19509
G1 X-56.84599 Y-15.2162
G3 X-56.639 Y-15.23413 I0.18935 J0.98191
G1 X-53.62936 Y-15.18105
G1 X-52.99708 Y-17.26541
G1 X-55.52899 Y-18.89335
G3 X-55.69113 Y-19.02325 I0.54082 J-0.84114
G1 X-58.54515 Y-21.84408
G3 X-58.76607 Y-22.938 I0.70296 J-0.71123
G1 X-57.72523 Y-25.45081
G3 X-56.7955 Y-26.06811 I0.92388 J0.38268
G1 X-52.78278 Y-26.04464
G3 X-52.57627 Y-26.02185 I-0.00585 J0.99998
G1 X-49.63481 Y-25.38264
G1 X-48.60804 Y-27.3036
G1 X-50.77371 Y-29.3942
G3 X-50.90739 Y-29.55325 I0.69453 J-0.71947
G1 X-53.15625 Y-32.87667
G3 X-53.15951 Y-33.99266 I0.82821 J-0.56042
G1 X-51.64845 Y-36.25413
G3 X-50.61615 Y-36.67819 I0.83147 J0.55557
G1 X-46.68511 Y-35.87233
G3 X-46.48702 Y-35.80969 I-0.20082 J0.97963
G1 X-43.72679 Y-34.60891
G1 X-42.34498 Y-36.29264
G1 X-44.06118 Y-38.76558
G3 X-44.16126 Y-38.94765 I0.82154 J-0.57015
G1 X-45.71855 Y-42.64594
G3 X-45.50403 Y-43.74112 I0.92163 J-0.38808
G1 X-43.58081 Y-45.66435
G3 X-42.48562 Y-45.87886 I0.70711 J0.70711
G1 X-38.78733 Y-44.32158
G3 X-38.60526 Y-44.2215 I-0.38808 J0.92163
G1 X-36.13233 Y-42.5053
G1 X-34.44859 Y-43.8871
G1 X-35.64937 Y-46.64734
G3 X-35.71201 Y-46.84543 I0.91699 J-0.39892
G1 X-36.51787 Y-50.77647
G3 X-36.09381 Y-51.80876 I0.97963 J-0.20082
G1 X-33.83234 Y-53.31983
G3 X-32.71635 Y-53.31656 I0.55557 J0.83147
G1 X-29.39293 Y-51.06771
G3 X-29.23388 Y-50.93403 I-0.56042 J0.82821
G1 X-27.14328 Y-48.76835
G1 X-25.22232 Y-49.79513
G1 X-25.86153 Y-52.73659
G3 X-25.88432 Y-52.94309 I0.97719 J-0.21236
G1 X-25.90779 Y-56.95582
G3 X-25.29049 Y-57.88554 I0.99998 J-0.00585
G1 X-22.77768 Y-58.92638
G3 X-21.68377 Y-58.70546 I0.38268 J0.92388
G1 X-18.86294 Y-55.85145
G3 X-18.73303 Y-55.68931 I-0.71123 J0.70296
G1 X-17.1051 Y-53.15739
G1 X-15.02073 Y-53.78968
G1 X-15.07382 Y-56.79932
G3 X-15.05588 Y-57.00631 I0.99984 J-0.01763
G1 X-14.29605 Y-60.9465
G3 X-13.50923 Y-61.73794 I0.98191 J0.18935
G1 X-10.84164 Y-62.26855
G3 X-9.81185 Y-61.83847 I0.19509 J0.98079
G1 X-7.60201 Y-58.48897
G3 X-7.50623 Y-58.3046 I-0.8347 J0.5507
G1 X-6.40353 Y-55.50375
G1 X-4.23587 Y-55.71724
G1 X-3.70078 Y-58.67941
G3 X-3.64281 Y-58.87892 I0.98407 J0.17776
G1 X-2.12888 Y-62.59517
G3 X-1.20278 Y-63.2179 I0.9261 J0.37727
G1 X1.51707
G3 X2.44317 Y-62.59517 I0.0 J1.0
G1 X3.95709 Y-58.87892
G3 X4.01506 Y-58.67941 I-0.9261 J0.37727
G1 X4.55015 Y-55.71724
G1 X6.71782 Y-55.50375
G1 X7.82052 Y-58.3046
G3 X7.9163 Y-58.48897 I0.93048 J0.36633
G1 X10.12613 Y-61.83847
G3 X11.15593 Y-62.26855 I0.8347 J0.5507
G1 X13.82351 Y-61.73794
G3 X14.61033 Y-60.9465 I-0.19509 J0.98079
G1 X15.37016 Y-57.00631
G3 X15.3881 Y-56.79932 I-0.98191 J0.18935
G1 X15.33502 Y-53.78968
G1 X17.41938 Y-53.15739
G1 X19.04731 Y-55.68931
G3 X19.17722 Y-55.85145 I0.84114 J0.54082
G1 X21.99805 Y-58.70546
G3 X23.09196 Y-58.92638 I0.71123 J0.70296
G1 X25.60477 Y-57.88554
G3 X26.22207 Y-56.95581 I-0.38268 J0.92388
G1 X26.19861 Y-52.94309
G3 X26.17582 Y-52.73659 I-0.99998 J-0.00585
G1 X25.5366 Y-49.79513
G1 X27.45756 Y-48.76835
G1 X29.54817 Y-50.93403
G3 X29.70721 Y-51.06771 I0.71947 J0.69453
G1 X33.03063 Y-53.31656
G3 X34.14662 Y-53.31983 I0.56042 J0.82821
G1 X36.40809 Y-51.80876
G3 X36.83215 Y-50.77647 I-0.55557 J0.83147
G1 X36.02629 Y-46.84543
G3 X35.96365 Y-46.64734 I-0.97963 J-0.20082
G1 X34.76287 Y-43.8871
G1 X36.44661 Y-42.5053
G1 X38.91954 Y-44.2215
G3 X39.10161 Y-44.32158 I0.57015 J0.82154
G1 X42.7999 Y-45.87886
G3 X43.89509 Y-45.66435 I0.38808 J0.92163
G1 X45.81831 Y-43.74112
G3 X46.03283 Y-42.64594 I-0.70711 J0.70711
G1 X44.47555 Y-38.94765
G3 X44.37547 Y-38.76558 I-0.92163 J-0.38808
G1 X42.65926 Y-36.29264
G1 X44.04107 Y-34.60891
G1 X46.8013 Y-35.80969
G3 X46.9994 Y-35.87233 I0.39892 J0.91699
G1 X50.93044 Y-36.67819
G3 X51.96273 Y-36.25413 I0.20082 J0.97963
G1 X53.47379 Y-33.99266
G3 X53.47053 Y-32.87667 I-0.83147 J0.55557
G1 X51.22167 Y-29.55325
G3 X51.08799 Y-29.3942 I-0.82821 J-0.56042
G1 X48.92232 Y-27.3036
G1 X49.9491 Y-25.38264
G1 X52.89055 Y-26.02185
G3 X53.09706 Y-26.04464 I0.21236 J0.97719
G1 X57.10978 Y-26.06811
G3 X58.03951 Y-25.45081 I0.00585 J0.99998
G1 X59.08035 Y-22.938
G3 X58.85943 Y-21.84408 I-0.92388 J0.38268
G1 X56.00542 Y-19.02325
G3 X55.84328 Y-18.89335 I-0.70296 J-0.71123
G1 X53.31136 Y-17.26541
G1 X53.94364 Y-15.18105
G1 X56.95329 Y-15.23413
G3 X57.16027 Y-15.2162 I0.01763 J0.99984
G1 X61.10047 Y-14.45637
G3 X61.8919 Y-13.66955 I-0.18935 J0.98191
G1 X62.42252 Y-11.00196
G3 X61.99243 Y-9.97217 I-0.98079 J0.19509
G1 X58.64294 Y-7.76233
G3 X58.45857 Y-7.66655 I-0.5507 J-0.8347
G1 X55.65771 Y-6.56385
G1 X55.87121 Y-4.39619
G1 X58.83337 Y-3.8611
G3 X59.03288 Y-3.80312 I-0.17776 J0.98407
G1 X62.74914 Y-2.2892
G3 X63.37186 Y-1.3631 I-0.37727 J0.9261
G1 Y1.35675
G3 X62.74914 Y2.28285 I-1.0 J0.0
G1 X59.03288 Y3.79677
G3 X58.83337 Y3.85474 I-0.37727 J-0.9261
G1 X55.87121 Y4.38983
G1 F100.0 Z-1.4
G1 F600.0 X55.65771 Y6.5575
G1 X58.45857 Y7.6602
G3 X58.64294 Y7.75598 I-0.36633 J0.93048
G1 X61.99243 Y9.96582
G3 X62.42252 Y10.99561 I-0.5507 J0.8347
G1 X61.8919 Y13.6632
G3 X61.10047 Y14.45002 I-0.98079 J-0.19509
G1 X57.16027 Y15.20985
G3 X56.95329 Y15.22778 I-0.18935 J-0.98191
G1 X53.94364 Y15.1747
G1 X53.31136 Y17.25906
G1 X55.84328 Y18.88699
G3 X56.00542 Y19.0169 I-0.54082 J0.84114
G1 X58.85943 Y21.83773
G3 X59.08035 Y22.93165 I-0.70296 J0.71123
G1 X58.03951 Y25.44446
G3 X57.10978 Y26.06176 I-0.92388 J-0.38268
G1 X53.09706 Y26.03829
G3 X52.89055 Y26.0155 I0.00585 J-0.99998
G1 X49.94909 Y25.37629
G1 X48.92232 Y27.29725
G1 X51.08799 Y29.38785
G3 X51.22167 Y29.54689 I-0.69453 J0.71947
G1 X53.47053 Y32.87031
G3 X53.47379 Y33.98631 I-0.82821 J0.56042
G1 X51.96273 Y36.24778
G3 X50.93044 Y36.67183 I-0.83147 J-0.55557
G1 X46.9994 Y35.86598
G3 X46.8013 Y35.80334 I0.20082 J-0.97963
G1 X44.04107 Y34.60256
G1 X42.65926 Y36.28629
G1 X44.37547 Y38.75923
G3 X44.47555 Y38.94129 I-0.82154 J0.57015
G1 X46.03283 Y42.63958
G3 X45.81831 Y43.73477 I-0.92163 J0.38808
G1 X43.89509 Y45.65799
G3 X42.7999 Y45.87251 I-0.70711 J-0.70711
G1 X39.10161 Y44.31523
G3 X38.91954 Y44.21515 I0.38808 J-0.92163
G1 X36.44661 Y42.49895
G1 X34.76287 Y43.88075
G1 X35.96365 Y46.64099
G3 X36.02629 Y46.83908 I-0.91699 J0.39892
G1 X36.83215 Y50.77012
G3 X36.40809 Y51.80241 I-0.97963 J0.20082
G1 X34.14662 Y53.31348
G3 X33.03063 Y53.31021 I-0.55557 J-0.83147
G1 X29.70721 Y51.06135
G3 X29.54817 Y50.92768 I0.56042 J-0.82821
G1 X27.45756 Y48.762
G1 X25.5366 Y49.78878
G1 X26.17582 Y52.73024
G3 X26.19861 Y52.93674 I-0.97719 J0.21236
G1 X26.22207 Y56.94946
G3 X25.60477 Y57.87919 I-0.99998 J0.00585
G1 X23.09196 Y58.92003
G3 X21.99805 Y58.69911 I-0.38268 J-0.92388
G1 X19.17722 Y55.8451
G3 X19.04731 Y55.68296 I0.71123 J-0.70296
G1 X17.41938 Y53.15104
G1 X15.33502 Y53.78333
G1 X15.3881 Y56.79297
G3 X15.37016 Y56.99996 I-0.99984 J0.01763
G1 X14.61033 Y60.94015
G3 X13.82352 Y61.73158 I-0.98191 J-0.18935
G1 X11.15593 Y62.2622
G3 X10.12613 Y61.83212 I-0.19509 J-0.98079
G1 X7.9163 Y58.48262
G3 X7.82052 Y58.29825 I0.8347 J-0.5507
G1 X6.71782 Y55.49739
G1 X4.55015 Y55.71089
G1 X4.01506 Y58.67306
G3 X3.95709 Y58.87257 I-0.98407 J-0.17776
G1 X2.44317 Y62.58882
G3 X1.51707 Y63.21155 I-0.9261 J-0.37727
G1 X-1.20278
G3 X-2.12888 Y62.58882 I0.0 J-1.0
G1 X-3.64281 Y58.87257
G3 X-3.70078 Y58.67306 I0.9261 J-0.37727
G1 X-4.23587 Y55.71089
G1 X-6.40353 Y55.49739
G1 X-7.50623 Y58.29825
G3 X-7.60201 Y58.48262 I-0.93048 J-0.36633
G1 X-9.81185 Y61.83212
G3 X-10.84165 Y62.2622 I-0.8347 J-0.5507
G1 X-13.50923 Y61.73158
G3 X-14.29605 Y60.94015 I0.19509 J-0.98079
G1 X-15.05588 Y56.99996
G3 X-15.07382 Y56.79297 I0.98191 J-0.18935
G1 X-15.02073 Y53.78333
G1 X-17.1051 Y53.15104
G1 X-18.73303 Y55.68296
G3 X-18.86294 Y55.8451 I-0.84114 J-0.54082
G1 X-21.68377 Y58.69911
G3 X-22.77768 Y58.92003 I-0.71123 J-0.70296
G1 X-25.29049 Y57.87919
G3 X-25.90779 Y56.94946 I0.38268 J-0.92388
G1 X-25.88432 Y52.93674
G3 X-25.86153 Y52.73024 I0.99998 J0.00585
G1 X-25.22232 Y49.78878
G1 X-27.14328 Y48.762
G1 X-29.23388 Y50.92768
G3 X-29.39293 Y51.06135 I-0.71947 J-0.69453
G1 X-32.71635 Y53.31021
G3 X-33.83234 Y53.31348 I-0.56042 J-0.82821
G1 X-36.09381 Y51.80241
G3 X-36.51787 Y50.77012 I0.55557 J-0.83147
G1 X-35.71201 Y46.83908
G3 X-35.64937 Y46.64099 I0.97963 J0.20082
G1 X-34.44859 Y43.88075
G1 X-36.13233 Y42.49895
G1 X-38.60526 Y44.21515
G3 X-38.78733 Y44.31523 I-0.57015 J-0.82154
G1 X-42.48562 Y45.87251
G3 X-43.58081 Y45.65799 I-0.38808 J-0.92163
G1 X-45.50403 Y43.73477
G3 X-45.71855 Y42.63958 I0.70711 J-0.70711
G1 X-44.16126 Y38.94129
G3 X-44.06118 Y38.75923 I0.92163 J0.38808
G1 X-42.34498 Y36.28629
G1 X-43.72679 Y34.60256
G1 X-46.48702 Y35.80334
G3 X-46.68511 Y35.86598 I-0.39892 J-0.91699
G1 X-50.61615 Y36.67183
G3 X-51.64845 Y36.24778 I-0.20082 J-0.97963
G1 X-53.15951 Y33.98631
G3 X-53.15625 Y32.87031 I0.83147 J-0.55557
G1 X-50.90739 Y29.54689
G3 X-50.77371 Y29.38785 I0.82821 J0.56042
G1 X-48.60804 Y27.29725
G1 X-49.63481 Y25.37629
G1 X-52.57627 Y26.0155
G3 X-52.78278 Y26.03829 I-0.21236 J-0.97719
G1 X-56.7955 Y26.06176
G3 X-57.72523 Y25.44446 I-0.00585 J-0.99998
G1 X-58.76607 Y22.93165
G3 X-58.54515 Y21.83773 I0.92388 J-0.38268
G1 X-55.69113 Y19.0169
G3 X-55.52899 Y18.88699 I0.70296 J0.71123
G1 X-52.99708 Y17.25906
G1 X-53.62936 Y15.1747
G1 X-56.639 Y15.22778
G3 X-56.84599 Y15.20985 I-0.01763 J-0.99984
G1 X-60.78619 Y14.45002
G3 X-61.57762 Y13.6632 I0.18935 J-0.98191
G1 X-62.10824 Y10.99561
G3 X-61.67815 Y9.96582 I0.98079 J-0.19509
G1 X-58.32865 Y7.75598
G3 X-58.14429 Y7.6602 I0.5507 J0.8347
G1 X-55.34343 Y6.5575
G1 X-55.55693 Y4.38983
G1 X-58.51909 Y3.85474
G3 X-58.7186 Y3.79677 I0.17776 J-0.98407
G1 X-62.43485 Y2.28285
G3 X-63.05758 Y1.35675 I0.37727 J-0.9261
G1 Y-1.3631
G3 X-62.43485 Y-2.2892 I1.0 J0.0
G1 X-58.7186 Y-3.80312
G3 X-58.51909 Y-3.8611 I0.37727 J0.9261
G1 X-55.55693 Y-4.39619
G1 X-55.34343 Y-6.56385
G1 X-58.14429 Y-7.66655
G3 X-58.32865 Y-7.76233 I0.36633 J-0.93048
G1 X-61.67815 Y-9.97217
G3 X-62.10824 Y-11.00196 I0.5507 J-0.8347
G1 X-61.57762 Y-13.66955
G3 X-60.78619 Y-14.45637 I0.98079 J0.19509
G1 X-56.84599 Y-15.2162
G3 X-56.639 Y-15.23413 I0.18935 J0.98191
G1 X-53.62936 Y-15.18105
G1 X-52.99708 Y-17.26541
G1 X-55.52899 Y-18.89335
G3 X-55.69113 Y-19.02325 I0.54082 J-0.84114
G1 X-58.54515 Y-21.84408
G3 X-58.76607 Y-22.938 I0.70296 J-0.71123
G1 X-57.72523 Y-25.45081
G3 X-56.7955 Y-26.06811 I0.92388 J0.38268
G1 X-52.78278 Y-26.04464
G3 X-52.57627 Y-26.02185 I-0.00585 J0.99998
G1 X-49.63481 Y-25.38264
G1 X-48.60804 Y-27.3036
G1 X-50.77371 Y-29.3942
G3 X-50.90739 Y-29.55325 I0.69453 J-0.71947
G1 X-53.15625 Y-32.87667
G3 X-53.15951 Y-33.99266 I0.82821 J-0.56042
G1 X-51.64845 Y-36.25413
G3 X-50.61615 Y-36.67819 I0.83147 J0.55557
G1 X-46.68511 Y-35.87233
G3 X-46.48702 Y-35.80969 I-0.20082 J0.97963
G1 X-43.72679 Y-34.60891
G1 X-42.34498 Y-36.29264
G1 X-44.06118 Y-38.76558
G3 X-44.16126 Y-38.94765 I0.82154 J-0.57015
G1 X-45.71855 Y-42.64594
G3 X-45.50403 Y-43.74112 I0.92163 J-0.38808
G1 X-43.58081 Y-45.66435
G3 X-42.48562 Y-45.87886 I0.70711 J0.70711
G1 X-38.78733 Y-44.32158
G3 X-38.60526 Y-44.2215 I-0.38808 J0.92163
G1 X-36.13233 Y-42.5053
G1 X-34.44859 Y-43.8871
G1 X-35.64937 Y-46.64734
G3 X-35.71201 Y-46.84543 I0.91699 J-0.39892
G1 X-36.51787 Y-50.77647
G3 X-36.09381 Y-51.80876 I0.97963 J-0.20082
G1 X-33.83234 Y-53.31983
G3 X-32.71635 Y-53.31656 I0.55557 J0.83147
G1 X-29.39293 Y-51.06771
G3 X-29.23388 Y-50.93403 I-0.56042 J0.82821
G1 X-27.14328 Y-48.76835
G1 X-25.22232 Y-49.79513
G1 X-25.86153 Y-52.73659
G3 X-25.88432 Y-52.94309 I0.97719 J-0.21236
G1 X-25.90779 Y-56.95582
G3 X-25.29049 Y-57.88554 I0.99998 J-0.00585
G1 X-22.77768 Y-58.92638
G3 X-21.68377 Y-58.70546 I0.38268 J0.92388
G1 X-18.86294 Y-55.85145
G3 X-18.73303 Y-55.68931 I-0.71123 J0.70296
G1 X-17.1051 Y-53.15739
G1 X-15.02073 Y-53.78968
G1 X-15.07382 Y-56.79932
G3 X-15.05588 Y-57.00631 I0.99984 J-0.01763
G1 X-14.29605 Y-60.9465
G3 X-13.50923 Y-61.73794 I0.98191 J0.18935
G1 X-10.84164 Y-62.26855
G3 X-9.81185 Y-61.83847 I0.19509 J0.98079
G1 X-7.60201 Y-58.48897
G3 X-7.50623 Y-58.3046 I-0.8347 J0.5507
G1 X-6.40353 Y-55.50375
G1 X-4.23587 Y-55.71724
G1 X-3.70078 Y-58.67941
G3 X-3.64281 Y-58.87892 I0.98407 J0.17776
G1 X-2.12888 Y-62.59517
G3 X-1.20278 Y-63.2179 I0.9261 J0.37727
G1 X1.51707
G3 X2.44317 Y-62.59517 I0.0 J1.0
G1 X3.95709 Y-58.87892
G3 X4.01506 Y-58.67941 I-0.9261 J0.37727
G1 X4.55015 Y-55.71724
G1 X6.71782 Y-55.50375
G1 X7.82052 Y-58.3046
G3 X7.9163 Y-58.48897 I0.93048 J0.36633
G1 X10.12613 Y-61.83847
G3 X11.15593 Y-62.26855 I0.8347 J0.5507
G1 X13.82351 Y-61.73794
G3 X14.61033 Y-60.9465 I-0.19509 J0.98079
G1 X15.37016 Y-57.00631
G3 X15.3881 Y-56.79932 I-0.98191 J0.18935
G1 X15.33502 Y-53.78968
G1 X17.41938 Y-53.15739
G1 X19.04731 Y-55.68931
G3 X19.17722 Y-55.85145 I0.84114 J0.54082
G1 X21.99805 Y-58.70546
G3 X23.09196 Y-58.92638 I0.71123 J0.70296
G1 X25.60477 Y-57.88554
G3 X26.22207 Y-56.95581 I-0.38268 J0.92388
G1 X26.19861 Y-52.94309
G3 X26.17582 Y-52.73659 I-0.99998 J-0.00585
G1 X25.5366 Y-49.79513
G1 X27.45756 Y-48.76835
G1 X29.54817 Y-50.93403
G3 X29.70721 Y-51.06771 I0.71947 J0.69453
G1 X33.03063 Y-53.31656
G3 X34.14662 Y-53.31983 I0.56042 J0.82821
G1 X36.40809 Y-51.80876
G3 X36.83215 Y-50.77647 I-0.55557 J0.83147
G1 X36.02629 Y-46.84543
G3 X35.96365 Y-46.64734 I-0.97963 J-0.20082
G1 X34.76287 Y-43.8871
G1 X36.44661 Y-42.5053
G1 X38.91954 Y-44.2215
G3 X39.10161 Y-44.32158 I0.57015 J0.82154
G1 X42.7999 Y-45.87886
G3 X43.89509 Y-45.66435 I0.38808 J0.92163
G1 X45.81831 Y-43.74112
G3 X46.03283 Y-42.64594 I-0.70711 J0.70711
G1 X44.47555 Y-38.94765
G3 X44.37547 Y-38.76558 I-0.92163 J-0.38808
G1 X42.65926 Y-36.29264
G1 X44.04107 Y-34.60891
G1 X46.8013 Y-35.80969
G3 X46.9994 Y-35.87233 I0.39892 J0.91699
G1 X50.93044 Y-36.67819
G3 X51.96273 Y-36.25413 I0.20082 J0.97963
G1 X53.47379 Y-33.99266
G3 X53.47053 Y-32.87667 I-0.83147 J0.55557
G1 X51.22167 Y-29.55325
G3 X51.08799 Y-29.3942 I-0.82821 J-0.56042
G1 X48.92232 Y-27.3036
G1 X49.9491 Y-25.38264
G1 X52.89055 Y-26.02185
G3 X53.09706 Y-26.04464 I0.21236 J0.97719
G1 X57.10978 Y-26.06811
G3 X58.03951 Y-25.45081 I0.00585 J0.99998
G1 X59.08035 Y-22.938
G3 X58.85943 Y-21.84408 I-0.92388 J0.38268
G1 X56.00542 Y-19.02325
G3 X55.84328 Y-18.89335 I-0.70296 J-0.71123
G1 X53.31136 Y-17.26541
G1 X53.94364 Y-15.18105
G1 X56.95329 Y-15.23413
G3 X57.16027 Y-15.2162 I0.01763 J0.99984
G1 X61.10047 Y-14.45637
G3 X61.8919 Y-13.66955 I-0.18935 J0.98191
G1 X62.42252 Y-11.00196
G3 X61.99243 Y-9.97217 I-0.98079 J0.19509
G1 X58.64294 Y-7.76233
G3 X58.45857 Y-7.66655 I-0.5507 J-0.8347
G1 X55.65771 Y-6.56385
G1 X55.87121 Y-4.39619
G1 X58.83337 Y-3.8611
G3 X59.03288 Y-3.80312 I-0.17776 J0.98407
G1 X62.74914 Y-2.2892
G3 X63.37186 Y-1.3631 I-0.37727 J0.9261
G1 Y1.35675
G3 X62.74914 Y2.28285 I-1.0 J0.0
G1 X59.03288 Y3.79677
G3 X58.83337 Y3.85474 I-0.37727 J-0.9261
G1 X55.87121 Y4.38983
G1 F100.0 Z-2.1
G1 F600.0 X55.65771 Y6.5575
G1 X58.45857 Y7.6602
G3 X58.64294 Y7.75598 I-0.36633 J0.93048
G1 X61.99243 Y9.96582
G3 X62.42252 Y10.99561 I-0.5507 J0.8347
G1 X61.8919 Y13.6632
G3 X61.10047 Y14.45002 I-0.98079 J-0.19509
G1 X57.16027 Y15.20985
G3 X56.95329 Y15.22778 I-0.18935 J-0.98191
G1 X53.94364 Y15.1747
G1 X53.31136 Y17.25906
G1 X55.84328 Y18.88699
G3 X56.00542 Y19.0169 I-0.54082 J0.84114
G1 X58.85943 Y21.83773
G3 X59.08035 Y22.93165 I-0.70296 J0.71123
G1 X58.03951 Y25.44446
G3 X57.10978 Y26.06176 I-0.92388 J-0.38268
G1 X53.09706 Y26.03829
G3 X52.89055 Y26.0155 I0.00585 J-0.99998
G1 X49.94909 Y25.37629
G1 X48.92232 Y27.29725
G1 X51.08799 Y29.38785
G3 X51.22167 Y29.54689 I-0.69453 J0.71947
G1 X53.47053 Y32.87031
G3 X53.47379 Y33.98631 I-0.82821 J0.56042
G1 X51.96273 Y36.24778
G3 X50.93044 Y36.67183 I-0.83147 J-0.55557
G1 X46.9994 Y35.86598
G3 X46.8013 Y35.80334 I0.20082 J-0.97963
G1 X44.04107 Y34.60256
G1 X42.65926 Y36.28629
G1 X44.37547 Y38.75923
G3 X44.47555 Y38.94129 I-0.82154 J0.57015
G1 X46.03283 Y42.63958
G3 X45.81831 Y43.73477 I-0.92163 J0.38808
G1 X43.89509 Y45.65799
G3 X42.7999 Y45.87251 I-0.70711 J-0.70711
G1 X39.10161 Y44.31523
G3 X38.91954 Y44.21515 I0.38808 J-0.92163
G1 X36.44661 Y42.49895
G1 X34.76287 Y43.88075
G1 X35.96365 Y46.64099
G3 X36.02629 Y46.83908 I-0.91699 J0.39892
G1 X36.83215 Y50.77012
G3 X36.40809 Y51.80241 I-0.97963 J0.20082
G1 X34.14662 Y53.31348
G3 X33.03063 Y53.31021 I-0.55557 J-0.83147
G1 X29.70721 Y51.06135
G3 X29.54817 Y50.92768 I0.56042 J-0.82821
G1 X27.45756 Y48.762
G1 X25.5366 Y49.78878
G1 X26.17582 Y52.73024
G3 X26.19861 Y52.93674 I-0.97719 J0.21236
G1 X26.22207 Y56.94946
G3 X25.60477 Y57.87919 I-0.99998 J0.00585
G1 X23.09196 Y58.92003
G3 X21.99805 Y58.69911 I-0.38268 J-0.92388
G1 X19.17722 Y55.8451
G3 X19.04731 Y55.68296 I0.71123 J-0.70296
G1 X17.41938 Y53.15104
G1 X15.33502 Y53.78333
G1 X15.3881 Y56.79297
G3 X15.37016 Y56.99996 I-0.99984 J0.01763
G1 X14.61033 Y60.94015
G3 X13.82352 Y61.73158 I-0.98191 J-0.18935
G1 X11.15593 Y62.2622
G3 X10.12613 Y61.83212 I-0.19509 J-0.98079
G1 X7.9163 Y58.48262
G3 X7.82052 Y58.29825 I0.8347 J-0.5507
G1 X6.71782 Y55.49739
G1 X4.55015 Y55.71089
G1 X4.01506 Y58.67306
G3 X3.95709 Y58.87257 I-0.98407 J-0.17776
G1 X2.44317 Y62.58882
G3 X1.51707 Y63.21155 I-0.9261 J-0.37727
G1 X-1.20278
G3 X-2.12888 Y62.58882 I0.0 J-1.0
G1 X-3.64281 Y58.87257
G3 X-3.70078 Y58.67306 I0.9261 J-0.37727
G1 X-4.23587 Y55.71089
G1 X-6.40353 Y55.49739
G1 X-7.50623 Y58.29825
G3 X-7.60201 Y58.48262 I-0.93048 J-0.36633
G1 X-9.81185 Y61.83212
G3 X-10.84165 Y62.2622 I-0.8347 J-0.5507
G1 X-13.50923 Y61.73158
G3 X-14.29605 Y60.94015 I0.19509 J-0.98079
G1 X-15.05588 Y56.99996
G3 X-15.07382 Y56.79297 I0.98191 J-0.18935
G1 X-15.02073 Y53.78333
G1 X-17.1051 Y53.15104
G1 X-18.73303 Y55.68296
G3 X-18.86294 Y55.8451 I-0.84114 J-0.54082
G1 X-21.68377 Y58.69911
G3 X-22.77768 Y58.92003 I-0.71123 J-0.70296
G1 X-25.29049 Y57.87919
G3 X-25.90779 Y56.94946 I0.38268 J-0.92388
G1 X-25.88432 Y52.93674
G3 X-25.86153 Y52.73024 I0.99998 J0.00585
G1 X-25.22232 Y49.78878
G1 X-27.14328 Y48.762
G1 X-29.23388 Y50.92768
G3 X-29.39293 Y51.06135 I-0.71947 J-0.69453
G1 X-32.71635 Y53.31021
G3 X-33.83234 Y53.31348 I-0.56042 J-0.82821
G1 X-36.09381 Y51.80241
G3 X-36.51787 Y50.77012 I0.55557 J-0.83147
G1 X-35.71201 Y46.83908
G3 X-35.64937 Y46.64099 I0.97963 J0.20082
G1 X-34.44859 Y43.88075
G1 X-36.13233 Y42.49895
G1 X-38.60526 Y44.21515
G3 X-38.78733 Y44.31523 I-0.57015 J-0.82154
G1 X-42.48562 Y45.87251
G3 X-43.58081 Y45.65799 I-0.38808 J-0.92163
G1 X-45.50403 Y43.73477
G3 X-45.71855 Y42.63958 I0.70711 J-0.70711
G1 X-44.16126 Y38.94129
G3 X-44.06118 Y38.75923 I0.92163 J0.38808
G1 X-42.34498 Y36.28629
G1 X-43.72679 Y34.60256
G1 X-46.48702 Y35.80334
G3 X-46.68511 Y35.86598 I-0.39892 J-0.91699
G1 X-50.61615 Y36.67183
G3 X-51.64845 Y36.24778 I-0.20082 J-0.97963
G1 X-53.15951 Y33.98631
G3 X-53.15625 Y32.87031 I0.83147 J-0.55557
G1 X-50.90739 Y29.54689
G3 X-50.77371 Y29.38785 I0.82821 J0.56042
G1 X-48.60804 Y27.29725
G1 X-49.63481 Y25.37629
G1 X-52.57627 Y26.0155
G3 X-52.78278 Y26.03829 I-0.21236 J-0.97719
G1 X-56.7955 Y26.06176
G3 X-57.72523 Y25.44446 I-0.00585 J-0.99998
G1 X-58.76607 Y22.93165
G3 X-58.54515 Y21.83773 I0.92388 J-0.38268
G1 X-55.69113 Y19.0169
G3 X-55.52899 Y18.88699 I0.70296 J0.71123
G1 X-52.99708 Y17.25906
G1 X-53.62936 Y15.1747
G1 X-56.639 Y15.22778
G3 X-56.84599 Y15.20985 I-0.01763 J-0.99984
G1 X-60.78619 Y14.45002
G3 X-61.57762 Y13.6632 I0.18935 J-0.98191
G1 X-62.10824 Y10.99561
G3 X-61.67815 Y9.96582 I0.98079 J-0.19509
G1 X-58.32865 Y7.75598
G3 X-58.14429 Y7.6602 I0.5507 J0.8347
G1 X-55.34343 Y6.5575
G1 X-55.55693 Y4.38983
G1 X-58.51909 Y3.85474
G3 X-58.7186 Y3.79677 I0.17776 J-0.98407
G1 X-62.43485 Y2.28285
G3 X-63.05758 Y1.35675 I0.37727 J-0.9261
G1 Y-1.3631
G3 X-62.43485 Y-2.2892 I1.0 J0.0
G1 X-58.7186 Y-3.80312
G3 X-58.51909 Y-3.8611 I0.37727 J0.9261
G1 X-55.55693 Y-4.39619
G1 X-55.34343 Y-6.56385
G1 X-58.14429 Y-7.66655
G3 X-58.32865 Y-7.76233 I0.36633 J-0.93048
G1 X-61.67815 Y-9.97217
G3 X-62.10824 Y-11.00196 I0.5507 J-0.8347
G1 X-61.57762 Y-13.66955
G3 X-60.78619 Y-14.45637 I0.98079 J0.19509
G1 X-56.84599 Y-15.2162
G3 X-56.639 Y-15.23413 I0.18935 J0.98191
G1 X-53.62936 Y-15.18105
G1 X-52.99708 Y-17.26541
G1 X-55.52899 Y-18.89335
G3 X-55.69113 Y-19.02325 I0.54082 J-0.84114
G1 X-58.54515 Y-21.84408
G3 X-58.76607 Y-22.938 I0.70296 J-0.71123
G1 X-57.72523 Y-25.45081
G3 X-56.7955 Y-26.06811 I0.92388 J0.38268
G1 X-52.78278 Y-26.04464
G3 X-52.57627 Y-26.02185 I-0.00585 J0.99998
G1 X-49.63481 Y-25.38264
G1 X-48.60804 Y-27.3036
G1 X-50.77371 Y-29.3942
G3 X-50.90739 Y-29.55325 I0.69453 J-0.71947
G1 X-53.15625 Y-32.87667
G3 X-53.15951 Y-33.99266 I0.82821 J-0.56042
G1 X-51.64845 Y-36.25413
G3 X-50.61615 Y-36.67819 I0.83147 J0.55557
G1 X-46.68511 Y-35.87233
G3 X-46.48702 Y-35.80969 I-0.20082 J0.97963
G1 X-43.72679 Y-34.60891
G1 X-42.34498 Y-36.29264
G1 X-44.06118 Y-38.76558
G3 X-44.16126 Y-38.94765 I0.82154 J-0.57015
G1 X-45.71855 Y-42.64594
G3 X-45.50403 Y-43.74112 I0.92163 J-0.38808
G1 X-43.58081 Y-45.66435
G3 X-42.48562 Y-45.87886 I0.70711 J0.70711
G1 X-38.78733 Y-44.32158
G3 X-38.60526 Y-44.2215 I-0.38808 J0.92163
G1 X-36.13233 Y-42.5053
G1 X-34.44859 Y-43.8871
G1 X-35.64937 Y-46.64734
G3 X-35.71201 Y-46.84543 I0.91699 J-0.39892
G1 X-36.51787 Y-50.77647
G3 X-36.09381 Y-51.80876 I0.97963 J-0.20082
G1 X-33.83234 Y-53.31983
G3 X-32.71635 Y-53.31656 I0.55557 J0.83147
G1 X-29.39293 Y-51.06771
G3 X-29.23388 Y-50.93403 I-0.56042 J0.82821
G1 X-27.14328 Y-48.76835
G1 X-25.22232 Y-49.79513
G1 X-25.86153 Y-52.73659
G3 X-25.88432 Y-52.94309 I0.97719 J-0.21236
G1 X-25.90779 Y-56.95582
G3 X-25.29049 Y-57.88554 I0.99998 J-0.00585
G1 X-22.77768 Y-58.92638
G3 X-21.68377 Y-58.70546 I0.38268 J0.92388
G1 X-18.86294 Y-55.85145
G3 X-18.73303 Y-55.68931 I-0.71123 J0.70296
G1 X-17.1051 Y-53.15739
G1 X-15.02073 Y-53.78968
G1 X-15.07382 Y-56.79932
G3 X-15.05588 Y-57.00631 I0.99984 J-0.01763
G1 X-14.29605 Y-60.9465
G3 X-13.50923 Y-61.73794 I0.98191 J0.18935
G1 X-10.84164 Y-62.26855
G3 X-9.81185 Y-61.83847 I0.19509 J0.98079
G1 X-7.60201 Y-58.48897
G3 X-7.50623 Y-58.3046 I-0.8347 J0.5507
G1 X-6.40353 Y-55.50375
G1 X-4.23587 Y-55.71724
G1 X-3.70078 Y-58.67941
G3 X-3.64281 Y-58.87892 I0.98407 J0.17776
G1 X-2.12888 Y-62.59517
G3 X-1.20278 Y-63.2179 I0.9261 J0.37727
G1 X1.51707
G3 X2.44317 Y-62.59517 I0.0 J1.0
G1 X3.95709 Y-58.87892
G3 X4.01506 Y-58.67941 I-0.9261 J0.37727
G1 X4.55015 Y-55.71724
G1 X6.71782 Y-55.50375
G1 X7.82052 Y-58.3046
G3 X7.9163 Y-58.48897 I0.93048 J0.36633
G1 X10.12613 Y-61.83847
G3 X11.15593 Y-62.26855 I0.8347 J0.5507
G1 X13.82351 Y-61.73794
G3 X14.61033 Y-60.9465 I-0.19509 J0.98079
G1 X15.37016 Y-57.00631
G3 X15.3881 Y-56.79932 I-0.98191 J0.18935
G1 X15.33502 Y-53.78968
G1 X17.41938 Y-53.15739
G1 X19.04731 Y-55.68931
G3 X19.17722 Y-55.85145 I0.84114 J0.54082
G1 X21.99805 Y-58.70546
G3 X23.09196 Y-58.92638 I0.71123 J0.70296
G1 X25.60477 Y-57.88554
G3 X26.22207 Y-56.95581 I-0.38268 J0.92388
G1 X26.19861 Y-52.94309
G3 X26.17582 Y-52.73659 I-0.99998 J-0.00585
G1 X25.5366 Y-49.79513
G1 X27.45756 Y-48.76835
G1 X29.54817 Y-50.93403
G3 X29.70721 Y-51.06771 I0.71947 J0.69453
G1 X33.03063 Y-53.31656
G3 X34.14662 Y-53.31983 I0.56042 J0.82821
G1 X36.40809 Y-51.80876
G3 X36.83215 Y-50.77647 I-0.55557 J0.83147
G1 X36.02629 Y-46.84543
G3 X35.96365 Y-46.64734 I-0.97963 J-0.20082
G1 X34.76287 Y-43.8871
G1 X36.44661 Y-42.5053
G1 X38.91954 Y-44.2215
G3 X39.10161 Y-44.32158 I0.57015 J0.82154
G1 X42.7999 Y-45.87886
G3 X43.89509 Y-45.66435 I0.38808 J0.92163
G1 X45.81831 Y-43.74112
G3 X46.03283 Y-42.64594 I-0.70711 J0.70711
G1 X44.47555 Y-38.94765
G3 X44.37547 Y-38.76558 I-0.92163 J-0.38808
G1 X42.65926 Y-36.29264
G1 X44.04107 Y-34.60891
G1 X46.8013 Y-35.80969
G3 X46.9994 Y-35.87233 I0.39892 J0.91699
G1 X50.93044 Y-36.67819
G3 X51.96273 Y-36.25413 I0.20082 J0.97963
G1 X53.47379 Y-33.99266
G3 X53.47053 Y-32.87667 I-0.83147 J0.55557
G1 X51.22167 Y-29.55325
G3 X51.08799 Y-29.3942 I-0.82821 J-0.56042
G1 X48.92232 Y-27.3036
G1 X49.9491 Y-25.38264
G1 X52.89055 Y-26.02185
G3 X53.09706 Y-26.04464 I0.21236 J0.97719
G1 X57.10978 Y-26.06811
G3 X58.03951 Y-25.45081 I0.00585 J0.99998
G1 X59.08035 Y-22.938
G3 X58.85943 Y-21.84408 I-0.92388 J0.38268
G1 X56.00542 Y-19.02325
G3 X55.84328 Y-18.89335 I-0.70296 J-0.71123
G1 X53.31136 Y-17.26541
G1 X53.94364 Y-15.18105
G1 X56.95329 Y-15.23413
G3 X57.16027 Y-15.2162 I0.01763 J0.99984
G1 X61.10047 Y-14.45637
G3 X61.8919 Y-13.66955 I-0.18935 J0.98191
G1 X62.42252 Y-11.00196
G3 X61.99243 Y-9.97217 I-0.98079 J0.19509
G1 X58.64294 Y-7.76233
G3 X58.45857 Y-7.66655 I-0.5507 J-0.8347
G1 X55.65771 Y-6.56385
G1 X55.87121 Y-4.39619
G1 X58.83337 Y-3.8611
G3 X59.03288 Y-3.80312 I-0.17776 J0.98407
G1 X62.74914 Y-2.2892
G3 X63.37186 Y-1.3631 I-0.37727 J0.9261
G1 Y1.35675
G3 X62.74914 Y2.28285 I-1.0 J0.0
G1 X59.03288 Y3.79677
G3 X58.83337 Y3.85474 I-0.37727 J-0.9261
G1 X55.87121 Y4.38983
G1 F100.0 Z-2.8
G1 F600.0 X55.65771 Y6.5575
G1 X58.45857 Y7.6602
G3 X58.64294 Y7.75598 I-0.36633 J0.93048
G1 X61.99243 Y9.96582
G3 X62.42252 Y10.99561 I-0.5507 J0.8347
G1 X61.8919 Y13.6632
G3 X61.10047 Y14.45002 I-0.98079 J-0.19509
G1 X57.16027 Y15.20985
G3 X56.95329 Y15.22778 I-0.18935 J-0.98191
G1 X53.94364 Y15.1747
G1 X53.31136 Y17.25906
G1 X55.84328 Y18.88699
G3 X56.00542 Y19.0169 I-0.54082 J0.84114
G1 X58.85943 Y21.83773
G3 X59.08035 Y22.93165 I-0.70296 J0.71123
G1 X58.03951 Y25.44446
G3 X57.10978 Y26.06176 I-0.92388 J-0.38268
G1 X53.09706 Y26.03829
G3 X52.89055 Y26.0155 I0.00585 J-0.99998
G1 X49.94909 Y25.37629
G1 X48.92232 Y27.29725
G1 X51.08799 Y29.38785
G3 X51.22167 Y29.54689 I-0.69453 J0.71947
G1 X53.47053 Y32.87031
G3 X53.47379 Y33.98631 I-0.82821 J0.56042
G1 X51.96273 Y36.24778
G3 X50.93044 Y36.67183 I-0.83147 J-0.55557
G1 X46.9994 Y35.86598
G3 X46.8013 Y35.80334 I0.20082 J-0.97963
G1 X44.04107 Y34.60256
G1 X42.65926 Y36.28629
G1 X44.37547 Y38.75923
G3 X44.47555 Y38.94129 I-0.82154 J0.57015
G1 X46.03283 Y42.63958
G3 X45.81831 Y43.73477 I-0.92163 J0.38808
G1 X43.89509 Y45.65799
G3 X42.7999 Y45.87251 I-0.70711 J-0.70711
G1 X39.10161 Y44.31523
G3 X38.91954 Y44.21515 I0.38808 J-0.92163
G1 X36.44661 Y42.49895
G1 X34.76287 Y43.88075
G1 X35.96365 Y46.64099
G3 X36.02629 Y46.83908 I-0.91699 J0.39892
G1 X36.83215 Y50.77012
G3 X36.40809 Y51.80241 I-0.97963 J0.20082
G1 X34.14662 Y53.31348
G3 X33.03063 Y53.31021 I-0.55557 J-0.83147
G1 X29.70721 Y51.06135
G3 X29.54817 Y50.92768 I0.56042 J-0.82821
G1 X27.45756 Y48.762
G1 X25.5366 Y49.78878
G1 X26.17582 Y52.73024
G3 X26.19861 Y52.93674 I-0.97719 J0.21236
G1 X26.22207 Y56.94946
G3 X25.60477 Y57.87919 I-0.99998 J0.00585
G1 X23.09196 Y58.92003
G3 X21.99805 Y58.69911 I-0.38268 J-0.92388
G1 X19.17722 Y55.8451
G3 X19.04731 Y55.68296 I0.71123 J-0.70296
G1 X17.41938 Y53.15104
G1 X15.33502 Y53.78333
G1 X15.3881 Y56.79297
G3 X15.37016 Y56.99996 I-0.99984 J0.01763
G1 X14.61033 Y60.94015
G3 X13.82352 Y61.73158 I-0.98191 J-0.18935
G1 X11.15593 Y62.2622
G3 X10.12613 Y61.83212 I-0.19509 J-0.98079
G1 X7.9163 Y58.48262
G3 X7.82052 Y58.29825 I0.8347 J-0.5507
G1 X6.71782 Y55.49739
G1 X4.55015 Y55.71089
G1 X4.01506 Y58.67306
G3 X3.95709 Y58.87257 I-0.98407 J-0.17776
G1 X2.44317 Y62.58882
G3 X1.51707 Y63.21155 I-0.9261 J-0.37727
G1 X-1.20278
G3 X-2.12888 Y62.58882 I0.0 J-1.0
G1 X-3.64281 Y58.87257
G3 X-3.70078 Y58.67306 I0.9261 J-0.37727
G1 X-4.23587 Y55.71089
G1 X-6.40353 Y55.49739
G1 X-7.50623 Y58.29825
G3 X-7.60201 Y58.48262 I-0.93048 J-0.36633
G1 X-9.81185 Y61.83212
G3 X-10.84165 Y62.2622 I-0.8347 J-0.5507
G1 X-13.50923 Y61.73158
G3 X-14.29605 Y60.94015 I0.19509 J-0.98079
G1 X-15.05588 Y56.99996
G3 X-15.07382 Y56.79297 I0.98191 J-0.18935
G1 X-15.02073 Y53.78333
G1 X-17.1051 Y53.15104
G1 X-18.73303 Y55.68296
G3 X-18.86294 Y55.8451 I-0.84114 J-0.54082
G1 X-21.68377 Y58.69911
G3 X-22.77768 Y58.92003 I-0.71123 J-0.70296
G1 X-25.29049 Y57.87919
G3 X-25.90779 Y56.94946 I0.38268 J-0.92388
G1 X-25.88432 Y52.93674
G3 X-25.86153 Y52.73024 I0.99998 J0.00585
G1 X-25.22232 Y49.78878
G1 X-27.14328 Y48.762
G1 X-29.23388 Y50.92768
G3 X-29.39293 Y51.06135 I-0.71947 J-0.69453
G1 X-32.71635 Y53.31021
G3 X-33.83234 Y53.31348 I-0.56042 J-0.82821
G1 X-36.09381 Y51.80241
G3 X-36.51787 Y50.77012 I0.55557 J-0.83147
G1 X-35.71201 Y46.83908
G3 X-35.64937 Y46.64099 I0.97963 J0.20082
G1 X-34.44859 Y43.88075
G1 X-36.13233 Y42.49895
G1 X-38.60526 Y44.21515
G3 X-38.78733 Y44.31523 I-0.57015 J-0.82154
G1 X-42.48562 Y45.87251
G3 X-43.58081 Y45.65799 I-0.38808 J-0.92163
G1 X-45.50403 Y43.73477
G3 X-45.71855 Y42.63958 I0.70711 J-0.70711
G1 X-44.16126 Y38.94129
G3 X-44.06118 Y38.75923 I0.92163 J0.38808
G1 X-42.34498 Y36.28629
G1 X-43.72679 Y34.60256
G1 X-46.48702 Y35.80334
G3 X-46.68511 Y35.86598 I-0.39892 J-0.91699
G1 X-50.61615 Y36.67183
G3 X-51.64845 Y36.24778 I-0.20082 J-0.97963
G1 X-53.15951 Y33.98631
G3 X-53.15625 Y32.87031 I0.83147 J-0.55557
G1 X-50.90739 Y29.54689
G3 X-50.77371 Y29.38785 I0.82821 J0.56042
G1 X-48.60804 Y27.29725
G1 X-49.63481 Y25.37629
G1 X-52.57627 Y26.0155
G3 X-52.78278 Y26.03829 I-0.21236 J-0.97719
G1 X-56.7955 Y26.06176
G3 X-57.72523 Y25.44446 I-0.00585 J-0.99998
G1 X-58.76607 Y22.93165
G3 X-58.54515 Y21.83773 I0.92388 J-0.38268
G1 X-55.69113 Y19.0169
G3 X-55.52899 Y18.88699 I0.70296 J0.71123
G1 X-52.99708 Y17.25906
G1 X-53.62936 Y15.1747
G1 X-56.639 Y15.22778
G3 X-56.84599 Y15.20985 I-0.01763 J-0.99984
G1 X-60.78619 Y14.45002
G3 X-61.57762 Y13.6632 I0.18935 J-0.98191
G1 X-62.10824 Y10.99561
G3 X-61.67815 Y9.96582 I0.98079 J-0.19509
G1 X-58.32865 Y7.75598
G3 X-58.14429 Y7.6602 I0.5507 J0.8347
G1 X-55.34343 Y6.5575
G1 X-55.55693 Y4.38983
G1 X-58.51909 Y3.85474
G3 X-58.7186 Y3.79677 I0.17776 J-0.98407
G1 X-62.43485 Y2.28285
G3 X-63.05758 Y1.35675 I0.37727 J-0.9261
G1 Y-1.3631
G3 X-62.43485 Y-2.2892 I1.0 J0.0
G1 X-58.7186 Y-3.80312
G3 X-58.51909 Y-3.8611 I0.37727 J0.9261
G1 X-55.55693 Y-4.39619
G1 X-55.34343 Y-6.56385
G1 X-58.14429 Y-7.66655
G3 X-58.32865 Y-7.76233 I0.36633 J-0.93048
G1 X-61.67815 Y-9.97217
G3 X-62.10824 Y-11.00196 I0.5507 J-0.8347
G1 X-61.57762 Y-13.66955
G3 X-60.78619 Y-14.45637 I0.98079 J0.19509
G1 X-56.84599 Y-15.2162
G3 X-56.639 Y-15.23413 I0.18935 J0.98191
G1 X-53.62936 Y-15.18105
G1 X-52.99708 Y-17.26541
G1 X-55.52899 Y-18.89335
G3 X-55.69113 Y-19.02325 I0.54082 J-0.84114
G1 X-58.54515 Y-21.84408
G3 X-58.76607 Y-22.938 I0.70296 J-0.71123
G1 X-57.72523 Y-25.45081
G3 X-56.7955 Y-26.06811 I0.92388 J0.38268
G1 X-52.78278 Y-26.04464
G3 X-52.57627 Y-26.02185 I-0.00585 J0.99998
G1 X-49.63481 Y-25.38264
G1 X-48.60804 Y-27.3036
G1 X-50.77371 Y-29.3942
G3 X-50.90739 Y-29.55325 I0.69453 J-0.71947
G1 X-53.15625 Y-32.87667
G3 X-53.15951 Y-33.99266 I0.82821 J-0.56042
G1 X-51.64845 Y-36.25413
G3 X-50.61615 Y-36.67819 I0.83147 J0.55557
G1 X-46.68511 Y-35.87233
G3 X-46.48702 Y-35.80969 I-0.20082 J0.97963
G1 X-43.72679 Y-34.60891
G1 X-42.34498 Y-36.29264
G1 X-44.06118 Y-38.76558
G3 X-44.16126 Y-38.94765 I0.82154 J-0.57015
G1 X-45.71855 Y-42.64594
G3 X-45.50403 Y-43.74112 I0.92163 J-0.38808
G1 X-43.58081 Y-45.66435
G3 X-42.48562 Y-45.87886 I0.70711 J0.70711
G1 X-38.78733 Y-44.32158
G3 X-38.60526 Y-44.2215 I-0.38808 J0.92163
G1 X-36.13233 Y-42.5053
G1 X-34.44859 Y-43.8871
G1 X-35.64937 Y-46.64734
G3 X-35.71201 Y-46.84543 I0.91699 J-0.39892
G1 X-36.51787 Y-50.77647
G3 X-36.09381 Y-51.80876 I0.97963 J-0.20082
G1 X-33.83234 Y-53.31983
G3 X-32.71635 Y-53.31656 I0.55557 J0.83147
G1 X-29.39293 Y-51.06771
G3 X-29.23388 Y-50.93403 I-0.56042 J0.82821
G1 X-27.14328 Y-48.76835
G1 X-25.22232 Y-49.79513
G1 X-25.86153 Y-52.73659
G3 X-25.88432 Y-52.94309 I0.97719 J-0.21236
G1 X-25.90779 Y-56.95582
G3 X-25.29049 Y-57.88554 I0.99998 J-0.00585
G1 X-22.77768 Y-58.92638
G3 X-21.68377 Y-58.70546 I0.38268 J0.92388
G1 X-18.86294 Y-55.85145
G3 X-18.73303 Y-55.68931 I-0.71123 J0.70296
G1 X-17.1051 Y-53.15739
G1 X-15.02073 Y-53.78968
G1 X-15.07382 Y-56.79932
G3 X-15.05588 Y-57.00631 I0.99984 J-0.01763
G1 X-14.29605 Y-60.9465
G3 X-13.50923 Y-61.73794 I0.98191 J0.18935
G1 X-10.84164 Y-62.26855
G3 X-9.81185 Y-61.83847 I0.19509 J0.98079
G1 X-7.60201 Y-58.48897
G3 X-7.50623 Y-58.3046 I-0.8347 J0.5507
G1 X-6.40353 Y-55.50375
G1 X-4.23587 Y-55.71724
G1 X-3.70078 Y-58.67941
G3 X-3.64281 Y-58.87892 I0.98407 J0.17776
G1 X-2.12888 Y-62.59517
G3 X-1.20278 Y-63.2179 I0.9261 J0.37727
G1 X1.51707
G3 X2.44317 Y-62.59517 I0.0 J1.0
G1 X3.95709 Y-58.87892
G3 X4.01506 Y-58.67941 I-0.9261 J0.37727
G1 X4.55015 Y-55.71724
G1 X6.71782 Y-55.50375
G1 X7.82052 Y-58.3046
G3 X7.9163 Y-58.48897 I0.93048 J0.36633
G1 X10.12613 Y-61.83847
G3 X11.15593 Y-62.26855 I0.8347 J0.5507
G1 X13.82351 Y-61.73794
G3 X14.61033 Y-60.9465 I-0.19509 J0.98079
G1 X15.37016 Y-57.00631
G3 X15.3881 Y-56.79932 I-0.98191 J0.18935
G1 X15.33502 Y-53.78968
G1 X17.41938 Y-53.15739
G1 X19.04731 Y-55.68931
G3 X19.17722 Y-55.85145 I0.84114 J0.54082
G1 X21.99805 Y-58.70546
G3 X23.09196 Y-58.92638 I0.71123 J0.70296
G1 X25.60477 Y-57.88554
G3 X26.22207 Y-56.95581 I-0.38268 J0.92388
G1 X26.19861 Y-52.94309
G3 X26.17582 Y-52.73659 I-0.99998 J-0.00585
G1 X25.5366 Y-49.79513
G1 X27.45756 Y-48.76835
G1 X29.54817 Y-50.93403
G3 X29.70721 Y-51.06771 I0.71947 J0.69453
G1 X33.03063 Y-53.31656
G3 X34.14662 Y-53.31983 I0.56042 J0.82821
G1 X36.40809 Y-51.80876
G3 X36.83215 Y-50.77647 I-0.55557 J0.83147
G1 X36.02629 Y-46.84543
G3 X35.96365 Y-46.64734 I-0.97963 J-0.20082
G1 X34.76287 Y-43.8871
G1 X36.44661 Y-42.5053
G1 X38.91954 Y-44.2215
G3 X39.10161 Y-44.32158 I0.57015 J0.82154
G1 X42.7999 Y-45.87886
G3 X43.89509 Y-45.66435 I0.38808 J0.92163
G1 X45.81831 Y-43.74112
G3 X46.03283 Y-42.64594 I-0.70711 J0.70711
G1 X44.47555 Y-38.94765
G3 X44.37547 Y-38.76558 I-0.92163 J-0.38808
G1 X42.65926 Y-36.29264
G1 X44.04107 Y-34.60891
G1 X46.8013 Y-35.80969
G3 X46.9994 Y-35.87233 I0.39892 J0.91699
G1 X50.93044 Y-36.67819
G3 X51.96273 Y-36.25413 I0.20082 J0.97963
G1 X53.47379 Y-33.99266
G3 X53.47053 Y-32.87667 I-0.83147 J0.55557
G1 X51.22167 Y-29.55325
G3 X51.08799 Y-29.3942 I-0.82821 J-0.56042
G1 X48.92232 Y-27.3036
G1 X49.9491 Y-25.38264
G1 X52.89055 Y-26.02185
G3 X53.09706 Y-26.04464 I0.21236 J0.97719
G1 X57.10978 Y-26.06811
G3 X58.03951 Y-25.45081 I0.00585 J0.99998
G1 X59.08035 Y-22.938
G3 X58.85943 Y-21.84408 I-0.92388 J0.38268
G1 X56.00542 Y-19.02325
G3 X55.84328 Y-18.89335 I-0.70296 J-0.71123
G1 X53.31136 Y-17.26541
G1 X53.94364 Y-15.18105
G1 X56.95329 Y-15.23413
G3 X57.16027 Y-15.2162 I0.01763 J0.99984
G1 X61.10047 Y-14.45637
G3 X61.8919 Y-13.66955 I-0.18935 J0.98191
G1 X62.42252 Y-11.00196
G3 X61.99243 Y-9.97217 I-0.98079 J0.19509
G1 X58.64294 Y-7.76233
G3 X58.45857 Y-7.66655 I-0.5507 J-0.8347
G1 X55.65771 Y-6.56385
G1 X55.87121 Y-4.39619
G1 X58.83337 Y-3.8611
G3 X59.03288 Y-3.80312 I-0.17776 J0.98407
G1 X62.74914 Y-2.2892
G3 X63.37186 Y-1.3631 I-0.37727 J0.9261
G1 Y1.35675
G3 X62.74914 Y2.28285 I-1.0 J0.0
G1 X59.03288 Y3.79677
G3 X58.83337 Y3.85474 I-0.37727 J-0.9261
G1 X55.87121 Y4.38983
G1 F100.0 Z-3.5
G1 F600.0 X55.65771 Y6.5575
G1 X58.45857 Y7.6602
G3 X58.64294 Y7.75598 I-0.36633 J0.93048
G1 X61.99243 Y9.96582
G3 X62.42252 Y10.99561 I-0.5507 J0.8347
G1 X61.8919 Y13.6632
G3 X61.10047 Y14.45002 I-0.98079 J-0.19509
G1 X57.16027 Y15.20985
G3 X56.95329 Y15.22778 I-0.18935 J-0.98191
G1 X53.94364 Y15.1747
G1 X53.31136 Y17.25906
G1 X55.84328 Y18.88699
G3 X56.00542 Y19.0169 I-0.54082 J0.84114
G1 X58.85943 Y21.83773
G3 X59.08035 Y22.93165 I-0.70296 J0.71123
G1 X58.03951 Y25.44446
G3 X57.10978 Y26.06176 I-0.92388 J-0.38268
G1 X53.09706 Y26.03829
G3 X52.89055 Y26.0155 I0.00585 J-0.99998
G1 X49.94909 Y25.37629
G1 X48.92232 Y27.29725
G1 X51.08799 Y29.38785
G3 X51.22167 Y29.54689 I-0.69453 J0.71947
G1 X53.47053 Y32.87031
G3 X53.47379 Y33.98631 I-0.82821 J0.56042
G1 X51.96273 Y36.24778
G3 X50.93044 Y36.67183 I-0.83147 J-0.55557
G1 X46.9994 Y35.86598
G3 X46.8013 Y35.80334 I0.20082 J-0.97963
G1 X44.04107 Y34.60256
G1 X42.65926 Y36.28629
G1 X44.37547 Y38.75923
G3 X44.47555 Y38.94129 I-0.82154 J0.57015
G1 X46.03283 Y42.63958
G3 X45.81831 Y43.73477 I-0.92163 J0.38808
G1 X43.89509 Y45.65799
G3 X42.7999 Y45.87251 I-0.70711 J-0.70711
G1 X39.10161 Y44.31523
G3 X38.91954 Y44.21515 I0.38808 J-0.92163
G1 X36.44661 Y42.49895
G1 X34.76287 Y43.88075
G1 X35.96365 Y46.64099
G3 X36.02629 Y46.83908 I-0.91699 J0.39892
G1 X36.83215 Y50.77012
G3 X36.40809 Y51.80241 I-0.97963 J0.20082
G1 X34.14662 Y53.31348
G3 X33.03063 Y53.31021 I-0.55557 J-0.83147
G1 X29.70721 Y51.06135
G3 X29.54817 Y50.92768 I0.56042 J-0.82821
G1 X27.45756 Y48.762
G1 X25.5366 Y49.78878
G1 X26.17582 Y52.73024
G3 X26.19861 Y52.93674 I-0.97719 J0.21236
G1 X26.22207 Y56.94946
G3 X25.60477 Y57.87919 I-0.99998 J0.00585
G1 X23.09196 Y58.92003
G3 X21.99805 Y58.69911 I-0.38268 J-0.92388
G1 X19.17722 Y55.8451
G3 X19.04731 Y55.68296 I0.71123 J-0.70296
G1 X17.41938 Y53.15104
G1 X15.33502 Y53.78333
G1 X15.3881 Y56.79297
G3 X15.37016 Y56.99996 I-0.99984 J0.01763
G1 X14.61033 Y60.94015
G3 X13.82352 Y61.73158 I-0.98191 J-0.18935
G1 X11.15593 Y62.2622
G3 X10.12613 Y61.83212 I-0.19509 J-0.98079
G1 X7.9163 Y58.48262
G3 X7.82052 Y58.29825 I0.8347 J-0.5507
G1 X6.71782 Y55.49739
G1 X4.55015 Y55.71089
G1 X4.01506 Y58.67306
G3 X3.95709 Y58.87257 I-0.98407 J-0.17776
G1 X2.44317 Y62.58882
G3 X1.51707 Y63.21155 I-0.9261 J-0.37727
G1 X-1.20278
G3 X-2.12888 Y62.58882 I0.0 J-1.0
G1 X-3.64281 Y58.87257
G3 X-3.70078 Y58.67306 I0.9261 J-0.37727
G1 X-4.23587 Y55.71089
G1 X-6.40353 Y55.49739
G1 X-7.50623 Y58.29825
G3 X-7.60201 Y58.48262 I-0.93048 J-0.36633
G1 X-9.81185 Y61.83212
G3 X-10.84165 Y62.2622 I-0.8347 J-0.5507
G1 X-13.50923 Y61.73158
G3 X-14.29605 Y60.94015 I0.19509 J-0.98079
G1 X-15.05588 Y56.99996
G3 X-15.07382 Y56.79297 I0.98191 J-0.18935
G1 X-15.02073 Y53.78333
G1 X-17.1051 Y53.15104
G1 X-18.73303 Y55.68296
G3 X-18.86294 Y55.8451 I-0.84114 J-0.54082
G1 X-21.68377 Y58.69911
G3 X-22.77768 Y58.92003 I-0.71123 J-0.70296
G1 X-25.29049 Y57.87919
G3 X-25.90779 Y56.94946 I0.38268 J-0.92388
G1 X-25.88432 Y52.93674
G3 X-25.86153 Y52.73024 I0.99998 J0.00585
G1 X-25.22232 Y49.78878
G1 X-27.14328 Y48.762
G1 X-29.23388 Y50.92768
G3 X-29.39293 Y51.06135 I-0.71947 J-0.69453
G1 X-32.71635 Y53.31021
G3 X-33.83234 Y53.31348 I-0.56042 J-0.82821
G1 X-36.09381 Y51.80241
G3 X-36.51787 Y50.77012 I0.55557 J-0.83147
G1 X-35.71201 Y46.83908
G3 X-35.64937 Y46.64099 I0.97963 J0.20082
G1 X-34.44859 Y43.88075
G1 X-36.13233 Y42.49895
G1 X-38.60526 Y44.21515
G3 X-38.78733 Y44.31523 I-0.57015 J-0.82154
G1 X-42.48562 Y45.87251
G3 X-43.58081 Y45.65799 I-0.38808 J-0.92163
G1 X-45.50403 Y43.73477
G3 X-45.71855 Y42.63958 I0.70711 J-0.70711
G1 X-44.16126 Y38.94129
G3 X-44.06118 Y38.75923 I0.92163 J0.38808
G1 X-42.34498 Y36.28629
G1 X-43.72679 Y34.60256
G1 X-46.48702 Y35.80334
G3 X-46.68511 Y35.86598 I-0.39892 J-0.91699
G1 X-50.61615 Y36.67183
G3 X-51.64845 Y36.24778 I-0.20082 J-0.97963
G1 X-53.15951 Y33.98631
G3 X-53.15625 Y32.87031 I0.83147 J-0.55557
G1 X-50.90739 Y29.54689
G3 X-50.77371 Y29.38785 I0.82821 J0.56042
G1 X-48.60804 Y27.29725
G1 X-49.63481 Y25.37629
G1 X-49.96346 Y25.44771
G1 X-51.42925 Y25.76624 Z-3.0
G1 X-52.57627 Y26.0155
G3 X-52.78278 Y26.03829 I-0.21236 J-0.97719
G1 X-53.41601 Y26.04199
G1 X-54.94907 Y26.05096 Z-3.5
G1 X-56.7955 Y26.06176
G3 X-57.72523 Y25.44446 I-0.00585 J-0.99998
G1 X-58.76607 Y22.93165
G3 X-58.54515 Y21.83773 I0.92388 J-0.38268
G1 X-55.69113 Y19.0169
G3 X-55.52899 Y18.88699 I0.70296 J0.71123
G1 X-52.99708 Y17.25906
G1 X-53.62936 Y15.1747
G1 X-56.639 Y15.22778
G3 X-56.84599 Y15.20985 I-0.01763 J-0.99984
G1 X-60.78619 Y14.45002
G3 X-61.57762 Y13.6632 I0.18935 J-0.98191
G1 X-62.10824 Y10.99561
G3 X-61.67815 Y9.96582 I0.98079 J-0.19509
G1 X-58.32865 Y7.75598
G3 X-58.14429 Y7.6602 I0.5507 J0.8347
G1 X-55.34343 Y6.5575
G1 X-55.55693 Y4.38983
G1 X-58.51909 Y3.85474
G3 X-58.7186 Y3.79677 I0.17776 J-0.98407
G1 X-62.43485 Y2.28285
G3 X-63.05758 Y1.35675 I0.37727 J-0.9261
G1 Y-1.3631
G3 X-62.43485 Y-2.2892 I1.0 J0.0
G1 X-58.7186 Y-3.80312
G3 X-58.51909 Y-3.8611 I0.37727 J0.9261
G1 X-55.55693 Y-4.39619
G1 X-55.34343 Y-6.56385
G1 X-58.14429 Y-7.66655
G3 X-58.32865 Y-7.76233 I0.36633 J-0.93048
G1 X-61.67815 Y-9.97217
G3 X-62.10824 Y-11.00196 I0.5507 J-0.8347
G1 X-61.57762 Y-13.66955
G3 X-60.78619 Y-14.45637 I0.98079 J0.19509
G1 X-56.84599 Y-15.2162
G3 X-56.639 Y-15.23413 I0.18935 J0.98191
G1 X-53.62936 Y-15.18105
G1 X-52.99708 Y-17.26541
G1 X-55.52899 Y-18.89335
G3 X-55.69113 Y-19.02325 I0.54082 J-0.84114
G1 X-58.54515 Y-21.84408
G3 X-58.76607 Y-22.938 I0.70296 J-0.71123
G1 X-57.72523 Y-25.45081
G3 X-56.7955 Y-26.06811 I0.92388 J0.38268
G1 X-52.78278 Y-26.04464
G3 X-52.57627 Y-26.02185 I-0.00585 J0.99998
G1 X-49.63481 Y-25.38264
G1 X-48.60804 Y-27.3036
G1 X-50.77371 Y-29.3942
G3 X-50.90739 Y-29.55325 I0.69453 J-0.71947
G1 X-53.15625 Y-32.87667
G3 X-53.15951 Y-33.99266 I0.82821 J-0.56042
G1 X-51.64845 Y-36.25413
G3 X-50.61615 Y-36.67819 I0.83147 J0.55557
G1 X-46.68511 Y-35.87233
G3 X-46.48702 Y-35.80969 I-0.20082 J0.97963
G1 X-43.72679 Y-34.60891
G1 X-42.34498 Y-36.29264
G1 X-44.06118 Y-38.76558
G3 X-44.16126 Y-38.94765 I0.82154 J-0.57015
G1 X-45.71855 Y-42.64594
G3 X-45.50403 Y-43.74112 I0.92163 J-0.38808
G1 X-43.58081 Y-45.66435
G3 X-42.48562 Y-45.87886 I0.70711 J0.70711
G1 X-38.78733 Y-44.32158
G3 X-38.60526 Y-44.2215 I-0.38808 J0.92163
G1 X-36.13233 Y-42.5053
G1 X-34.44859 Y-43.8871
G1 X-35.64937 Y-46.64734
G3 X-35.71201 Y-46.84543 I0.91699 J-0.39892
G1 X-36.51787 Y-50.77647
G3 X-36.09381 Y-51.80876 I0.97963 J-0.20082
G1 X-33.83234 Y-53.31983
G3 X-32.71635 Y-53.31656 I0.55557 J0.83147
G1 X-29.39293 Y-51.06771
G3 X-29.23388 Y-50.93403 I-0.56042 J0.82821
G1 X-27.14328 Y-48.76835
G1 X-25.22232 Y-49.79513
G1 X-25.86153 Y-52.73659
G3 X-25.88432 Y-52.94309 I0.97719 J-0.21236
G1 X-25.90779 Y-56.95582
G3 X-25.29049 Y-57.88554 I0.99998 J-0.00585
G1 X-22.77768 Y-58.92638
G3 X-21.68377 Y-58.70546 I0.38268 J0.92388
G1 X-18.86294 Y-55.85145
G3 X-18.73303 Y-55.68931 I-0.71123 J0.70296
G1 X-17.1051 Y-53.15739
G1 X-15.02073 Y-53.78968
G1 X-15.07382 Y-56.79932
G3 X-15.05588 Y-57.00631 I0.99984 J-0.01763
G1 X-14.29605 Y-60.9465
G3 X-13.50923 Y-61.73794 I0.98191 J0.18935
G1 X-10.84164 Y-62.26855
G3 X-9.81185 Y-61.83847 I0.19509 J0.98079
G1 X-7.60201 Y-58.48897
G3 X-7.50623 Y-58.3046 I-0.8347 J0.5507
G1 X-6.40353 Y-55.50375
G1 X-4.23587 Y-55.71724
G1 X-3.70078 Y-58.67941
G3 X-3.64281 Y-58.87892 I0.98407 J0.17776
G1 X-2.12888 Y-62.59517
G3 X-1.20278 Y-63.2179 I0.9261 J0.37727
G1 X1.51707
G3 X2.44317 Y-62.59517 I0.0 J1.0
G1 X3.95709 Y-58.87892
G3 X4.01506 Y-58.67941 I-0.9261 J0.37727
G1 X4.55015 Y-55.71724
G1 X6.71782 Y-55.50375
G1 X7.82052 Y-58.3046
G3 X7.9163 Y-58.48897 I0.93048 J0.36633
G1 X10.12613 Y-61.83847
G3 X11.15593 Y-62.26855 I0.8347 J0.5507
G1 X13.82351 Y-61.73794
G3 X14.61033 Y-60.9465 I-0.19509 J0.98079
G1 X15.37016 Y-57.00631
G3 X15.3881 Y-56.79932 I-0.98191 J0.18935
G1 X15.33502 Y-53.78968
G1 X17.41938 Y-53.15739
G1 X19.04731 Y-55.68931
G3 X19.17722 Y-55.85145 I0.84114 J0.54082
G1 X21.99805 Y-58.70546
G3 X23.09196 Y-58.92638 I0.71123 J0.70296
G1 X25.60477 Y-57.88554
G3 X26.22207 Y-56.95581 I-0.38268 J0.92388
G1 X26.19861 Y-52.94309
G3 X26.17582 Y-52.73659 I-0.99998 J-0.00585
G1 X25.5366 Y-49.79513
G1 X27.45756 Y-48.76835
G1 X29.54817 Y-50.93403
G3 X29.70721 Y-51.06771 I0.71947 J0.69453
G1 X33.03063 Y-53.31656
G3 X34.14662 Y-53.31983 I0.56042 J0.82821
G1 X36.40809 Y-51.80876
G3 X36.83215 Y-50.77647 I-0.55557 J0.83147
G1 X36.02629 Y-46.84543
G3 X35.96365 Y-46.64734 I-0.97963 J-0.20082
G1 X34.76287 Y-43.8871
G1 X36.44661 Y-42.5053
G1 X38.91954 Y-44.2215
G3 X39.10161 Y-44.32158 I0.57015 J0.82154
G1 X42.7999 Y-45.87886
G3 X43.89509 Y-45.66435 I0.38808 J0.92163
G1 X45.81831 Y-43.74112
G3 X46.03283 Y-42.64594 I-0.70711 J0.70711
G1 X44.47555 Y-38.94765
G3 X44.37547 Y-38.76558 I-0.92163 J-0.38808
G1 X42.65926 Y-36.29264
G1 X44.04107 Y-34.60891
G1 X46.8013 Y-35.80969
G3 X46.9994 Y-35.87233 I0.39892 J0.91699
G1 X50.93044 Y-36.67819
G3 X51.96273 Y-36.25413 I0.20082 J0.97963
G1 X53.47379 Y-33.99266
G3 X53.47053 Y-32.87667 I-0.83147 J0.55557
G1 X51.22167 Y-29.55325
G3 X51.08799 Y-29.3942 I-0.82821 J-0.56042
G1 X48.92232 Y-27.3036
G1 X49.9491 Y-25.38264
G1 X50.27775 Y-25.45406
G1 X51.74354 Y-25.77259 Z-3.0
G1 X52.89055 Y-26.02185
G3 X53.09706 Y-26.04464 I0.21236 J0.97719
G1 X53.73029 Y-26.04834
G1 X55.26335 Y-26.05731 Z-3.5
G1 X57.10978 Y-26.06811
G3 X58.03951 Y-25.45081 I0.00585 J0.99998
G1 X59.08035 Y-22.938
G3 X58.85943 Y-21.84408 I-0.92388 J0.38268
G1 X56.00542 Y-19.02325
G3 X55.84328 Y-18.89335 I-0.70296 J-0.71123
G1 X53.31136 Y-17.26541
G1 X53.94364 Y-15.18105
G1 X56.95329 Y-15.23413
G3 X57.16027 Y-15.2162 I0.01763 J0.99984
G1 X61.10047 Y-14.45637
G3 X61.8919 Y-13.66955 I-0.18935 J0.98191
G1 X62.42252 Y-11.00196
G3 X61.99243 Y-9.97217 I-0.98079 J0.19509
G1 X58.64294 Y-7.76233
G3 X58.45857 Y-7.66655 I-0.5507 J-0.8347
G1 X55.65771 Y-6.56385
G1 X55.87121 Y-4.39619
G1 X58.83337 Y-3.8611
G3 X59.03288 Y-3.80312 I-0.17776 J0.98407
G1 X62.74914 Y-2.2892
G3 X63.37186 Y-1.3631 I-0.37727 J0.9261
G1 Y1.35675
G3 X62.74914 Y2.28285 I-1.0 J0.0
G1 X59.03288 Y3.79677
G3 X58.83337 Y3.85474 I-0.37727 J-0.9261
G1 X55.87121 Y4.38983
G1 F100.0 Z-4.2
G1 F600.0 X55.65771 Y6.5575
G1 X58.45857 Y7.6602
G3 X58.64294 Y7.75598 I-0.36633 J0.93048
G1 X61.99243 Y9.96582
G3 X62.42252 Y10.99561 I-0.5507 J0.8347
G1 X61.8919 Y13.6632
G3 X61.10047 Y14.45002 I-0.98079 J-0.19509
G1 X57.16027 Y15.20985
G3 X56.95329 Y15.22778 I-0.18935 J-0.98191
G1 X53.94364 Y15.1747
G1 X53.31136 Y17.25906
G1 X55.84328 Y18.88699
G3 X56.00542 Y19.0169 I-0.54082 J0.84114
G1 X58.85943 Y21.83773
G3 X59.08035 Y22.93165 I-0.70296 J0.71123
G1 X58.03951 Y25.44446
G3 X57.10978 Y26.06176 I-0.92388 J-0.38268
G1 X53.09706 Y26.03829
G3 X52.89055 Y26.0155 I0.00585 J-0.99998
G1 X49.94909 Y25.37629
G1 X48.92232 Y27.29725
G1 X51.08799 Y29.38785
G3 X51.22167 Y29.54689 I-0.69453 J0.71947
G1 X53.47053 Y32.87031
G3 X53.47379 Y33.98631 I-0.82821 J0.56042
G1 X51.96273 Y36.24778
G3 X50.93044 Y36.67183 I-0.83147 J-0.55557
G1 X46.9994 Y35.86598
G3 X46.8013 Y35.80334 I0.20082 J-0.97963
G1 X44.04107 Y34.60256
G1 X42.65926 Y36.28629
G1 X44.37547 Y38.75923
G3 X44.47555 Y38.94129 I-0.82154 J0.57015
G1 X46.03283 Y42.63958
G3 X45.81831 Y43.73477 I-0.92163 J0.38808
G1 X43.89509 Y45.65799
G3 X42.7999 Y45.87251 I-0.70711 J-0.70711
G1 X39.10161 Y44.31523
G3 X38.91954 Y44.21515 I0.38808 J-0.92163
G1 X36.44661 Y42.49895
G1 X34.76287 Y43.88075
G1 X35.96365 Y46.64099
G3 X36.02629 Y46.83908 I-0.91699 J0.39892
G1 X36.83215 Y50.77012
G3 X36.40809 Y51.80241 I-0.97963 J0.20082
G1 X34.14662 Y53.31348
G3 X33.03063 Y53.31021 I-0.55557 J-0.83147
G1 X29.70721 Y51.06135
G3 X29.54817 Y50.92768 I0.56042 J-0.82821
G1 X27.45756 Y48.762
G1 X25.5366 Y49.78878
G1 X26.17582 Y52.73024
G3 X26.19861 Y52.93674 I-0.97719 J0.21236
G1 X26.22207 Y56.94946
G3 X25.60477 Y57.87919 I-0.99998 J0.00585
G1 X23.09196 Y58.92003
G3 X21.99805 Y58.69911 I-0.38268 J-0.92388
G1 X19.17722 Y55.8451
G3 X19.04731 Y55.68296 I0.71123 J-0.70296
G1 X17.41938 Y53.15104
G1 X15.33502 Y53.78333
G1 X15.3881 Y56.79297
G3 X15.37016 Y56.99996 I-0.99984 J0.01763
G1 X14.61033 Y60.94015
G3 X13.82352 Y61.73158 I-0.98191 J-0.18935
G1 X11.15593 Y62.2622
G3 X10.12613 Y61.83212 I-0.19509 J-0.98079
G1 X7.9163 Y58.48262
G3 X7.82052 Y58.29825 I0.8347 J-0.5507
G1 X6.71782 Y55.49739
G1 X4.55015 Y55.71089
G1 X4.01506 Y58.67306
G3 X3.95709 Y58.87257 I-0.98407 J-0.17776
G1 X2.44317 Y62.58882
G3 X1.51707 Y63.21155 I-0.9261 J-0.37727
G1 X-1.20278
G3 X-2.12888 Y62.58882 I0.0 J-1.0
G1 X-3.64281 Y58.87257
G3 X-3.70078 Y58.67306 I0.9261 J-0.37727
G1 X-4.23587 Y55.71089
G1 X-6.40353 Y55.49739
G1 X-7.50623 Y58.29825
G3 X-7.60201 Y58.48262 I-0.93048 J-0.36633
G1 X-9.81185 Y61.83212
G3 X-10.84165 Y62.2622 I-0.8347 J-0.5507
G1 X-13.50923 Y61.73158
G3 X-14.29605 Y60.94015 I0.19509 J-0.98079
G1 X-15.05588 Y56.99996
G3 X-15.07382 Y56.79297 I0.98191 J-0.18935
G1 X-15.02073 Y53.78333
G1 X-17.1051 Y53.15104
G1 X-18.73303 Y55.68296
G3 X-18.86294 Y55.8451 I-0.84114 J-0.54082
G1 X-21.68377 Y58.69911
G3 X-22.77768 Y58.92003 I-0.71123 J-0.70296
G1 X-25.29049 Y57.87919
G3 X-25.90779 Y56.94946 I0.38268 J-0.92388
G1 X-25.88432 Y52.93674
G3 X-25.86153 Y52.73024 I0.99998 J0.00585
G1 X-25.22232 Y49.78878
G1 X-27.14328 Y48.762
G1 X-29.23388 Y50.92768
G3 X-29.39293 Y51.06135 I-0.71947 J-0.69453
G1 X-32.71635 Y53.31021
G3 X-33.83234 Y53.31348 I-0.56042 J-0.82821
G1 X-36.09381 Y51.80241
G3 X-36.51787 Y50.77012 I0.55557 J-0.83147
G1 X-35.71201 Y46.83908
G3 X-35.64937 Y46.64099 I0.97963 J0.20082
G1 X-34.44859 Y43.88075
G1 X-36.13233 Y42.49895
G1 X-38.60526 Y44.21515
G3 X-38.78733 Y44.31523 I-0.57015 J-0.82154
G1 X-42.48562 Y45.87251
G3 X-43.58081 Y45.65799 I-0.38808 J-0.92163
G1 X-45.50403 Y43.73477
G3 X-45.71855 Y42.63958 I0.70711 J-0.70711
G1 X-44.16126 Y38.94129
G3 X-44.06118 Y38.75923 I0.92163 J0.38808
G1 X-42.34498 Y36.28629
G1 X-43.72679 Y34.60256
G1 X-46.48702 Y35.80334
G3 X-46.68511 Y35.86598 I-0.39892 J-0.91699
G1 X-50.61615 Y36.67183
G3 X-51.64845 Y36.24778 I-0.20082 J-0.97963
G1 X-53.15951 Y33.98631
G3 X-53.15625 Y32.87031 I0.83147 J-0.55557
G1 X-50.90739 Y29.54689
G3 X-50.77371 Y29.38785 I0.82821 J0.56042
G1 X-48.60804 Y27.29725
G1 X-49.63481 Y25.37629
G1 X-49.96346 Y25.44771
G1 X-51.42925 Y25.76624 Z-3.0
G1 X-52.57627 Y26.0155
G3 X-52.78278 Y26.03829 I-0.21236 J-0.97719
G1 X-53.41601 Y26.04199
G1 X-54.94907 Y26.05096 Z-4.2
G1 X-56.7955 Y26.06176
G3 X-57.72523 Y25.44446 I-0.00585 J-0.99998
G1 X-58.76607 Y22.93165
G3 X-58.54515 Y21.83773 I0.92388 J-0.38268
G1 X-55.69113 Y19.0169
G3 X-55.52899 Y18.88699 I0.70296 J0.71123
G1 X-52.99708 Y17.25906
G1 X-53.62936 Y15.1747
G1 X-56.639 Y15.22778
G3 X-56.84599 Y15.20985 I-0.01763 J-0.99984
G1 X-60.78619 Y14.45002
G3 X-61.57762 Y13.6632 I0.18935 J-0.98191
G1 X-62.10824 Y10.99561
G3 X-61.67815 Y9.96582 I0.98079 J-0.19509
G1 X-58.32865 Y7.75598
G3 X-58.14429 Y7.6602 I0.5507 J0.8347
G1 X-55.34343 Y6.5575
G1 X-55.55693 Y4.38983
G1 X-58.51909 Y3.85474
G3 X-58.7186 Y3.79677 I0.17776 J-0.98407
G1 X-62.43485 Y2.28285
G3 X-63.05758 Y1.35675 I0.37727 J-0.9261
G1 Y-1.3631
G3 X-62.43485 Y-2.2892 I1.0 J0.0
G1 X-58.7186 Y-3.80312
G3 X-58.51909 Y-3.8611 I0.37727 J0.9261
G1 X-55.55693 Y-4.39619
G1 X-55.34343 Y-6.56385
G1 X-58.14429 Y-7.66655
G3 X-58.32865 Y-7.76233 I0.36633 J-0.93048
G1 X-61.67815 Y-9.97217
G3 X-62.10824 Y-11.00196 I0.5507 J-0.8347
G1 X-61.57762 Y-13.66955
G3 X-60.78619 Y-14.45637 I0.98079 J0.19509
G1 X-56.84599 Y-15.2162
G3 X-56.639 Y-15.23413 I0.18935 J0.98191
G1 X-53.62936 Y-15.18105
G1 X-52.99708 Y-17.26541
G1 X-55.52899 Y-18.89335
G3 X-55.69113 Y-19.02325 I0.54082 J-0.84114
G1 X-58.54515 Y-21.84408
G3 X-58.76607 Y-22.938 I0.70296 J-0.71123
G1 X-57.72523 Y-25.45081
G3 X-56.7955 Y-26.06811 I0.92388 J0.38268
G1 X-52.78278 Y-26.04464
G3 X-52.57627 Y-26.02185 I-0.00585 J0.99998
G1 X-49.63481 Y-25.38264
G1 X-48.60804 Y-27.3036
G1 X-50.77371 Y-29.3942
G3 X-50.90739 Y-29.55325 I0.69453 J-0.71947
G1 X-53.15625 Y-32.87667
G3 X-53.15951 Y-33.99266 I0.82821 J-0.56042
G1 X-51.64845 Y-36.25413
G3 X-50.61615 Y-36.67819 I0.83147 J0.55557
G1 X-46.68511 Y-35.87233
G3 X-46.48702 Y-35.80969 I-0.20082 J0.97963
G1 X-43.72679 Y-34.60891
G1 X-42.34498 Y-36.29264
G1 X-44.06118 Y-38.76558
G3 X-44.16126 Y-38.94765 I0.82154 J-0.57015
G1 X-45.71855 Y-42.64594
G3 X-45.50403 Y-43.74112 I0.92163 J-0.38808
G1 X-43.58081 Y-45.66435
G3 X-42.48562 Y-45.87886 I0.70711 J0.70711
G1 X-38.78733 Y-44.32158
G3 X-38.60526 Y-44.2215 I-0.38808 J0.92163
G1 X-36.13233 Y-42.5053
G1 X-34.44859 Y-43.8871
G1 X-35.64937 Y-46.64734
G3 X-35.71201 Y-46.84543 I0.91699 J-0.39892
G1 X-36.51787 Y-50.77647
G3 X-36.09381 Y-51.80876 I0.97963 J-0.20082
G1 X-33.83234 Y-53.31983
G3 X-32.71635 Y-53.31656 I0.55557 J0.83147
G1 X-29.39293 Y-51.06771
G3 X-29.23388 Y-50.93403 I-0.56042 J0.82821
G1 X-27.14328 Y-48.76835
G1 X-25.22232 Y-49.79513
G1 X-25.86153 Y-52.73659
G3 X-25.88432 Y-52.94309 I0.97719 J-0.21236
G1 X-25.90779 Y-56.95582
G3 X-25.29049 Y-57.88554 I0.99998 J-0.00585
G1 X-22.77768 Y-58.92638
G3 X-21.68377 Y-58.70546 I0.38268 J0.92388
G1 X-18.86294 Y-55.85145
G3 X-18.73303 Y-55.68931 I-0.71123 J0.70296
G1 X-17.1051 Y-53.15739
G1 X-15.02073 Y-53.78968
G1 X-15.07382 Y-56.79932
G3 X-15.05588 Y-57.00631 I0.99984 J-0.01763
G1 X-14.29605 Y-60.9465
G3 X-13.50923 Y-61.73794 I0.98191 J0.18935
G1 X-10.84164 Y-62.26855
G3 X-9.81185 Y-61.83847 I0.19509 J0.98079
G1 X-7.60201 Y-58.48897
G3 X-7.50623 Y-58.3046 I-0.8347 J0.5507
G1 X-6.40353 Y-55.50375
G1 X-4.23587 Y-55.71724
G1 X-3.70078 Y-58.67941
G3 X-3.64281 Y-58.87892 I0.98407 J0.17776
G1 X-2.12888 Y-62.59517
G3 X-1.20278 Y-63.2179 I0.9261 J0.37727
G1 X1.51707
G3 X2.44317 Y-62.59517 I0.0 J1.0
G1 X3.95709 Y-58.87892
G3 X4.01506 Y-58.67941 I-0.9261 J0.37727
G1 X4.55015 Y-55.71724
G1 X6.71782 Y-55.50375
G1 X7.82052 Y-58.3046
G3 X7.9163 Y-58.48897 I0.93048 J0.36633
G1 X10.12613 Y-61.83847
G3 X11.15593 Y-62.26855 I0.8347 J0.5507
G1 X13.82351 Y-61.73794
G3 X14.61033 Y-60.9465 I-0.19509 J0.98079
G1 X15.37016 Y-57.00631
G3 X15.3881 Y-56.79932 I-0.98191 J0.18935
G1 X15.33502 Y-53.78968
G1 X17.41938 Y-53.15739
G1 X19.04731 Y-55.68931
G3 X19.17722 Y-55.85145 I0.84114 J0.54082
G1 X21.99805 Y-58.70546
G3 X23.09196 Y-58.92638 I0.71123 J0.70296
G1 X25.60477 Y-57.88554
G3 X26.22207 Y-56.95581 I-0.38268 J0.92388
G1 X26.19861 Y-52.94309
G3 X26.17582 Y-52.73659 I-0.99998 J-0.00585
G1 X25.5366 Y-49.79513
G1 X27.45756 Y-48.76835
G1 X29.54817 Y-50.93403
G3 X29.70721 Y-51.06771 I0.71947 J0.69453
G1 X33.03063 Y-53.31656
G3 X34.14662 Y-53.31983 I0.56042 J0.82821
G1 X36.40809 Y-51.80876
G3 X36.83215 Y-50.77647 I-0.55557 J0.83147
G1 X36.02629 Y-46.84543
G3 X35.96365 Y-46.64734 I-0.97963 J-0.20082
G1 X34.76287 Y-43.8871
G1 X36.44661 Y-42.5053
G1 X38.91954 Y-44.2215
G3 X39.10161 Y-44.32158 I0.57015 J0.82154
G1 X42.7999 Y-45.87886
G3 X43.89509 Y-45.66435 I0.38808 J0.92163
G1 X45.81831 Y-43.74112
G3 X46.03283 Y-42.64594 I-0.70711 J0.70711
G1 X44.47555 Y-38.94765
G3 X44.37547 Y-38.76558 I-0.92163 J-0.38808
G1 X42.65926 Y-36.29264
G1 X44.04107 Y-34.60891
G1 X46.8013 Y-35.80969
G3 X46.9994 Y-35.87233 I0.39892 J0.91699
G1 X50.93044 Y-36.67819
G3 X51.96273 Y-36.25413 I0.20082 J0.97963
G1 X53.47379 Y-33.99266
G3 X53.47053 Y-32.87667 I-0.83147 J0.55557
G1 X51.22167 Y-29.55325
G3 X51.08799 Y-29.3942 I-0.82821 J-0.56042
G1 X48.92232 Y-27.3036
G1 X49.9491 Y-25.38264
G1 X50.27775 Y-25.45406
G1 X51.74354 Y-25.77259 Z-3.0
G1 X52.89055 Y-26.02185
G3 X53.09706 Y-26.04464 I0.21236 J0.97719
G1 X53.73029 Y-26.04834
G1 X55.26335 Y-26.05731 Z-4.2
G1 X57.10978 Y-26.06811
G3 X58.03951 Y-25.45081 I0.00585 J0.99998
G1 X59.08035 Y-22.938
G3 X58.85943 Y-21.84408 I-0.92388 J0.38268
G1 X56.00542 Y-19.02325
G3 X55.84328 Y-18.89335 I-0.70296 J-0.71123
G1 X53.31136 Y-17.26541
G1 X53.94364 Y-15.18105
G1 X56.95329 Y-15.23413
G3 X57.16027 Y-15.2162 I0.01763 J0.99984
G1 X61.10047 Y-14.45637
G3 X61.8919 Y-13.66955 I-0.18935 J0.98191
G1 X62.42252 Y-11.00196
G3 X61.99243 Y-9.97217 I-0.98079 J0.19509
G1 X58.64294 Y-7.76233
G3 X58.45857 Y-7.66655 I-0.5507 J-0.8347
G1 X55.65771 Y-6.56385
G1 X55.87121 Y-4.39619
G1 X58.83337 Y-3.8611
G3 X59.03288 Y-3.80312 I-0.17776 J0.98407
G1 X62.74914 Y-2.2892
G3 X63.37186 Y-1.3631 I-0.37727 J0.9261
G1 Y1.35675
G3 X62.74914 Y2.28285 I-1.0 J0.0
G1 X59.03288 Y3.79677
G3 X58.83337 Y3.85474 I-0.37727 J-0.9261
G1 X55.87121 Y4.38983
G1 F100.0 Z-4.9
G1 F600.0 X55.65771 Y6.5575
G1 X58.45857 Y7.6602
G3 X58.64294 Y7.75598 I-0.36633 J0.93048
G1 X61.99243 Y9.96582
G3 X62.42252 Y10.99561 I-0.5507 J0.8347
G1 X61.8919 Y13.6632
G3 X61.10047 Y14.45002 I-0.98079 J-0.19509
G1 X57.16027 Y15.20985
G3 X56.95329 Y15.22778 I-0.18935 J-0.98191
G1 X53.94364 Y15.1747
G1 X53.31136 Y17.25906
G1 X55.84328 Y18.88699
G3 X56.00542 Y19.0169 I-0.54082 J0.84114
G1 X58.85943 Y21.83773
G3 X59.08035 Y22.93165 I-0.70296 J0.71123
G1 X58.03951 Y25.44446
G3 X57.10978 Y26.06176 I-0.92388 J-0.38268
G1 X53.09706 Y26.03829
G3 X52.89055 Y26.0155 I0.00585 J-0.99998
G1 X49.94909 Y25.37629
G1 X48.92232 Y27.29725
G1 X51.08799 Y29.38785
G3 X51.22167 Y29.54689 I-0.69453 J0.71947
G1 X53.47053 Y32.87031
G3 X53.47379 Y33.98631 I-0.82821 J0.56042
G1 X51.96273 Y36.24778
G3 X50.93044 Y36.67183 I-0.83147 J-0.55557
G1 X46.9994 Y35.86598
G3 X46.8013 Y35.80334 I0.20082 J-0.97963
G1 X44.04107 Y34.60256
G1 X42.65926 Y36.28629
G1 X44.37547 Y38.75923
G3 X44.47555 Y38.94129 I-0.82154 J0.57015
G1 X46.03283 Y42.63958
G3 X45.81831 Y43.73477 I-0.92163 J0.38808
G1 X43.89509 Y45.65799
G3 X42.7999 Y45.87251 I-0.70711 J-0.70711
G1 X39.10161 Y44.31523
G3 X38.91954 Y44.21515 I0.38808 J-0.92163
G1 X36.44661 Y42.49895
G1 X34.76287 Y43.88075
G1 X35.96365 Y46.64099
G3 X36.02629 Y46.83908 I-0.91699 J0.39892
G1 X36.83215 Y50.77012
G3 X36.40809 Y51.80241 I-0.97963 J0.20082
G1 X34.14662 Y53.31348
G3 X33.03063 Y53.31021 I-0.55557 J-0.83147
G1 X29.70721 Y51.06135
G3 X29.54817 Y50.92768 I0.56042 J-0.82821
G1 X27.45756 Y48.762
G1 X25.5366 Y49.78878
G1 X26.17582 Y52.73024
G3 X26.19861 Y52.93674 I-0.97719 J0.21236
G1 X26.22207 Y56.94946
G3 X25.60477 Y57.87919 I-0.99998 J0.00585
G1 X23.09196 Y58.92003
G3 X21.99805 Y58.69911 I-0.38268 J-0.92388
G1 X19.17722 Y55.8451
G3 X19.04731 Y55.68296 I0.71123 J-0.70296
G1 X17.41938 Y53.15104
G1 X15.33502 Y53.78333
G1 X15.3881 Y56.79297
G3 X15.37016 Y56.99996 I-0.99984 J0.01763
G1 X14.61033 Y60.94015
G3 X13.82352 Y61.73158 I-0.98191 J-0.18935
G1 X11.15593 Y62.2622
G3 X10.12613 Y61.83212 I-0.19509 J-0.98079
G1 X7.9163 Y58.48262
G3 X7.82052 Y58.29825 I0.8347 J-0.5507
G1 X6.71782 Y55.49739
G1 X4.55015 Y55.71089
G1 X4.01506 Y58.67306
G3 X3.95709 Y58.87257 I-0.98407 J-0.17776
G1 X2.44317 Y62.58882
G3 X1.51707 Y63.21155 I-0.9261 J-0.37727
G1 X-1.20278
G3 X-2.12888 Y62.58882 I0.0 J-1.0
G1 X-3.64281 Y58.87257
G3 X-3.70078 Y58.67306 I0.9261 J-0.37727
G1 X-4.23587 Y55.71089
G1 X-6.40353 Y55.49739
G1 X-7.50623 Y58.29825
G3 X-7.60201 Y58.48262 I-0.93048 J-0.36633
G1 X-9.81185 Y61.83212
G3 X-10.84165 Y62.2622 I-0.8347 J-0.5507
G1 X-13.50923 Y61.73158
G3 X-14.29605 Y60.94015 I0.19509 J-0.98079
G1 X-15.05588 Y56.99996
G3 X-15.07382 Y56.79297 I0.98191 J-0.18935
G1 X-15.02073 Y53.78333
G1 X-17.1051 Y53.15104
G1 X-18.73303 Y55.68296
G3 X-18.86294 Y55.8451 I-0.84114 J-0.54082
G1 X-21.68377 Y58.69911
G3 X-22.77768 Y58.92003 I-0.71123 J-0.70296
G1 X-25.29049 Y57.87919
G3 X-25.90779 Y56.94946 I0.38268 J-0.92388
G1 X-25.88432 Y52.93674
G3 X-25.86153 Y52.73024 I0.99998 J0.00585
G1 X-25.22232 Y49.78878
G1 X-27.14328 Y48.762
G1 X-29.23388 Y50.92768
G3 X-29.39293 Y51.06135 I-0.71947 J-0.69453
G1 X-32.71635 Y53.31021
G3 X-33.83234 Y53.31348 I-0.56042 J-0.82821
G1 X-36.09381 Y51.80241
G3 X-36.51787 Y50.77012 I0.55557 J-0.83147
G1 X-35.71201 Y46.83908
G3 X-35.64937 Y46.64099 I0.97963 J0.20082
G1 X-34.44859 Y43.88075
G1 X-36.13233 Y42.49895
G1 X-38.60526 Y44.21515
G3 X-38.78733 Y44.31523 I-0.57015 J-0.82154
G1 X-42.48562 Y45.87251
G3 X-43.58081 Y45.65799 I-0.38808 J-0.92163
G1 X-45.50403 Y43.73477
G3 X-45.71855 Y42.63958 I0.70711 J-0.70711
G1 X-44.16126 Y38.94129
G3 X-44.06118 Y38.75923 I0.92163 J0.38808
G1 X-42.34498 Y36.28629
G1 X-43.72679 Y34.60256
G1 X-46.48702 Y35.80334
G3 X-46.68511 Y35.86598 I-0.39892 J-0.91699
G1 X-50.61615 Y36.67183
G3 X-51.64845 Y36.24778 I-0.20082 J-0.97963
G1 X-53.15951 Y33.98631
G3 X-53.15625 Y32.87031 I0.83147 J-0.55557
G1 X-50.90739 Y29.54689
G3 X-50.77371 Y29.38785 I0.82821 J0.56042
G1 X-48.60804 Y27.29725
G1 X-49.63481 Y25.37629
G1 X-49.96346 Y25.44771
G1 X-51.42925 Y25.76624 Z-3.0
G1 X-52.57627 Y26.0155
G3 X-52.78278 Y26.03829 I-0.21236 J-0.97719
G1 X-53.41601 Y26.04199
G1 X-54.94907 Y26.05096 Z-4.9
G1 X-56.7955 Y26.06176
G3 X-57.72523 Y25.44446 I-0.00585 J-0.99998
G1 X-58.76607 Y22.93165
G3 X-58.54515 Y21.83773 I0.92388 J-0.38268
G1 X-55.69113 Y19.0169
G3 X-55.52899 Y18.88699 I0.70296 J0.71123
G1 X-52.99708 Y17.25906
G1 X-53.62936 Y15.1747
G1 X-56.639 Y15.22778
G3 X-56.84599 Y15.20985 I-0.01763 J-0.99984
G1 X-60.78619 Y14.45002
G3 X-61.57762 Y13.6632 I0.18935 J-0.98191
G1 X-62.10824 Y10.99561
G3 X-61.67815 Y9.96582 I0.98079 J-0.19509
G1 X-58.32865 Y7.75598
G3 X-58.14429 Y7.6602 I0.5507 J0.8347
G1 X-55.34343 Y6.5575
G1 X-55.55693 Y4.38983
G1 X-58.51909 Y3.85474
G3 X-58.7186 Y3.79677 I0.17776 J-0.98407
G1 X-62.43485 Y2.28285
G3 X-63.05758 Y1.35675 I0.37727 J-0.9261
G1 Y-1.3631
G3 X-62.43485 Y-2.2892 I1.0 J0.0
G1 X-58.7186 Y-3.80312
G3 X-58.51909 Y-3.8611 I0.37727 J0.9261
G1 X-55.55693 Y-4.39619
G1 X-55.34343 Y-6.56385
G1 X-58.14429 Y-7.66655
G3 X-58.32865 Y-7.76233 I0.36633 J-0.93048
G1 X-61.67815 Y-9.97217
G3 X-62.10824 Y-11.00196 I0.5507 J-0.8347
G1 X-61.57762 Y-13.66955
G3 X-60.78619 Y-14.45637 I0.98079 J0.19509
G1 X-56.84599 Y-15.2162
G3 X-56.639 Y-15.23413 I0.18935 J0.98191
G1 X-53.62936 Y-15.18105
G1 X-52.99708 Y-17.26541
G1 X-55.52899 Y-18.89335
G3 X-55.69113 Y-19.02325 I0.54082 J-0.84114
G1 X-58.54515 Y-21.84408
G3 X-58.76607 Y-22.938 I0.70296 J-0.71123
G1 X-57.72523 Y-25.45081
G3 X-56.7955 Y-26.06811 I0.92388 J0.38268
G1 X-52.78278 Y-26.04464
G3 X-52.57627 Y-26.02185 I-0.00585 J0.99998
G1 X-49.63481 Y-25.38264
G1 X-48.60804 Y-27.3036
G1 X-50.77371 Y-29.3942
G3 X-50.90739 Y-29.55325 I0.69453 J-0.71947
G1 X-53.15625 Y-32.87667
G3 X-53.15951 Y-33.99266 I0.82821 J-0.56042
G1 X-51.64845 Y-36.25413
G3 X-50.61615 Y-36.67819 I0.83147 J0.55557
G1 X-46.68511 Y-35.87233
G3 X-46.48702 Y-35.80969 I-0.20082 J0.97963
G1 X-43.72679 Y-34.60891
G1 X-42.34498 Y-36.29264
G1 X-44.06118 Y-38.76558
G3 X-44.16126 Y-38.94765 I0.82154 J-0.57015
G1 X-45.71855 Y-42.64594
G3 X-45.50403 Y-43.74112 I0.92163 J-0.38808
G1 X-43.58081 Y-45.66435
G3 X-42.48562 Y-45.87886 I0.70711 J0.70711
G1 X-38.78733 Y-44.32158
G3 X-38.60526 Y-44.2215 I-0.38808 J0.92163
G1 X-36.13233 Y-42.5053
G1 X-34.44859 Y-43.8871
G1 X-35.64937 Y-46.64734
G3 X-35.71201 Y-46.84543 I0.91699 J-0.39892
G1 X-36.51787 Y-50.77647
G3 X-36.09381 Y-51.80876 I0.97963 J-0.20082
G1 X-33.83234 Y-53.31983
G3 X-32.71635 Y-53.31656 I0.55557 J0.83147
G1 X-29.39293 Y-51.06771
G3 X-29.23388 Y-50.93403 I-0.56042 J0.82821
G1 X-27.14328 Y-48.76835
G1 X-25.22232 Y-49.79513
G1 X-25.86153 Y-52.73659
G3 X-25.88432 Y-52.94309 I0.97719 J-0.21236
G1 X-25.90779 Y-56.95582
G3 X-25.29049 Y-57.88554 I0.99998 J-0.00585
G1 X-22.77768 Y-58.92638
G3 X-21.68377 Y-58.70546 I0.38268 J0.92388
G1 X-18.86294 Y-55.85145
G3 X-18.73303 Y-55.68931 I-0.71123 J0.70296
G1 X-17.1051 Y-53.15739
G1 X-15.02073 Y-53.78968
G1 X-15.07382 Y-56.79932
G3 X-15.05588 Y-57.00631 I0.99984 J-0.01763
G1 X-14.29605 Y-60.9465
G3 X-13.50923 Y-61.73794 I0.98191 J0.18935
G1 X-10.84164 Y-62.26855
G3 X-9.81185 Y-61.83847 I0.19509 J0.98079
G1 X-7.60201 Y-58.48897
G3 X-7.50623 Y-58.3046 I-0.8347 J0.5507
G1 X-6.40353 Y-55.50375
G1 X-4.23587 Y-55.71724
G1 X-3.70078 Y-58.67941
G3 X-3.64281 Y-58.87892 I0.98407 J0.17776
G1 X-2.12888 Y-62.59517
G3 X-1.20278 Y-63.2179 I0.9261 J0.37727
G1 X1.51707
G3 X2.44317 Y-62.59517 I0.0 J1.0
G1 X3.95709 Y-58.87892
G3 X4.01506 Y-58.67941 I-0.9261 J0.37727
G1 X4.55015 Y-55.71724
G1 X6.71782 Y-55.50375
G1 X7.82052 Y-58.3046
G3 X7.9163 Y-58.48897 I0.93048 J0.36633
G1 X10.12613 Y-61.83847
G3 X11.15593 Y-62.26855 I0.8347 J0.5507
G1 X13.82351 Y-61.73794
G3 X14.61033 Y-60.9465 I-0.19509 J0.98079
G1 X15.37016 Y-57.00631
G3 X15.3881 Y-56.79932 I-0.98191 J0.18935
G1 X15.33502 Y-53.78968
G1 X17.41938 Y-53.15739
G1 X19.04731 Y-55.68931
G3 X19.17722 Y-55.85145 I0.84114 J0.54082
G1 X21.99805 Y-58.70546
G3 X23.09196 Y-58.92638 I0.71123 J0.70296
G1 X25.60477 Y-57.88554
G3 X26.22207 Y-56.95581 I-0.38268 J0.92388
G1 X26.19861 Y-52.94309
G3 X26.17582 Y-52.73659 I-0.99998 J-0.00585
G1 X25.5366 Y-49.79513
G1 X27.45756 Y-48.76835
G1 X29.54817 Y-50.93403
G3 X29.70721 Y-51.06771 I0.71947 J0.69453
G1 X33.03063 Y-53.31656
G3 X34.14662 Y-53.31983 I0.56042 J0.82821
G1 X36.40809 Y-51.80876
G3 X36.83215 Y-50.77647 I-0.55557 J0.83147
G1 X36.02629 Y-46.84543
G3 X35.96365 Y-46.64734 I-0.97963 J-0.20082
G1 X34.76287 Y-43.8871
G1 X36.44661 Y-42.5053
G1 X38.91954 Y-44.2215
G3 X39.10161 Y-44.32158 I0.57015 J0.82154
G1 X42.7999 Y-45.87886
G3 X43.89509 Y-45.66435 I0.38808 J0.92163
G1 X45.81831 Y-43.74112
G3 X46.03283 Y-42.64594 I-0.70711 J0.70711
G1 X44.47555 Y-38.94765
G3 X44.37547 Y-38.76558 I-0.92163 J-0.38808
G1 X42.65926 Y-36.29264
G1 X44.04107 Y-34.60891
G1 X46.8013 Y-35.80969
G3 X46.9994 Y-35.87233 I0.39892 J0.91699
G1 X50.93044 Y-36.67819
G3 X51.96273 Y-36.25413 I0.20082 J0.97963
G1 X53.47379 Y-33.99266
G3 X53.47053 Y-32.87667 I-0.83147 J0.55557
G1 X51.22167 Y-29.55325
G3 X51.08799 Y-29.3942 I-0.82821 J-0.56042
G1 X48.92232 Y-27.3036
G1 X49.9491 Y-25.38264
G1 X50.27775 Y-25.45406
G1 X51.74354 Y-25.77259 Z-3.0
G1 X52.89055 Y-26.02185
G3 X53.09706 Y-26.04464 I0.21236 J0.97719
G1 X53.73029 Y-26.04834
G1 X55.26335 Y-26.05731 Z-4.9
G1 X57.10978 Y-26.06811
G3 X58.03951 Y-25.45081 I0.00585 J0.99998
G1 X59.08035 Y-22.938
G3 X58.85943 Y-21.84408 I-0.92388 J0.38268
G1 X56.00542 Y-19.02325
G3 X55.84328 Y-18.89335 I-0.70296 J-0.71123
G1 X53.31136 Y-17.26541
G1 X53.94364 Y-15.18105
G1 X56.95329 Y-15.23413
G3 X57.16027 Y-15.2162 I0.01763 J0.99984
G1 X61.10047 Y-14.45637
G3 X61.8919 Y-13.66955 I-0.18935 J0.98191
G1 X62.42252 Y-11.00196
G3 X61.99243 Y-9.97217 I-0.98079 J0.19509
G1 X58.64294 Y-7.76233
G3 X58.45857 Y-7.66655 I-0.5507 J-0.8347
G1 X55.65771 Y-6.56385
G1 X55.87121 Y-4.39619
G1 X58.83337 Y-3.8611
G3 X59.03288 Y-3.80312 I-0.17776 J0.98407
G1 X62.74914 Y-2.2892
G3 X63.37186 Y-1.3631 I-0.37727 J0.9261
G1 Y1.35675
G3 X62.74914 Y2.28285 I-1.0 J0.0
G1 X59.03288 Y3.79677
G3 X58.83337 Y3.85474 I-0.37727 J-0.9261
G1 X55.87121 Y4.38983
G1 F100.0 Z-5.3
G1 F600.0 X55.65771 Y6.5575
G1 X58.45857 Y7.6602
G3 X58.64294 Y7.75598 I-0.36633 J0.93048
G1 X61.99243 Y9.96582
G3 X62.42252 Y10.99561 I-0.5507 J0.8347
G1 X61.8919 Y13.6632
G3 X61.10047 Y14.45002 I-0.98079 J-0.19509
G1 X57.16027 Y15.20985
G3 X56.95329 Y15.22778 I-0.18935 J-0.98191
G1 X53.94364 Y15.1747
G1 X53.31136 Y17.25906
G1 X55.84328 Y18.88699
G3 X56.00542 Y19.0169 I-0.54082 J0.84114
G1 X58.85943 Y21.83773
G3 X59.08035 Y22.93165 I-0.70296 J0.71123
G1 X58.03951 Y25.44446
G3 X57.10978 Y26.06176 I-0.92388 J-0.38268
G1 X53.09706 Y26.03829
G3 X52.89055 Y26.0155 I0.00585 J-0.99998
G1 X49.94909 Y25.37629
G1 X48.92232 Y27.29725
G1 X51.08799 Y29.38785
G3 X51.22167 Y29.54689 I-0.69453 J0.71947
G1 X53.47053 Y32.87031
G3 X53.47379 Y33.98631 I-0.82821 J0.56042
G1 X51.96273 Y36.24778
G3 X50.93044 Y36.67183 I-0.83147 J-0.55557
G1 X46.9994 Y35.86598
G3 X46.8013 Y35.80334 I0.20082 J-0.97963
G1 X44.04107 Y34.60256
G1 X42.65926 Y36.28629
G1 X44.37547 Y38.75923
G3 X44.47555 Y38.94129 I-0.82154 J0.57015
G1 X46.03283 Y42.63958
G3 X45.81831 Y43.73477 I-0.92163 J0.38808
G1 X43.89509 Y45.65799
G3 X42.7999 Y45.87251 I-0.70711 J-0.70711
G1 X39.10161 Y44.31523
G3 X38.91954 Y44.21515 I0.38808 J-0.92163
G1 X36.44661 Y42.49895
G1 X34.76287 Y43.88075
G1 X35.96365 Y46.64099
G3 X36.02629 Y46.83908 I-0.91699 J0.39892
G1 X36.83215 Y50.77012
G3 X36.40809 Y51.80241 I-0.97963 J0.20082
G1 X34.14662 Y53.31348
G3 X33.03063 Y53.31021 I-0.55557 J-0.83147
G1 X29.70721 Y51.06135
G3 X29.54817 Y50.92768 I0.56042 J-0.82821
G1 X27.45756 Y48.762
G1 X25.5366 Y49.78878
G1 X26.17582 Y52.73024
G3 X26.19861 Y52.93674 I-0.97719 J0.21236
G1 X26.22207 Y56.94946
G3 X25.60477 Y57.87919 I-0.99998 J0.00585
G1 X23.09196 Y58.92003
G3 X21.99805 Y58.69911 I-0.38268 J-0.92388
G1 X19.17722 Y55.8451
G3 X19.04731 Y55.68296 I0.71123 J-0.70296
G1 X17.41938 Y53.15104
G1 X15.33502 Y53.78333
G1 X15.3881 Y56.79297
G3 X15.37016 Y56.99996 I-0.99984 J0.01763
G1 X14.61033 Y60.94015
G3 X13.82352 Y61.73158 I-0.98191 J-0.18935
G1 X11.15593 Y62.2622
G3 X10.12613 Y61.83212 I-0.19509 J-0.98079
G1 X7.9163 Y58.48262
G3 X7.82052 Y58.29825 I0.8347 J-0.5507
G1 X6.71782 Y55.49739
G1 X4.55015 Y55.71089
G1 X4.01506 Y58.67306
G3 X3.95709 Y58.87257 I-0.98407 J-0.17776
G1 X2.44317 Y62.58882
G3 X1.51707 Y63.21155 I-0.9261 J-0.37727
G1 X-1.20278
G3 X-2.12888 Y62.58882 I0.0 J-1.0
G1 X-3.64281 Y58.87257
G3 X-3.70078 Y58.67306 I0.9261 J-0.37727
G1 X-4.23587 Y55.71089
G1 X-6.40353 Y55.49739
G1 X-7.50623 Y58.29825
G3 X-7.60201 Y58.48262 I-0.93048 J-0.36633
G1 X-9.81185 Y61.83212
G3 X-10.84165 Y62.2622 I-0.8347 J-0.5507
G1 X-13.50923 Y61.73158
G3 X-14.29605 Y60.94015 I0.19509 J-0.98079
G1 X-15.05588 Y56.99996
G3 X-15.07382 Y56.79297 I0.98191 J-0.18935
G1 X-15.02073 Y53.78333
G1 X-17.1051 Y53.15104
G1 X-18.73303 Y55.68296
G3 X-18.86294 Y55.8451 I-0.84114 J-0.54082
G1 X-21.68377 Y58.69911
G3 X-22.77768 Y58.92003 I-0.71123 J-0.70296
G1 X-25.29049 Y57.87919
G3 X-25.90779 Y56.94946 I0.38268 J-0.92388
G1 X-25.88432 Y52.93674
G3 X-25.86153 Y52.73024 I0.99998 J0.00585
G1 X-25.22232 Y49.78878
G1 X-27.14328 Y48.762
G1 X-29.23388 Y50.92768
G3 X-29.39293 Y51.06135 I-0.71947 J-0.69453
G1 X-32.71635 Y53.31021
G3 X-33.83234 Y53.31348 I-0.56042 J-0.82821
G1 X-36.09381 Y51.80241
G3 X-36.51787 Y50.77012 I0.55557 J-0.83147
G1 X-35.71201 Y46.83908
G3 X-35.64937 Y46.64099 I0.97963 J0.20082
G1 X-34.44859 Y43.88075
G1 X-36.13233 Y42.49895
G1 X-38.60526 Y44.21515
G3 X-38.78733 Y44.31523 I-0.57015 J-0.82154
G1 X-42.48562 Y45.87251
G3 X-43.58081 Y45.65799 I-0.38808 J-0.92163
G1 X-45.50403 Y43.73477
G3 X-45.71855 Y42.63958 I0.70711 J-0.70711
G1 X-44.16126 Y38.94129
G3 X-44.06118 Y38.75923 I0.92163 J0.38808
G1 X-42.34498 Y36.28629
G1 X-43.72679 Y34.60256
G1 X-46.48702 Y35.80334
G3 X-46.68511 Y35.86598 I-0.39892 J-0.91699
G1 X-50.61615 Y36.67183
G3 X-51.64845 Y36.24778 I-0.20082 J-0.97963
G1 X-53.15951 Y33.98631
G3 X-53.15625 Y32.87031 I0.83147 J-0.55557
G1 X-50.90739 Y29.54689
G3 X-50.77371 Y29.38785 I0.82821 J0.56042
G1 X-48.60804 Y27.29725
G1 X-49.63481 Y25.37629
G1 X-49.96346 Y25.44771
G1 X-51.42925 Y25.76624 Z-3.0
G1 X-52.57627 Y26.0155
G3 X-52.78278 Y26.03829 I-0.21236 J-0.97719
G1 X-53.41601 Y26.04199
G1 X-54.94907 Y26.05096 Z-5.3
G1 X-56.7955 Y26.06176
G3 X-57.72523 Y25.44446 I-0.00585 J-0.99998
G1 X-58.76607 Y22.93165
G3 X-58.54515 Y21.83773 I0.92388 J-0.38268
G1 X-55.69113 Y19.0169
G3 X-55.52899 Y18.88699 I0.70296 J0.71123
G1 X-52.99708 Y17.25906
G1 X-53.62936 Y15.1747
G1 X-56.639 Y15.22778
G3 X-56.84599 Y15.20985 I-0.01763 J-0.99984
G1 X-60.78619 Y14.45002
G3 X-61.57762 Y13.6632 I0.18935 J-0.98191
G1 X-62.10824 Y10.99561
G3 X-61.67815 Y9.96582 I0.98079 J-0.19509
G1 X-58.32865 Y7.75598
G3 X-58.14429 Y7.6602 I0.5507 J0.8347
G1 X-55.34343 Y6.5575
G1 X-55.55693 Y4.38983
G1 X-58.51909 Y3.85474
G3 X-58.7186 Y3.79677 I0.17776 J-0.98407
G1 X-62.43485 Y2.28285
G3 X-63.05758 Y1.35675 I0.37727 J-0.9261
G1 Y-1.3631
G3 X-62.43485 Y-2.2892 I1.0 J0.0
G1 X-58.7186 Y-3.80312
G3 X-58.51909 Y-3.8611 I0.37727 J0.9261
G1 X-55.55693 Y-4.39619
G1 X-55.34343 Y-6.56385
G1 X-58.14429 Y-7.66655
G3 X-58.32865 Y-7.76233 I0.36633 J-0.93048
G1 X-61.67815 Y-9.97217
G3 X-62.10824 Y-11.00196 I0.5507 J-0.8347
G1 X-61.57762 Y-13.66955
G3 X-60.78619 Y-14.45637 I0.98079 J0.19509
G1 X-56.84599 Y-15.2162
G3 X-56.639 Y-15.23413 I0.18935 J0.98191
G1 X-53.62936 Y-15.18105
G1 X-52.99708 Y-17.26541
G1 X-55.52899 Y-18.89335
G3 X-55.69113 Y-19.02325 I0.54082 J-0.84114
G1 X-58.54515 Y-21.84408
G3 X-58.76607 Y-22.938 I0.70296 J-0.71123
G1 X-57.72523 Y-25.45081
G3 X-56.7955 Y-26.06811 I0.92388 J0.38268
G1 X-52.78278 Y-26.04464
G3 X-52.57627 Y-26.02185 I-0.00585 J0.99998
G1 X-49.63481 Y-25.38264
G1 X-48.60804 Y-27.3036
G1 X-50.77371 Y-29.3942
G3 X-50.90739 Y-29.55325 I0.69453 J-0.71947
G1 X-53.15625 Y-32.87667
G3 X-53.15951 Y-33.99266 I0.82821 J-0.56042
G1 X-51.64845 Y-36.25413
G3 X-50.61615 Y-36.67819 I0.83147 J0.55557
G1 X-46.68511 Y-35.87233
G3 X-46.48702 Y-35.80969 I-0.20082 J0.97963
G1 X-43.72679 Y-34.60891
G1 X-42.34498 Y-36.29264
G1 X-44.06118 Y-38.76558
G3 X-44.16126 Y-38.94765 I0.82154 J-0.57015
G1 X-45.71855 Y-42.64594
G3 X-45.50403 Y-43.74112 I0.92163 J-0.38808
G1 X-43.58081 Y-45.66435
G3 X-42.48562 Y-45.87886 I0.70711 J0.70711
G1 X-38.78733 Y-44.32158
G3 X-38.60526 Y-44.2215 I-0.38808 J0.92163
G1 X-36.13233 Y-42.5053
G1 X-34.44859 Y-43.8871
G1 X-35.64937 Y-46.64734
G3 X-35.71201 Y-46.84543 I0.91699 J-0.39892
G1 X-36.51787 Y-50.77647
G3 X-36.09381 Y-51.80876 I0.97963 J-0.20082
G1 X-33.83234 Y-53.31983
G3 X-32.71635 Y-53.31656 I0.55557 J0.83147
G1 X-29.39293 Y-51.06771
G3 X-29.23388 Y-50.93403 I-0.56042 J0.82821
G1 X-27.14328 Y-48.76835
G1 X-25.22232 Y-49.79513
G1 X-25.86153 Y-52.73659
G3 X-25.88432 Y-52.94309 I0.97719 J-0.21236
G1 X-25.90779 Y-56.95582
G3 X-25.29049 Y-57.88554 I0.99998 J-0.00585
G1 X-22.77768 Y-58.92638
G3 X-21.68377 Y-58.70546 I0.38268 J0.92388
G1 X-18.86294 Y-55.85145
G3 X-18.73303 Y-55.68931 I-0.71123 J0.70296
G1 X-17.1051 Y-53.15739
G1 X-15.02073 Y-53.78968
G1 X-15.07382 Y-56.79932
G3 X-15.05588 Y-57.00631 I0.99984 J-0.01763
G1 X-14.29605 Y-60.9465
G3 X-13.50923 Y-61.73794 I0.98191 J0.18935
G1 X-10.84164 Y-62.26855
G3 X-9.81185 Y-61.83847 I0.19509 J0.98079
G1 X-7.60201 Y-58.48897
G3 X-7.50623 Y-58.3046 I-0.8347 J0.5507
G1 X-6.40353 Y-55.50375
G1 X-4.23587 Y-55.71724
G1 X-3.70078 Y-58.67941
G3 X-3.64281 Y-58.87892 I0.98407 J0.17776
G1 X-2.12888 Y-62.59517
G3 X-1.20278 Y-63.2179 I0.9261 J0.37727
G1 X1.51707
G3 X2.44317 Y-62.59517 I0.0 J1.0
G1 X3.95709 Y-58.87892
G3 X4.01506 Y-58.67941 I-0.9261 J0.37727
G1 X4.55015 Y-55.71724
G1 X6.71782 Y-55.50375
G1 X7.82052 Y-58.3046
G3 X7.9163 Y-58.48897 I0.93048 J0.36633
G1 X10.12613 Y-61.83847
G3 X11.15593 Y-62.26855 I0.8347 J0.5507
G1 X13.82351 Y-61.73794
G3 X14.61033 Y-60.9465 I-0.19509 J0.98079
G1 X15.37016 Y-57.00631
G3 X15.3881 Y-56.79932 I-0.98191 J0.18935
G1 X15.33502 Y-53.78968
G1 X17.41938 Y-53.15739
G1 X19.04731 Y-55.68931
G3 X19.17722 Y-55.85145 I0.84114 J0.54082
G1 X21.99805 Y-58.70546
G3 X23.09196 Y-58.92638 I0.71123 J0.70296
G1 X25.60477 Y-57.88554
G3 X26.22207 Y-56.95581 I-0.38268 J0.92388
G1 X26.19861 Y-52.94309
G3 X26.17582 Y-52.73659 I-0.99998 J-0.00585
G1 X25.5366 Y-49.79513
G1 X27.45756 Y-48.76835
G1 X29.54817 Y-50.93403
G3 X29.70721 Y-51.06771 I0.71947 J0.69453
G1 X33.03063 Y-53.31656
G3 X34.14662 Y-53.31983 I0.56042 J0.82821
G1 X36.40809 Y-51.80876
G3 X36.83215 Y-50.77647 I-0.55557 J0.83147
G1 X36.02629 Y-46.84543
G3 X35.96365 Y-46.64734 I-0.97963 J-0.20082
G1 X34.76287 Y-43.8871
G1 X36.44661 Y-42.5053
G1 X38.91954 Y-44.2215
G3 X39.10161 Y-44.32158 I0.57015 J0.82154
G1 X42.7999 Y-45.87886
G3 X43.89509 Y-45.66435 I0.38808 J0.92163
G1 X45.81831 Y-43.74112
G3 X46.03283 Y-42.64594 I-0.70711 J0.70711
G1 X44.47555 Y-38.94765
G3 X44.37547 Y-38.76558 I-0.92163 J-0.38808
G1 X42.65926 Y-36.29264
G1 X44.04107 Y-34.60891
G1 X46.8013 Y-35.80969
G3 X46.9994 Y-35.87233 I0.39892 J0.91699
G1 X50.93044 Y-36.67819
G3 X51.96273 Y-36.25413 I0.20082 J0.97963
G1 X53.47379 Y-33.99266
G3 X53.47053 Y-32.87667 I-0.83147 J0.55557
G1 X51.22167 Y-29.55325
G3 X51.08799 Y-29.3942 I-0.82821 J-0.56042
G1 X48.92232 Y-27.3036
G1 X49.9491 Y-25.38264
G1 X50.27775 Y-25.45406
G1 X51.74354 Y-25.77259 Z-3.0
G1 X52.89055 Y-26.02185
G3 X53.09706 Y-26.04464 I0.21236 J0.97719
G1 X53.73029 Y-26.04834
G1 X55.26335 Y-26.05731 Z-5.3
G1 X57.10978 Y-26.06811
G3 X58.03951 Y-25.45081 I0.00585 J0.99998
G1 X59.08035 Y-22.938
G3 X58.85943 Y-21.84408 I-0.92388 J0.38268
G1 X56.00542 Y-19.02325
G3 X55.84328 Y-18.89335 I-0.70296 J-0.71123
G1 X53.31136 Y-17.26541
G1 X53.94364 Y-15.18105
G1 X56.95329 Y-15.23413
G3 X57.16027 Y-15.2162 I0.01763 J0.99984
G1 X61.10047 Y-14.45637
G3 X61.8919 Y-13.66955 I-0.18935 J0.98191
G1 X62.42252 Y-11.00196
G3 X61.99243 Y-9.97217 I-0.98079 J0.19509
G1 X58.64294 Y-7.76233
G3 X58.45857 Y-7.66655 I-0.5507 J-0.8347
G1 X55.65771 Y-6.56385
G1 X55.87121 Y-4.39619
G1 X58.83337 Y-3.8611
G3 X59.03288 Y-3.80312 I-0.17776 J0.98407
G1 X62.74914 Y-2.2892
G3 X63.37186 Y-1.3631 I-0.37727 J0.9261
G1 Y1.35675
G3 X62.74914 Y2.28285 I-1.0 J0.0
G1 X59.03288 Y3.79677
G3 X58.83337 Y3.85474 I-0.37727 J-0.9261
G1 X55.87121 Y4.38983
G1 F100.0 Z-6.0
G1 F600.0 X55.65771 Y6.5575
G1 X58.45857 Y7.6602
G3 X58.64294 Y7.75598 I-0.36633 J0.93048
G1 X61.99243 Y9.96582
G3 X62.42252 Y10.99561 I-0.5507 J0.8347
G1 X61.8919 Y13.6632
G3 X61.10047 Y14.45002 I-0.98079 J-0.19509
G1 X57.16027 Y15.20985
G3 X56.95329 Y15.22778 I-0.18935 J-0.98191
G1 X53.94364 Y15.1747
G1 X53.31136 Y17.25906
G1 X55.84328 Y18.88699
G3 X56.00542 Y19.0169 I-0.54082 J0.84114
G1 X58.85943 Y21.83773
G3 X59.08035 Y22.93165 I-0.70296 J0.71123
G1 X58.03951 Y25.44446
G3 X57.10978 Y26.06176 I-0.92388 J-0.38268
G1 X53.09706 Y26.03829
G3 X52.89055 Y26.0155 I0.00585 J-0.99998
G1 X49.94909 Y25.37629
G1 X48.92232 Y27.29725
G1 X51.08799 Y29.38785
G3 X51.22167 Y29.54689 I-0.69453 J0.71947
G1 X53.47053 Y32.87031
G3 X53.47379 Y33.98631 I-0.82821 J0.56042
G1 X51.96273 Y36.24778
G3 X50.93044 Y36.67183 I-0.83147 J-0.55557
G1 X46.9994 Y35.86598
G3 X46.8013 Y35.80334 I0.20082 J-0.97963
G1 X44.04107 Y34.60256
G1 X42.65926 Y36.28629
G1 X44.37547 Y38.75923
G3 X44.47555 Y38.94129 I-0.82154 J0.57015
G1 X46.03283 Y42.63958
G3 X45.81831 Y43.73477 I-0.92163 J0.38808
G1 X43.89509 Y45.65799
G3 X42.7999 Y45.87251 I-0.70711 J-0.70711
G1 X39.10161 Y44.31523
G3 X38.91954 Y44.21515 I0.38808 J-0.92163
G1 X36.44661 Y42.49895
G1 X34.76287 Y43.88075
G1 X35.96365 Y46.64099
G3 X36.02629 Y46.83908 I-0.91699 J0.39892
G1 X36.83215 Y50.77012
G3 X36.40809 Y51.80241 I-0.97963 J0.20082
G1 X34.14662 Y53.31348
G3 X33.03063 Y53.31021 I-0.55557 J-0.83147
G1 X29.70721 Y51.06135
G3 X29.54817 Y50.92768 I0.56042 J-0.82821
G1 X27.45756 Y48.762
G1 X25.5366 Y49.78878
G1 X26.17582 Y52.73024
G3 X26.19861 Y52.93674 I-0.97719 J0.21236
G1 X26.22207 Y56.94946
G3 X25.60477 Y57.87919 I-0.99998 J0.00585
G1 X23.09196 Y58.92003
G3 X21.99805 Y58.69911 I-0.38268 J-0.92388
G1 X19.17722 Y55.8451
G3 X19.04731 Y55.68296 I0.71123 J-0.70296
G1 X17.41938 Y53.15104
G1 X15.33502 Y53.78333
G1 X15.3881 Y56.79297
G3 X15.37016 Y56.99996 I-0.99984 J0.01763
G1 X14.61033 Y60.94015
G3 X13.82352 Y61.73158 I-0.98191 J-0.18935
G1 X11.15593 Y62.2622
G3 X10.12613 Y61.83212 I-0.19509 J-0.98079
G1 X7.9163 Y58.48262
G3 X7.82052 Y58.29825 I0.8347 J-0.5507
G1 X6.71782 Y55.49739
G1 X4.55015 Y55.71089
G1 X4.01506 Y58.67306
G3 X3.95709 Y58.87257 I-0.98407 J-0.17776
G1 X2.44317 Y62.58882
G3 X1.51707 Y63.21155 I-0.9261 J-0.37727
G1 X-1.20278
G3 X-2.12888 Y62.58882 I0.0 J-1.0
G1 X-3.64281 Y58.87257
G3 X-3.70078 Y58.67306 I0.9261 J-0.37727
G1 X-4.23587 Y55.71089
G1 X-6.40353 Y55.49739
G1 X-7.50623 Y58.29825
G3 X-7.60201 Y58.48262 I-0.93048 J-0.36633
G1 X-9.81185 Y61.83212
G3 X-10.84165 Y62.2622 I-0.8347 J-0.5507
G1 X-13.50923 Y61.73158
G3 X-14.29605 Y60.94015 I0.19509 J-0.98079
G1 X-15.05588 Y56.99996
G3 X-15.07382 Y56.79297 I0.98191 J-0.18935
G1 X-15.02073 Y53.78333
G1 X-17.1051 Y53.15104
G1 X-18.73303 Y55.68296
G3 X-18.86294 Y55.8451 I-0.84114 J-0.54082
G1 X-21.68377 Y58.69911
G3 X-22.77768 Y58.92003 I-0.71123 J-0.70296
G1 X-25.29049 Y57.87919
G3 X-25.90779 Y56.94946 I0.38268 J-0.92388
G1 X-25.88432 Y52.93674
G3 X-25.86153 Y52.73024 I0.99998 J0.00585
G1 X-25.22232 Y49.78878
G1 X-27.14328 Y48.762
G1 X-29.23388 Y50.92768
G3 X-29.39293 Y51.06135 I-0.71947 J-0.69453
G1 X-32.71635 Y53.31021
G3 X-33.83234 Y53.31348 I-0.56042 J-0.82821
G1 X-36.09381 Y51.80241
G3 X-36.51787 Y50.77012 I0.55557 J-0.83147
G1 X-35.71201 Y46.83908
G3 X-35.64937 Y46.64099 I0.97963 J0.20082
G1 X-34.44859 Y43.88075
G1 X-36.13233 Y42.49895
G1 X-38.60526 Y44.21515
G3 X-38.78733 Y44.31523 I-0.57015 J-0.82154
G1 X-42.48562 Y45.87251
G3 X-43.58081 Y45.65799 I-0.38808 J-0.92163
G1 X-45.50403 Y43.73477
G3 X-45.71855 Y42.63958 I0.70711 J-0.70711
G1 X-44.16126 Y38.94129
G3 X-44.06118 Y38.75923 I0.92163 J0.38808
G1 X-42.34498 Y36.28629
G1 X-43.72679 Y34.60256
G1 X-46.48702 Y35.80334
G3 X-46.68511 Y35.86598 I-0.39892 J-0.91699
G1 X-50.61615 Y36.67183
G3 X-51.64845 Y36.24778 I-0.20082 J-0.97963
G1 X-53.15951 Y33.98631
G3 X-53.15625 Y32.87031 I0.83147 J-0.55557
G1 X-50.90739 Y29.54689
G3 X-50.77371 Y29.38785 I0.82821 J0.56042
G1 X-48.60804 Y27.29725
G1 X-49.63481 Y25.37629
G1 X-49.96346 Y25.44771
G1 X-51.42925 Y25.76624 Z-3.0
G1 X-52.57627 Y26.0155
G3 X-52.78278 Y26.03829 I-0.21236 J-0.97719
G1 X-53.41601 Y26.04199
G1 X-54.94907 Y26.05096 Z-6.0
G1 X-56.7955 Y26.06176
G3 X-57.72523 Y25.44446 I-0.00585 J-0.99998
G1 X-58.76607 Y22.93165
G3 X-58.54515 Y21.83773 I0.92388 J-0.38268
G1 X-55.69113 Y19.0169
G3 X-55.52899 Y18.88699 I0.70296 J0.71123
G1 X-52.99708 Y17.25906
G1 X-53.62936 Y15.1747
G1 X-56.639 Y15.22778
G3 X-56.84599 Y15.20985 I-0.01763 J-0.99984
G1 X-60.78619 Y14.45002
G3 X-61.57762 Y13.6632 I0.18935 J-0.98191
G1 X-62.10824 Y10.99561
G3 X-61.67815 Y9.96582 I0.98079 J-0.19509
G1 X-58.32865 Y7.75598
G3 X-58.14429 Y7.6602 I0.5507 J0.8347
G1 X-55.34343 Y6.5575
G1 X-55.55693 Y4.38983
G1 X-58.51909 Y3.85474
G3 X-58.7186 Y3.79677 I0.17776 J-0.98407
G1 X-62.43485 Y2.28285
G3 X-63.05758 Y1.35675 I0.37727 J-0.9261
G1 Y-1.3631
G3 X-62.43485 Y-2.2892 I1.0 J0.0
G1 X-58.7186 Y-3.80312
G3 X-58.51909 Y-3.8611 I0.37727 J0.9261
G1 X-55.55693 Y-4.39619
G1 X-55.34343 Y-6.56385
G1 X-58.14429 Y-7.66655
G3 X-58.32865 Y-7.76233 I0.36633 J-0.93048
G1 X-61.67815 Y-9.97217
G3 X-62.10824 Y-11.00196 I0.5507 J-0.8347
G1 X-61.57762 Y-13.66955
G3 X-60.78619 Y-14.45637 I0.98079 J0.19509
G1 X-56.84599 Y-15.2162
G3 X-56.639 Y-15.23413 I0.18935 J0.98191
G1 X-53.62936 Y-15.18105
G1 X-52.99708 Y-17.26541
G1 X-55.52899 Y-18.89335
G3 X-55.69113 Y-19.02325 I0.54082 J-0.84114
G1 X-58.54515 Y-21.84408
G3 X-58.76607 Y-22.938 I0.70296 J-0.71123
G1 X-57.72523 Y-25.45081
G3 X-56.7955 Y-26.06811 I0.92388 J0.38268
G1 X-52.78278 Y-26.04464
G3 X-52.57627 Y-26.02185 I-0.00585 J0.99998
G1 X-49.63481 Y-25.38264
G1 X-48.60804 Y-27.3036
G1 X-50.77371 Y-29.3942
G3 X-50.90739 Y-29.55325 I0.69453 J-0.71947
G1 X-53.15625 Y-32.87667
G3 X-53.15951 Y-33.99266 I0.82821 J-0.56042
G1 X-51.64845 Y-36.25413
G3 X-50.61615 Y-36.67819 I0.83147 J0.55557
G1 X-46.68511 Y-35.87233
G3 X-46.48702 Y-35.80969 I-0.20082 J0.97963
G1 X-43.72679 Y-34.60891
G1 X-42.34498 Y-36.29264
G1 X-44.06118 Y-38.76558
G3 X-44.16126 Y-38.94765 I0.82154 J-0.57015
G1 X-45.71855 Y-42.64594
G3 X-45.50403 Y-43.74112 I0.92163 J-0.38808
G1 X-43.58081 Y-45.66435
G3 X-42.48562 Y-45.87886 I0.70711 J0.70711
G1 X-38.78733 Y-44.32158
G3 X-38.60526 Y-44.2215 I-0.38808 J0.92163
G1 X-36.13233 Y-42.5053
G1 X-34.44859 Y-43.8871
G1 X-35.64937 Y-46.64734
G3 X-35.71201 Y-46.84543 I0.91699 J-0.39892
G1 X-36.51787 Y-50.77647
G3 X-36.09381 Y-51.80876 I0.97963 J-0.20082
G1 X-33.83234 Y-53.31983
G3 X-32.71635 Y-53.31656 I0.55557 J0.83147
G1 X-29.39293 Y-51.06771
G3 X-29.23388 Y-50.93403 I-0.56042 J0.82821
G1 X-27.14328 Y-48.76835
G1 X-25.22232 Y-49.79513
G1 X-25.86153 Y-52.73659
G3 X-25.88432 Y-52.94309 I0.97719 J-0.21236
G1 X-25.90779 Y-56.95582
G3 X-25.29049 Y-57.88554 I0.99998 J-0.00585
G1 X-22.77768 Y-58.92638
G3 X-21.68377 Y-58.70546 I0.38268 J0.92388
G1 X-18.86294 Y-55.85145
G3 X-18.73303 Y-55.68931 I-0.71123 J0.70296
G1 X-17.1051 Y-53.15739
G1 X-15.02073 Y-53.78968
G1 X-15.07382 Y-56.79932
G3 X-15.05588 Y-57.00631 I0.99984 J-0.01763
G1 X-14.29605 Y-60.9465
G3 X-13.50923 Y-61.73794 I0.98191 J0.18935
G1 X-10.84164 Y-62.26855
G3 X-9.81185 Y-61.83847 I0.19509 J0.98079
G1 X-7.60201 Y-58.48897
G3 X-7.50623 Y-58.3046 I-0.8347 J0.5507
G1 X-6.40353 Y-55.50375
G1 X-4.23587 Y-55.71724
G1 X-3.70078 Y-58.67941
G3 X-3.64281 Y-58.87892 I0.98407 J0.17776
G1 X-2.12888 Y-62.59517
G3 X-1.20278 Y-63.2179 I0.9261 J0.37727
G1 X1.51707
G3 X2.44317 Y-62.59517 I0.0 J1.0
G1 X3.95709 Y-58.87892
G3 X4.01506 Y-58.67941 I-0.9261 J0.37727
G1 X4.55015 Y-55.71724
G1 X6.71782 Y-55.50375
G1 X7.82052 Y-58.3046
G3 X7.9163 Y-58.48897 I0.93048 J0.36633
G1 X10.12613 Y-61.83847
G3 X11.15593 Y-62.26855 I0.8347 J0.5507
G1 X13.82351 Y-61.73794
G3 X14.61033 Y-60.9465 I-0.19509 J0.98079
G1 X15.37016 Y-57.00631
G3 X15.3881 Y-56.79932 I-0.98191 J0.18935
G1 X15.33502 Y-53.78968
G1 X17.41938 Y-53.15739
G1 X19.04731 Y-55.68931
G3 X19.17722 Y-55.85145 I0.84114 J0.54082
G1 X21.99805 Y-58.70546
G3 X23.09196 Y-58.92638 I0.71123 J0.70296
G1 X25.60477 Y-57.88554
G3 X26.22207 Y-56.95581 I-0.38268 J0.92388
G1 X26.19861 Y-52.94309
G3 X26.17582 Y-52.73659 I-0.99998 J-0.00585
G1 X25.5366 Y-49.79513
G1 X27.45756 Y-48.76835
G1 X29.54817 Y-50.93403
G3 X29.70721 Y-51.06771 I0.71947 J0.69453
G1 X33.03063 Y-53.31656
G3 X34.14662 Y-53.31983 I0.56042 J0.82821
G1 X36.40809 Y-51.80876
G3 X36.83215 Y-50.77647 I-0.55557 J0.83147
G1 X36.02629 Y-46.84543
G3 X35.96365 Y-46.64734 I-0.97963 J-0.20082
G1 X34.76287 Y-43.8871
G1 X36.44661 Y-42.5053
G1 X38.91954 Y-44.2215
G3 X39.10161 Y-44.32158 I0.57015 J0.82154
G1 X42.7999 Y-45.87886
G3 X43.89509 Y-45.66435 I0.38808 J0.92163
G1 X45.81831 Y-43.74112
G3 X46.03283 Y-42.64594 I-0.70711 J0.70711
G1 X44.47555 Y-38.94765
G3 X44.37547 Y-38.76558 I-0.92163 J-0.38808
G1 X42.65926 Y-36.29264
G1 X44.04107 Y-34.60891
G1 X46.8013 Y-35.80969
G3 X46.9994 Y-35.87233 I0.39892 J0.91699
G1 X50.93044 Y-36.67819
G3 X51.96273 Y-36.25413 I0.20082 J0.97963
G1 X53.47379 Y-33.99266
G3 X53.47053 Y-32.87667 I-0.83147 J0.55557
G1 X51.22167 Y-29.55325
G3 X51.08799 Y-29.3942 I-0.82821 J-0.56042
G1 X48.92232 Y-27.3036
G1 X49.9491 Y-25.38264
G1 X50.27775 Y-25.45406
G1 X51.74354 Y-25.77259 Z-3.0
G1 X52.89055 Y-26.02185
G3 X53.09706 Y-26.04464 I0.21236 J0.97719
G1 X53.73029 Y-26.04834
G1 X55.26335 Y-26.05731 Z-6.0
G1 X57.10978 Y-26.06811
G3 X58.03951 Y-25.45081 I0.00585 J0.99998
G1 X59.08035 Y-22.938
G3 X58.85943 Y-21.84408 I-0.92388 J0.38268
G1 X56.00542 Y-19.02325
G3 X55.84328 Y-18.89335 I-0.70296 J-0.71123
G1 X53.31136 Y-17.26541
G1 X53.94364 Y-15.18105
G1 X56.95329 Y-15.23413
G3 X57.16027 Y-15.2162 I0.01763 J0.99984
G1 X61.10047 Y-14.45637
G3 X61.8919 Y-13.66955 I-0.18935 J0.98191
G1 X62.42252 Y-11.00196
G3 X61.99243 Y-9.97217 I-0.98079 J0.19509
G1 X58.64294 Y-7.76233
G3 X58.45857 Y-7.66655 I-0.5507 J-0.8347
G1 X55.65771 Y-6.56385
G1 X55.87121 Y-4.39619
G1 X58.83337 Y-3.8611
G3 X59.03288 Y-3.80312 I-0.17776 J0.98407
G1 X62.74914 Y-2.2892
G3 X63.37186 Y-1.3631 I-0.37727 J0.9261
G1 Y1.35675
G3 X62.74914 Y2.28285 I-1.0 J0.0
G1 X59.03288 Y3.79677
G3 X58.83337 Y3.85474 I-0.37727 J-0.9261
G1 X55.87121 Y4.38983
G0 Z3.0
M5
M30
